(Exported by FreeCAD)
(Post Processor: mach3_mach4_post)
(Output Time:2022-08-09 15:20:06.039795)
(begin preamble)
G17 G54 G40 G49 G80 G90
G21
(begin operation: Fixture)
(machine: mach3_4, mm/min)
G54
(finish operation: Fixture)
(begin operation: TC: 4mmEndmill)
(machine: mach3_4, mm/min)
(TC: 4mmEndmill)
M5
M6 T12 
G43 H12
M3 S0
(finish operation: TC: 4mmEndmill)
(begin operation: Adaptive)
(machine: mach3_4, mm/min)
(Adaptive)
(Helix to depth: 4.000000)
(Tool Controller Rapid Values are unset)
 G0 Z12.000
(Tool Controller Rapid Values are unset)
 G0 X5.679 Y15.416 Z12.000
(Tool Controller Rapid Values are unset)
 G0 X5.679 Y15.416 Z10.000
G1 X5.679 Y15.416 Z6.500 F50.000
G1 X5.679 Y15.416 Z6.500 F50.000
G1 X5.958 Y15.330 Z6.474 F50.000
G1 X6.249 Y15.300 Z6.448 F50.000
G1 X6.540 Y15.327 Z6.423 F50.000
G1 X6.819 Y15.411 Z6.397 F50.000
G1 X7.078 Y15.548 Z6.371 F50.000
G1 X7.304 Y15.732 Z6.345 F50.000
G1 X7.490 Y15.957 Z6.320 F50.000
G1 X7.629 Y16.214 Z6.294 F50.000
G1 X7.715 Y16.493 Z6.268 F50.000
G1 X7.745 Y16.784 Z6.242 F50.000
G1 X7.718 Y17.075 Z6.217 F50.000
G1 X7.634 Y17.354 Z6.191 F50.000
G1 X7.497 Y17.613 Z6.165 F50.000
G1 X7.313 Y17.839 Z6.139 F50.000
G1 X7.088 Y18.025 Z6.113 F50.000
G1 X6.831 Y18.164 Z6.088 F50.000
G1 X6.552 Y18.250 Z6.062 F50.000
G1 X6.261 Y18.280 Z6.036 F50.000
G1 X5.970 Y18.253 Z6.010 F50.000
G1 X5.691 Y18.169 Z5.985 F50.000
G1 X5.432 Y18.032 Z5.959 F50.000
G1 X5.206 Y17.848 Z5.933 F50.000
G1 X5.020 Y17.623 Z5.907 F50.000
G1 X4.881 Y17.366 Z5.882 F50.000
G1 X4.795 Y17.087 Z5.856 F50.000
G1 X4.765 Y16.796 Z5.830 F50.000
G1 X4.792 Y16.505 Z5.804 F50.000
G1 X4.876 Y16.226 Z5.779 F50.000
G1 X5.013 Y15.967 Z5.753 F50.000
G1 X5.197 Y15.741 Z5.727 F50.000
G1 X5.422 Y15.555 Z5.701 F50.000
G1 X5.679 Y15.416 Z5.675 F50.000
G1 X5.958 Y15.330 Z5.650 F50.000
G1 X6.249 Y15.300 Z5.624 F50.000
G1 X6.540 Y15.327 Z5.598 F50.000
G1 X6.819 Y15.411 Z5.572 F50.000
G1 X7.078 Y15.548 Z5.547 F50.000
G1 X7.304 Y15.732 Z5.521 F50.000
G1 X7.490 Y15.957 Z5.495 F50.000
G1 X7.629 Y16.214 Z5.469 F50.000
G1 X7.715 Y16.493 Z5.444 F50.000
G1 X7.745 Y16.784 Z5.418 F50.000
G1 X7.718 Y17.075 Z5.392 F50.000
G1 X7.634 Y17.354 Z5.366 F50.000
G1 X7.497 Y17.613 Z5.340 F50.000
G1 X7.313 Y17.839 Z5.315 F50.000
G1 X7.088 Y18.025 Z5.289 F50.000
G1 X6.831 Y18.164 Z5.263 F50.000
G1 X6.552 Y18.250 Z5.237 F50.000
G1 X6.261 Y18.280 Z5.212 F50.000
G1 X5.970 Y18.253 Z5.186 F50.000
G1 X5.691 Y18.169 Z5.160 F50.000
G1 X5.432 Y18.032 Z5.134 F50.000
G1 X5.206 Y17.848 Z5.109 F50.000
G1 X5.020 Y17.623 Z5.083 F50.000
G1 X4.881 Y17.366 Z5.057 F50.000
G1 X4.795 Y17.087 Z5.031 F50.000
G1 X4.765 Y16.796 Z5.005 F50.000
G1 X4.792 Y16.505 Z4.980 F50.000
G1 X4.876 Y16.226 Z4.954 F50.000
G1 X5.013 Y15.967 Z4.928 F50.000
G1 X5.197 Y15.741 Z4.902 F50.000
G1 X5.422 Y15.555 Z4.877 F50.000
G1 X5.679 Y15.416 Z4.851 F50.000
G1 X5.958 Y15.330 Z4.825 F50.000
G1 X6.249 Y15.300 Z4.799 F50.000
G1 X6.540 Y15.327 Z4.774 F50.000
G1 X6.819 Y15.411 Z4.748 F50.000
G1 X7.078 Y15.548 Z4.722 F50.000
G1 X7.304 Y15.732 Z4.696 F50.000
G1 X7.490 Y15.957 Z4.671 F50.000
G1 X7.629 Y16.214 Z4.645 F50.000
G1 X7.715 Y16.493 Z4.619 F50.000
G1 X7.745 Y16.784 Z4.593 F50.000
G1 X7.718 Y17.075 Z4.567 F50.000
G1 X7.634 Y17.354 Z4.542 F50.000
G1 X7.497 Y17.613 Z4.516 F50.000
G1 X7.313 Y17.839 Z4.490 F50.000
G1 X7.088 Y18.025 Z4.464 F50.000
G1 X6.831 Y18.164 Z4.439 F50.000
G1 X6.552 Y18.250 Z4.413 F50.000
G1 X6.261 Y18.280 Z4.387 F50.000
G1 X5.970 Y18.253 Z4.361 F50.000
G1 X5.691 Y18.169 Z4.336 F50.000
G1 X5.432 Y18.032 Z4.310 F50.000
G1 X5.206 Y17.848 Z4.284 F50.000
G1 X5.020 Y17.623 Z4.258 F50.000
G1 X4.881 Y17.366 Z4.232 F50.000
G1 X4.795 Y17.087 Z4.207 F50.000
G1 X4.765 Y16.796 Z4.181 F50.000
G1 X4.792 Y16.505 Z4.155 F50.000
G1 X4.876 Y16.226 Z4.129 F50.000
G1 X5.013 Y15.967 Z4.104 F50.000
G1 X5.197 Y15.741 Z4.078 F50.000
G1 X5.422 Y15.555 Z4.052 F50.000
G1 X5.679 Y15.416 Z4.026 F50.000
G1 X5.958 Y15.330 Z4.001 F50.000
G1 X6.249 Y15.300 Z4.000 F600.000
G1 X6.540 Y15.327 Z4.000 F600.000
G1 X6.819 Y15.411 Z4.000 F600.000
G1 X7.078 Y15.548 Z4.000 F600.000
G1 X7.304 Y15.732 Z4.000 F600.000
G1 X7.490 Y15.957 Z4.000 F600.000
G1 X7.629 Y16.214 Z4.000 F600.000
G1 X7.715 Y16.493 Z4.000 F600.000
G1 X7.745 Y16.784 Z4.000 F600.000
G1 X7.718 Y17.075 Z4.000 F600.000
G1 X7.634 Y17.354 Z4.000 F600.000
G1 X7.497 Y17.613 Z4.000 F600.000
G1 X7.313 Y17.839 Z4.000 F600.000
G1 X7.088 Y18.025 Z4.000 F600.000
G1 X6.831 Y18.164 Z4.000 F600.000
G1 X6.552 Y18.250 Z4.000 F600.000
G1 X6.261 Y18.280 Z4.000 F600.000
G1 X5.970 Y18.253 Z4.000 F600.000
G1 X5.691 Y18.169 Z4.000 F600.000
G1 X5.432 Y18.032 Z4.000 F600.000
G1 X5.206 Y17.848 Z4.000 F600.000
G1 X5.020 Y17.623 Z4.000 F600.000
G1 X4.881 Y17.366 Z4.000 F600.000
G1 X4.795 Y17.087 Z4.000 F600.000
G1 X4.765 Y16.796 Z4.000 F600.000
G1 X4.792 Y16.505 Z4.000 F600.000
G1 X4.876 Y16.226 Z4.000 F600.000
G1 X5.013 Y15.967 Z4.000 F600.000
G1 X5.197 Y15.741 Z4.000 F600.000
G1 X5.422 Y15.555 Z4.000 F600.000
G1 X5.679 Y15.416 Z4.000 F600.000
G1 X5.958 Y15.330 Z4.000 F600.000
(Adaptive - depth: 4.000000)
G1 X6.255 Y15.290 F600.000
G1 X6.310 Y15.230 F600.000
G1 X6.530 Y15.150 F600.000
G1 X6.755 Y15.135 F600.000
G1 X6.905 Y15.150 F600.000
G1 X7.365 Y15.335 F600.000
G1 X7.570 Y15.495 F600.000
G1 X7.695 Y15.620 F600.000
G1 X7.820 Y15.780 F600.000
G1 X7.955 Y16.010 F600.000
G1 X8.065 Y16.290 F600.000
G1 X8.130 Y16.565 F600.000
G1 X8.140 Y16.845 F600.000
G1 X8.120 Y17.070 F600.000
G1 X8.060 Y17.325 F600.000
G1 X7.960 Y17.590 F600.000
G1 X7.815 Y17.845 F600.000
G1 X7.640 Y18.065 F600.000
G1 X7.455 Y18.245 F600.000
G1 X7.225 Y18.410 F600.000
G1 X6.980 Y18.535 F600.000
G1 X6.720 Y18.615 F600.000
G1 X6.475 Y18.655 F600.000
G1 X6.215 Y18.670 F600.000
G1 X5.900 Y18.635 F600.000
G1 X5.635 Y18.570 F600.000
G1 X5.375 Y18.460 F600.000
G1 X5.150 Y18.325 F600.000
G1 X4.940 Y18.150 F600.000
G1 X4.755 Y17.950 F600.000
G1 X4.590 Y17.710 F600.000
G1 X4.475 Y17.455 F600.000
G1 X4.400 Y17.215 F600.000
G1 X4.360 Y16.945 F600.000
G1 X4.355 Y16.680 F600.000
G1 X4.385 Y16.395 F600.000
G1 X4.460 Y16.110 F600.000
G1 X4.580 Y15.855 F600.000
G1 X4.705 Y15.655 F600.000
G1 X4.880 Y15.445 F600.000
G1 X5.100 Y15.250 F600.000
G1 X5.335 Y15.085 F600.000
G1 X5.595 Y14.930 F600.000
G1 X6.105 Y14.730 F600.000
G1 X6.330 Y14.685 F600.000
G1 X6.480 Y14.675 F600.000
G1 X6.975 Y14.720 F600.000
G1 X7.440 Y14.890 F600.000
G1 X7.630 Y15.000 F600.000
G1 X7.795 Y15.120 F600.000
G1 X7.985 Y15.300 F600.000
G1 X8.175 Y15.535 F600.000
G1 X8.345 Y15.820 F600.000
G1 X8.460 Y16.095 F600.000
G1 X8.550 Y16.545 F600.000
G1 X8.560 Y17.040 F600.000
G1 X8.490 Y17.340 F600.000
G1 X8.330 Y17.810 F600.000
G1 X8.150 Y18.075 F600.000
G1 X7.835 Y18.465 F600.000
G1 X7.530 Y18.700 F600.000
G1 X7.140 Y18.910 F600.000
G1 X6.845 Y19.010 F600.000
G1 X6.575 Y19.065 F600.000
G1 X6.300 Y19.090 F600.000
G1 X5.930 Y19.065 F600.000
G1 X5.440 Y18.950 F600.000
G1 X5.140 Y18.810 F600.000
G1 X4.715 Y18.540 F600.000
G1 X4.380 Y18.165 F600.000
G1 X4.160 Y17.810 F600.000
G1 X3.980 Y17.345 F600.000
G1 X3.890 Y16.865 F600.000
G1 X3.895 Y16.465 F600.000
G1 X3.965 Y16.065 F600.000
G1 X4.105 Y15.685 F600.000
G1 X4.350 Y15.275 F600.000
G1 X4.605 Y14.965 F600.000
G1 X4.965 Y14.650 F600.000
G1 X5.440 Y14.365 F600.000
G1 X5.960 Y14.190 F600.000
G1 X6.185 Y14.145 F600.000
G1 X6.710 Y14.145 F600.000
G1 X7.160 Y14.230 F600.000
G1 X7.520 Y14.360 F600.000
G1 X7.920 Y14.590 F600.000
G1 X8.270 Y14.880 F600.000
G1 X8.560 Y15.230 F600.000
G1 X8.755 Y15.560 F600.000
G1 X8.950 Y16.140 F600.000
G1 X9.010 Y16.590 F600.000
G1 X8.975 Y17.190 F600.000
G1 X8.875 Y17.565 F600.000
G1 X8.690 Y17.995 F600.000
G1 X8.380 Y18.460 F600.000
G1 X7.985 Y18.850 F600.000
G1 X7.510 Y19.165 F600.000
G1 X7.215 Y19.295 F600.000
G1 X6.655 Y19.440 F600.000
G1 X6.095 Y19.480 F600.000
G1 X5.535 Y19.415 F600.000
G1 X5.060 Y19.260 F600.000
G1 X4.625 Y19.015 F600.000
G1 X4.300 Y18.750 F600.000
G1 X3.925 Y18.300 F600.000
G1 X3.710 Y17.945 F600.000
G1 X3.545 Y17.565 F600.000
G1 X3.405 Y17.005 F600.000
G1 X3.375 Y16.605 F600.000
G1 X3.405 Y16.205 F600.000
G1 X3.515 Y15.725 F600.000
G1 X3.770 Y15.210 F600.000
G1 X4.060 Y14.820 F600.000
G1 X4.465 Y14.445 F600.000
G1 X5.070 Y14.080 F600.000
G1 X5.295 Y13.995 F600.000
G1 X5.895 Y13.860 F600.000
G1 X6.270 Y13.835 F600.000
G1 X6.870 Y13.905 F600.000
G1 X7.240 Y14.025 F600.000
G1 X7.730 Y14.250 F600.000
G1 X8.335 Y14.705 F600.000
G1 X8.685 Y15.110 F600.000
G1 X8.915 Y15.505 F600.000
G1 X9.095 Y16.005 F600.000
G1 X9.205 Y16.530 F600.000
G1 X9.195 Y17.055 F600.000
G1 X9.090 Y17.580 F600.000
G1 X8.925 Y18.030 F600.000
G1 X8.645 Y18.520 F600.000
G1 X8.270 Y18.940 F600.000
G1 X7.815 Y19.290 F600.000
G1 X7.315 Y19.540 F600.000
G1 X6.845 Y19.685 F600.000
G1 X6.445 Y19.735 F600.000
G1 X5.885 Y19.715 F600.000
G1 X5.485 Y19.635 F600.000
G1 X4.925 Y19.425 F600.000
G1 X4.570 Y19.210 F600.000
G1 X4.025 Y18.720 F600.000
G1 X3.775 Y18.385 F600.000
G1 X3.475 Y17.785 F600.000
G1 X3.325 Y17.145 F600.000
G1 X3.310 Y16.985 F600.000
G1 X3.310 Y16.985 F600.000
G1 X3.320 Y16.960 F600.000
G1 X3.335 Y16.950 F600.000
G1 X3.340 Y16.945 F600.000
G1 X3.345 Y16.950 F600.000
G1 X3.340 Y16.965 F600.000
G1 X3.305 Y16.930 F600.000
G1 X3.305 Y16.930 F600.000
G1 X3.305 Y16.770 F600.000
G1 X3.305 Y16.770 F600.000
G1 X3.310 Y16.750 F600.000
(Tool Controller Rapid Values are unset)
 G0 X3.320 Y16.745
(Tool Controller Rapid Values are unset)
 G0 X3.335 Y16.755
G1 X3.340 Y16.780 F600.000
G1 X3.320 Y16.830 F600.000
G1 X3.290 Y16.850 F600.000
G1 X3.265 Y16.825 F600.000
G1 X3.265 Y16.825 F600.000
G1 X3.310 Y16.300 F600.000
G1 X3.335 Y16.145 F600.000
G1 X3.450 Y15.760 F600.000
G1 X3.675 Y15.285 F600.000
G1 X4.035 Y14.785 F600.000
G1 X4.480 Y14.390 F600.000
G1 X5.025 Y14.055 F600.000
G1 X5.215 Y13.980 F600.000
G1 X5.935 Y13.815 F600.000
G1 X6.180 Y13.800 F600.000
G1 X6.380 Y13.805 F600.000
G1 X6.725 Y13.840 F600.000
G1 X6.900 Y13.875 F600.000
G1 X7.230 Y13.970 F600.000
G1 X7.760 Y14.215 F600.000
G1 X8.310 Y14.625 F600.000
G1 X8.690 Y15.050 F600.000
G1 X8.920 Y15.430 F600.000
G1 X9.110 Y15.910 F600.000
G1 X9.235 Y16.505 F600.000
G1 X9.230 Y17.110 F600.000
G1 X9.150 Y17.525 F600.000
G1 X8.965 Y18.040 F600.000
G1 X8.705 Y18.495 F600.000
G1 X8.315 Y18.955 F600.000
G1 X7.820 Y19.330 F600.000
G1 X7.350 Y19.570 F600.000
G1 X6.950 Y19.695 F600.000
G1 X6.785 Y19.730 F600.000
G1 X6.335 Y19.770 F600.000
G1 X5.920 Y19.755 F600.000
G1 X5.520 Y19.685 F600.000
G1 X4.955 Y19.485 F600.000
G1 X4.540 Y19.240 F600.000
G1 X3.975 Y18.725 F600.000
G1 X3.725 Y18.380 F600.000
G1 X3.465 Y17.855 F600.000
G1 X3.420 Y17.720 F600.000
G1 X3.270 Y17.050 F600.000
G1 X3.265 Y16.825 F600.000
G1 X3.265 Y16.825 F600.000
(Tool Controller Rapid Values are unset)
 G0 Z12.000
(Helix to depth: 1.500000)
(Tool Controller Rapid Values are unset)
 G0 Z12.000
(Tool Controller Rapid Values are unset)
 G0 X5.679 Y15.416 Z12.000
(Tool Controller Rapid Values are unset)
 G0 X5.679 Y15.416 Z10.000
G1 X5.679 Y15.416 Z4.000 F50.000
G1 X5.679 Y15.416 Z4.000 F50.000
G1 X5.958 Y15.330 Z3.974 F50.000
G1 X6.249 Y15.300 Z3.948 F50.000
G1 X6.540 Y15.327 Z3.923 F50.000
G1 X6.819 Y15.411 Z3.897 F50.000
G1 X7.078 Y15.548 Z3.871 F50.000
G1 X7.304 Y15.732 Z3.845 F50.000
G1 X7.490 Y15.957 Z3.820 F50.000
G1 X7.629 Y16.214 Z3.794 F50.000
G1 X7.715 Y16.493 Z3.768 F50.000
G1 X7.745 Y16.784 Z3.742 F50.000
G1 X7.718 Y17.075 Z3.717 F50.000
G1 X7.634 Y17.354 Z3.691 F50.000
G1 X7.497 Y17.613 Z3.665 F50.000
G1 X7.313 Y17.839 Z3.639 F50.000
G1 X7.088 Y18.025 Z3.613 F50.000
G1 X6.831 Y18.164 Z3.588 F50.000
G1 X6.552 Y18.250 Z3.562 F50.000
G1 X6.261 Y18.280 Z3.536 F50.000
G1 X5.970 Y18.253 Z3.510 F50.000
G1 X5.691 Y18.169 Z3.485 F50.000
G1 X5.432 Y18.032 Z3.459 F50.000
G1 X5.206 Y17.848 Z3.433 F50.000
G1 X5.020 Y17.623 Z3.407 F50.000
G1 X4.881 Y17.366 Z3.382 F50.000
G1 X4.795 Y17.087 Z3.356 F50.000
G1 X4.765 Y16.796 Z3.330 F50.000
G1 X4.792 Y16.505 Z3.304 F50.000
G1 X4.876 Y16.226 Z3.279 F50.000
G1 X5.013 Y15.967 Z3.253 F50.000
G1 X5.197 Y15.741 Z3.227 F50.000
G1 X5.422 Y15.555 Z3.201 F50.000
G1 X5.679 Y15.416 Z3.175 F50.000
G1 X5.958 Y15.330 Z3.150 F50.000
G1 X6.249 Y15.300 Z3.124 F50.000
G1 X6.540 Y15.327 Z3.098 F50.000
G1 X6.819 Y15.411 Z3.072 F50.000
G1 X7.078 Y15.548 Z3.047 F50.000
G1 X7.304 Y15.732 Z3.021 F50.000
G1 X7.490 Y15.957 Z2.995 F50.000
G1 X7.629 Y16.214 Z2.969 F50.000
G1 X7.715 Y16.493 Z2.944 F50.000
G1 X7.745 Y16.784 Z2.918 F50.000
G1 X7.718 Y17.075 Z2.892 F50.000
G1 X7.634 Y17.354 Z2.866 F50.000
G1 X7.497 Y17.613 Z2.840 F50.000
G1 X7.313 Y17.839 Z2.815 F50.000
G1 X7.088 Y18.025 Z2.789 F50.000
G1 X6.831 Y18.164 Z2.763 F50.000
G1 X6.552 Y18.250 Z2.737 F50.000
G1 X6.261 Y18.280 Z2.712 F50.000
G1 X5.970 Y18.253 Z2.686 F50.000
G1 X5.691 Y18.169 Z2.660 F50.000
G1 X5.432 Y18.032 Z2.634 F50.000
G1 X5.206 Y17.848 Z2.609 F50.000
G1 X5.020 Y17.623 Z2.583 F50.000
G1 X4.881 Y17.366 Z2.557 F50.000
G1 X4.795 Y17.087 Z2.531 F50.000
G1 X4.765 Y16.796 Z2.505 F50.000
G1 X4.792 Y16.505 Z2.480 F50.000
G1 X4.876 Y16.226 Z2.454 F50.000
G1 X5.013 Y15.967 Z2.428 F50.000
G1 X5.197 Y15.741 Z2.402 F50.000
G1 X5.422 Y15.555 Z2.377 F50.000
G1 X5.679 Y15.416 Z2.351 F50.000
G1 X5.958 Y15.330 Z2.325 F50.000
G1 X6.249 Y15.300 Z2.299 F50.000
G1 X6.540 Y15.327 Z2.274 F50.000
G1 X6.819 Y15.411 Z2.248 F50.000
G1 X7.078 Y15.548 Z2.222 F50.000
G1 X7.304 Y15.732 Z2.196 F50.000
G1 X7.490 Y15.957 Z2.171 F50.000
G1 X7.629 Y16.214 Z2.145 F50.000
G1 X7.715 Y16.493 Z2.119 F50.000
G1 X7.745 Y16.784 Z2.093 F50.000
G1 X7.718 Y17.075 Z2.067 F50.000
G1 X7.634 Y17.354 Z2.042 F50.000
G1 X7.497 Y17.613 Z2.016 F50.000
G1 X7.313 Y17.839 Z1.990 F50.000
G1 X7.088 Y18.025 Z1.964 F50.000
G1 X6.831 Y18.164 Z1.939 F50.000
G1 X6.552 Y18.250 Z1.913 F50.000
G1 X6.261 Y18.280 Z1.887 F50.000
G1 X5.970 Y18.253 Z1.861 F50.000
G1 X5.691 Y18.169 Z1.836 F50.000
G1 X5.432 Y18.032 Z1.810 F50.000
G1 X5.206 Y17.848 Z1.784 F50.000
G1 X5.020 Y17.623 Z1.758 F50.000
G1 X4.881 Y17.366 Z1.732 F50.000
G1 X4.795 Y17.087 Z1.707 F50.000
G1 X4.765 Y16.796 Z1.681 F50.000
G1 X4.792 Y16.505 Z1.655 F50.000
G1 X4.876 Y16.226 Z1.629 F50.000
G1 X5.013 Y15.967 Z1.604 F50.000
G1 X5.197 Y15.741 Z1.578 F50.000
G1 X5.422 Y15.555 Z1.552 F50.000
G1 X5.679 Y15.416 Z1.526 F50.000
G1 X5.958 Y15.330 Z1.501 F50.000
G1 X6.249 Y15.300 Z1.500 F600.000
G1 X6.540 Y15.327 Z1.500 F600.000
G1 X6.819 Y15.411 Z1.500 F600.000
G1 X7.078 Y15.548 Z1.500 F600.000
G1 X7.304 Y15.732 Z1.500 F600.000
G1 X7.490 Y15.957 Z1.500 F600.000
G1 X7.629 Y16.214 Z1.500 F600.000
G1 X7.715 Y16.493 Z1.500 F600.000
G1 X7.745 Y16.784 Z1.500 F600.000
G1 X7.718 Y17.075 Z1.500 F600.000
G1 X7.634 Y17.354 Z1.500 F600.000
G1 X7.497 Y17.613 Z1.500 F600.000
G1 X7.313 Y17.839 Z1.500 F600.000
G1 X7.088 Y18.025 Z1.500 F600.000
G1 X6.831 Y18.164 Z1.500 F600.000
G1 X6.552 Y18.250 Z1.500 F600.000
G1 X6.261 Y18.280 Z1.500 F600.000
G1 X5.970 Y18.253 Z1.500 F600.000
G1 X5.691 Y18.169 Z1.500 F600.000
G1 X5.432 Y18.032 Z1.500 F600.000
G1 X5.206 Y17.848 Z1.500 F600.000
G1 X5.020 Y17.623 Z1.500 F600.000
G1 X4.881 Y17.366 Z1.500 F600.000
G1 X4.795 Y17.087 Z1.500 F600.000
G1 X4.765 Y16.796 Z1.500 F600.000
G1 X4.792 Y16.505 Z1.500 F600.000
G1 X4.876 Y16.226 Z1.500 F600.000
G1 X5.013 Y15.967 Z1.500 F600.000
G1 X5.197 Y15.741 Z1.500 F600.000
G1 X5.422 Y15.555 Z1.500 F600.000
G1 X5.679 Y15.416 Z1.500 F600.000
G1 X5.958 Y15.330 Z1.500 F600.000
(Adaptive - depth: 1.500000)
G1 X6.255 Y15.290 F600.000
G1 X6.310 Y15.230 F600.000
G1 X6.530 Y15.150 F600.000
G1 X6.755 Y15.135 F600.000
G1 X6.905 Y15.150 F600.000
G1 X7.365 Y15.335 F600.000
G1 X7.570 Y15.495 F600.000
G1 X7.695 Y15.620 F600.000
G1 X7.820 Y15.780 F600.000
G1 X7.955 Y16.010 F600.000
G1 X8.065 Y16.290 F600.000
G1 X8.130 Y16.565 F600.000
G1 X8.140 Y16.845 F600.000
G1 X8.120 Y17.070 F600.000
G1 X8.060 Y17.325 F600.000
G1 X7.960 Y17.590 F600.000
G1 X7.815 Y17.845 F600.000
G1 X7.640 Y18.065 F600.000
G1 X7.455 Y18.245 F600.000
G1 X7.225 Y18.410 F600.000
G1 X6.980 Y18.535 F600.000
G1 X6.720 Y18.615 F600.000
G1 X6.475 Y18.655 F600.000
G1 X6.215 Y18.670 F600.000
G1 X5.900 Y18.635 F600.000
G1 X5.635 Y18.570 F600.000
G1 X5.375 Y18.460 F600.000
G1 X5.150 Y18.325 F600.000
G1 X4.940 Y18.150 F600.000
G1 X4.755 Y17.950 F600.000
G1 X4.590 Y17.710 F600.000
G1 X4.475 Y17.455 F600.000
G1 X4.400 Y17.215 F600.000
G1 X4.360 Y16.945 F600.000
G1 X4.355 Y16.680 F600.000
G1 X4.385 Y16.395 F600.000
G1 X4.460 Y16.110 F600.000
G1 X4.580 Y15.855 F600.000
G1 X4.705 Y15.655 F600.000
G1 X4.880 Y15.445 F600.000
G1 X5.100 Y15.250 F600.000
G1 X5.335 Y15.085 F600.000
G1 X5.595 Y14.930 F600.000
G1 X6.105 Y14.730 F600.000
G1 X6.330 Y14.685 F600.000
G1 X6.480 Y14.675 F600.000
G1 X6.975 Y14.720 F600.000
G1 X7.440 Y14.890 F600.000
G1 X7.630 Y15.000 F600.000
G1 X7.795 Y15.120 F600.000
G1 X7.985 Y15.300 F600.000
G1 X8.175 Y15.535 F600.000
G1 X8.345 Y15.820 F600.000
G1 X8.460 Y16.095 F600.000
G1 X8.550 Y16.545 F600.000
G1 X8.560 Y17.040 F600.000
G1 X8.490 Y17.340 F600.000
G1 X8.330 Y17.810 F600.000
G1 X8.150 Y18.075 F600.000
G1 X7.835 Y18.465 F600.000
G1 X7.530 Y18.700 F600.000
G1 X7.140 Y18.910 F600.000
G1 X6.845 Y19.010 F600.000
G1 X6.575 Y19.065 F600.000
G1 X6.300 Y19.090 F600.000
G1 X5.930 Y19.065 F600.000
G1 X5.440 Y18.950 F600.000
G1 X5.140 Y18.810 F600.000
G1 X4.715 Y18.540 F600.000
G1 X4.380 Y18.165 F600.000
G1 X4.160 Y17.810 F600.000
G1 X3.980 Y17.345 F600.000
G1 X3.890 Y16.865 F600.000
G1 X3.895 Y16.465 F600.000
G1 X3.965 Y16.065 F600.000
G1 X4.105 Y15.685 F600.000
G1 X4.350 Y15.275 F600.000
G1 X4.605 Y14.965 F600.000
G1 X4.965 Y14.650 F600.000
G1 X5.440 Y14.365 F600.000
G1 X5.960 Y14.190 F600.000
G1 X6.185 Y14.145 F600.000
G1 X6.710 Y14.145 F600.000
G1 X7.160 Y14.230 F600.000
G1 X7.520 Y14.360 F600.000
G1 X7.920 Y14.590 F600.000
G1 X8.270 Y14.880 F600.000
G1 X8.560 Y15.230 F600.000
G1 X8.755 Y15.560 F600.000
G1 X8.950 Y16.140 F600.000
G1 X9.010 Y16.590 F600.000
G1 X8.975 Y17.190 F600.000
G1 X8.875 Y17.565 F600.000
G1 X8.690 Y17.995 F600.000
G1 X8.380 Y18.460 F600.000
G1 X7.985 Y18.850 F600.000
G1 X7.510 Y19.165 F600.000
G1 X7.215 Y19.295 F600.000
G1 X6.655 Y19.440 F600.000
G1 X6.095 Y19.480 F600.000
G1 X5.535 Y19.415 F600.000
G1 X5.060 Y19.260 F600.000
G1 X4.625 Y19.015 F600.000
G1 X4.300 Y18.750 F600.000
G1 X3.925 Y18.300 F600.000
G1 X3.710 Y17.945 F600.000
G1 X3.545 Y17.565 F600.000
G1 X3.405 Y17.005 F600.000
G1 X3.375 Y16.605 F600.000
G1 X3.405 Y16.205 F600.000
G1 X3.515 Y15.725 F600.000
G1 X3.770 Y15.210 F600.000
G1 X4.060 Y14.820 F600.000
G1 X4.465 Y14.445 F600.000
G1 X5.070 Y14.080 F600.000
G1 X5.295 Y13.995 F600.000
G1 X5.895 Y13.860 F600.000
G1 X6.270 Y13.835 F600.000
G1 X6.870 Y13.905 F600.000
G1 X7.240 Y14.025 F600.000
G1 X7.730 Y14.250 F600.000
G1 X8.335 Y14.705 F600.000
G1 X8.685 Y15.110 F600.000
G1 X8.915 Y15.505 F600.000
G1 X9.095 Y16.005 F600.000
G1 X9.205 Y16.530 F600.000
G1 X9.195 Y17.055 F600.000
G1 X9.090 Y17.580 F600.000
G1 X8.925 Y18.030 F600.000
G1 X8.645 Y18.520 F600.000
G1 X8.270 Y18.940 F600.000
G1 X7.815 Y19.290 F600.000
G1 X7.315 Y19.540 F600.000
G1 X6.845 Y19.685 F600.000
G1 X6.445 Y19.735 F600.000
G1 X5.885 Y19.715 F600.000
G1 X5.485 Y19.635 F600.000
G1 X4.925 Y19.425 F600.000
G1 X4.570 Y19.210 F600.000
G1 X4.025 Y18.720 F600.000
G1 X3.775 Y18.385 F600.000
G1 X3.475 Y17.785 F600.000
G1 X3.325 Y17.145 F600.000
G1 X3.310 Y16.985 F600.000
G1 X3.310 Y16.985 F600.000
G1 X3.320 Y16.960 F600.000
G1 X3.335 Y16.950 F600.000
G1 X3.340 Y16.945 F600.000
G1 X3.345 Y16.950 F600.000
G1 X3.340 Y16.965 F600.000
G1 X3.305 Y16.930 F600.000
G1 X3.305 Y16.930 F600.000
G1 X3.305 Y16.770 F600.000
G1 X3.305 Y16.770 F600.000
G1 X3.310 Y16.750 F600.000
(Tool Controller Rapid Values are unset)
 G0 X3.320 Y16.745
(Tool Controller Rapid Values are unset)
 G0 X3.335 Y16.755
G1 X3.340 Y16.780 F600.000
G1 X3.320 Y16.830 F600.000
G1 X3.290 Y16.850 F600.000
G1 X3.265 Y16.825 F600.000
G1 X3.265 Y16.825 F600.000
G1 X3.310 Y16.300 F600.000
G1 X3.335 Y16.145 F600.000
G1 X3.450 Y15.760 F600.000
G1 X3.675 Y15.285 F600.000
G1 X4.035 Y14.785 F600.000
G1 X4.480 Y14.390 F600.000
G1 X5.025 Y14.055 F600.000
G1 X5.215 Y13.980 F600.000
G1 X5.935 Y13.815 F600.000
G1 X6.180 Y13.800 F600.000
G1 X6.380 Y13.805 F600.000
G1 X6.725 Y13.840 F600.000
G1 X6.900 Y13.875 F600.000
G1 X7.230 Y13.970 F600.000
G1 X7.760 Y14.215 F600.000
G1 X8.310 Y14.625 F600.000
G1 X8.690 Y15.050 F600.000
G1 X8.920 Y15.430 F600.000
G1 X9.110 Y15.910 F600.000
G1 X9.235 Y16.505 F600.000
G1 X9.230 Y17.110 F600.000
G1 X9.150 Y17.525 F600.000
G1 X8.965 Y18.040 F600.000
G1 X8.705 Y18.495 F600.000
G1 X8.315 Y18.955 F600.000
G1 X7.820 Y19.330 F600.000
G1 X7.350 Y19.570 F600.000
G1 X6.950 Y19.695 F600.000
G1 X6.785 Y19.730 F600.000
G1 X6.335 Y19.770 F600.000
G1 X5.920 Y19.755 F600.000
G1 X5.520 Y19.685 F600.000
G1 X4.955 Y19.485 F600.000
G1 X4.540 Y19.240 F600.000
G1 X3.975 Y18.725 F600.000
G1 X3.725 Y18.380 F600.000
G1 X3.465 Y17.855 F600.000
G1 X3.420 Y17.720 F600.000
G1 X3.270 Y17.050 F600.000
G1 X3.265 Y16.825 F600.000
G1 X3.265 Y16.825 F600.000
(Tool Controller Rapid Values are unset)
 G0 Z12.000
(Helix to depth: -0.500000)
(Tool Controller Rapid Values are unset)
 G0 Z12.000
(Tool Controller Rapid Values are unset)
 G0 X5.855 Y18.225 Z12.000
(Tool Controller Rapid Values are unset)
 G0 X5.855 Y18.225 Z10.000
G1 X5.855 Y18.225 Z1.500 F50.000
G1 X5.855 Y18.225 Z1.500 F50.000
G1 X5.583 Y18.120 Z1.474 F50.000
G1 X5.336 Y17.963 Z1.448 F50.000
G1 X5.125 Y17.761 Z1.423 F50.000
G1 X4.957 Y17.522 Z1.397 F50.000
G1 X4.839 Y17.255 Z1.371 F50.000
G1 X4.776 Y16.970 Z1.345 F50.000
G1 X4.769 Y16.678 Z1.320 F50.000
G1 X4.820 Y16.390 Z1.294 F50.000
G1 X4.925 Y16.118 Z1.268 F50.000
G1 X5.082 Y15.871 Z1.242 F50.000
G1 X5.284 Y15.660 Z1.217 F50.000
G1 X5.523 Y15.492 Z1.191 F50.000
G1 X5.790 Y15.374 Z1.165 F50.000
G1 X6.075 Y15.311 Z1.139 F50.000
G1 X6.367 Y15.304 Z1.113 F50.000
G1 X6.655 Y15.355 Z1.088 F50.000
G1 X6.927 Y15.460 Z1.062 F50.000
G1 X7.174 Y15.617 Z1.036 F50.000
G1 X7.385 Y15.819 Z1.010 F50.000
G1 X7.553 Y16.058 Z0.985 F50.000
G1 X7.671 Y16.325 Z0.959 F50.000
G1 X7.734 Y16.610 Z0.933 F50.000
G1 X7.741 Y16.902 Z0.907 F50.000
G1 X7.690 Y17.190 Z0.882 F50.000
G1 X7.585 Y17.462 Z0.856 F50.000
G1 X7.428 Y17.709 Z0.830 F50.000
G1 X7.226 Y17.920 Z0.804 F50.000
G1 X6.987 Y18.088 Z0.779 F50.000
G1 X6.720 Y18.206 Z0.753 F50.000
G1 X6.435 Y18.269 Z0.727 F50.000
G1 X6.143 Y18.276 Z0.701 F50.000
G1 X5.855 Y18.225 Z0.675 F50.000
G1 X5.583 Y18.120 Z0.650 F50.000
G1 X5.336 Y17.963 Z0.624 F50.000
G1 X5.125 Y17.761 Z0.598 F50.000
G1 X4.957 Y17.522 Z0.572 F50.000
G1 X4.839 Y17.255 Z0.547 F50.000
G1 X4.776 Y16.970 Z0.521 F50.000
G1 X4.769 Y16.678 Z0.495 F50.000
G1 X4.820 Y16.390 Z0.469 F50.000
G1 X4.925 Y16.118 Z0.444 F50.000
G1 X5.082 Y15.871 Z0.418 F50.000
G1 X5.284 Y15.660 Z0.392 F50.000
G1 X5.523 Y15.492 Z0.366 F50.000
G1 X5.790 Y15.374 Z0.340 F50.000
G1 X6.075 Y15.311 Z0.315 F50.000
G1 X6.367 Y15.304 Z0.289 F50.000
G1 X6.655 Y15.355 Z0.263 F50.000
G1 X6.927 Y15.460 Z0.237 F50.000
G1 X7.174 Y15.617 Z0.212 F50.000
G1 X7.385 Y15.819 Z0.186 F50.000
G1 X7.553 Y16.058 Z0.160 F50.000
G1 X7.671 Y16.325 Z0.134 F50.000
G1 X7.734 Y16.610 Z0.109 F50.000
G1 X7.741 Y16.902 Z0.083 F50.000
G1 X7.690 Y17.190 Z0.057 F50.000
G1 X7.585 Y17.462 Z0.031 F50.000
G1 X7.428 Y17.709 Z0.005 F50.000
G1 X7.226 Y17.920 Z-0.020 F50.000
G1 X6.987 Y18.088 Z-0.046 F50.000
G1 X6.720 Y18.206 Z-0.072 F50.000
G1 X6.435 Y18.269 Z-0.098 F50.000
G1 X6.143 Y18.276 Z-0.123 F50.000
G1 X5.855 Y18.225 Z-0.149 F50.000
G1 X5.583 Y18.120 Z-0.175 F50.000
G1 X5.336 Y17.963 Z-0.201 F50.000
G1 X5.125 Y17.761 Z-0.226 F50.000
G1 X4.957 Y17.522 Z-0.252 F50.000
G1 X4.839 Y17.255 Z-0.278 F50.000
G1 X4.776 Y16.970 Z-0.304 F50.000
G1 X4.769 Y16.678 Z-0.329 F50.000
G1 X4.820 Y16.390 Z-0.355 F50.000
G1 X4.925 Y16.118 Z-0.381 F50.000
G1 X5.082 Y15.871 Z-0.407 F50.000
G1 X5.284 Y15.660 Z-0.433 F50.000
G1 X5.523 Y15.492 Z-0.458 F50.000
G1 X5.790 Y15.374 Z-0.484 F50.000
G1 X6.075 Y15.311 Z-0.500 F600.000
G1 X6.367 Y15.304 Z-0.500 F600.000
G1 X6.655 Y15.355 Z-0.500 F600.000
G1 X6.927 Y15.460 Z-0.500 F600.000
G1 X7.174 Y15.617 Z-0.500 F600.000
G1 X7.385 Y15.819 Z-0.500 F600.000
G1 X7.553 Y16.058 Z-0.500 F600.000
G1 X7.671 Y16.325 Z-0.500 F600.000
G1 X7.734 Y16.610 Z-0.500 F600.000
G1 X7.741 Y16.902 Z-0.500 F600.000
G1 X7.690 Y17.190 Z-0.500 F600.000
G1 X7.585 Y17.462 Z-0.500 F600.000
G1 X7.428 Y17.709 Z-0.500 F600.000
G1 X7.226 Y17.920 Z-0.500 F600.000
G1 X6.987 Y18.088 Z-0.500 F600.000
G1 X6.720 Y18.206 Z-0.500 F600.000
G1 X6.435 Y18.269 Z-0.500 F600.000
G1 X6.143 Y18.276 Z-0.500 F600.000
G1 X5.855 Y18.225 Z-0.500 F600.000
G1 X5.583 Y18.120 Z-0.500 F600.000
G1 X5.336 Y17.963 Z-0.500 F600.000
G1 X5.125 Y17.761 Z-0.500 F600.000
G1 X4.957 Y17.522 Z-0.500 F600.000
G1 X4.839 Y17.255 Z-0.500 F600.000
G1 X4.776 Y16.970 Z-0.500 F600.000
G1 X4.769 Y16.678 Z-0.500 F600.000
G1 X4.820 Y16.390 Z-0.500 F600.000
G1 X4.925 Y16.118 Z-0.500 F600.000
G1 X5.082 Y15.871 Z-0.500 F600.000
G1 X5.284 Y15.660 Z-0.500 F600.000
G1 X5.523 Y15.492 Z-0.500 F600.000
G1 X5.790 Y15.374 Z-0.500 F600.000
(Adaptive - depth: -0.500000)
G1 X6.255 Y15.290 F600.000
G1 X6.310 Y15.230 F600.000
G1 X6.530 Y15.150 F600.000
G1 X6.755 Y15.135 F600.000
G1 X6.905 Y15.150 F600.000
G1 X7.365 Y15.335 F600.000
G1 X7.570 Y15.495 F600.000
G1 X7.695 Y15.620 F600.000
G1 X7.820 Y15.780 F600.000
G1 X7.955 Y16.010 F600.000
G1 X8.065 Y16.290 F600.000
G1 X8.130 Y16.565 F600.000
G1 X8.140 Y16.845 F600.000
G1 X8.120 Y17.070 F600.000
G1 X8.060 Y17.325 F600.000
G1 X7.960 Y17.590 F600.000
G1 X7.815 Y17.845 F600.000
G1 X7.640 Y18.065 F600.000
G1 X7.455 Y18.245 F600.000
G1 X7.225 Y18.410 F600.000
G1 X6.980 Y18.535 F600.000
G1 X6.720 Y18.615 F600.000
G1 X6.475 Y18.655 F600.000
G1 X6.215 Y18.670 F600.000
G1 X5.900 Y18.635 F600.000
G1 X5.635 Y18.570 F600.000
G1 X5.375 Y18.460 F600.000
G1 X5.150 Y18.325 F600.000
G1 X4.940 Y18.150 F600.000
G1 X4.755 Y17.950 F600.000
G1 X4.590 Y17.710 F600.000
G1 X4.475 Y17.455 F600.000
G1 X4.400 Y17.215 F600.000
G1 X4.360 Y16.945 F600.000
G1 X4.355 Y16.680 F600.000
G1 X4.385 Y16.395 F600.000
G1 X4.460 Y16.110 F600.000
G1 X4.580 Y15.855 F600.000
G1 X4.705 Y15.655 F600.000
G1 X4.880 Y15.445 F600.000
G1 X5.100 Y15.250 F600.000
G1 X5.335 Y15.085 F600.000
G1 X5.595 Y14.930 F600.000
G1 X6.105 Y14.730 F600.000
G1 X6.330 Y14.685 F600.000
G1 X6.480 Y14.675 F600.000
G1 X6.975 Y14.720 F600.000
G1 X7.440 Y14.890 F600.000
G1 X7.630 Y15.000 F600.000
G1 X7.795 Y15.120 F600.000
G1 X7.985 Y15.300 F600.000
G1 X8.175 Y15.535 F600.000
G1 X8.345 Y15.820 F600.000
G1 X8.460 Y16.095 F600.000
G1 X8.550 Y16.545 F600.000
G1 X8.560 Y17.040 F600.000
G1 X8.490 Y17.340 F600.000
G1 X8.330 Y17.810 F600.000
G1 X8.150 Y18.075 F600.000
G1 X7.835 Y18.465 F600.000
G1 X7.530 Y18.700 F600.000
G1 X7.140 Y18.910 F600.000
G1 X6.845 Y19.010 F600.000
G1 X6.575 Y19.065 F600.000
G1 X6.300 Y19.090 F600.000
G1 X5.930 Y19.065 F600.000
G1 X5.440 Y18.950 F600.000
G1 X5.140 Y18.810 F600.000
G1 X4.715 Y18.540 F600.000
G1 X4.380 Y18.165 F600.000
G1 X4.160 Y17.810 F600.000
G1 X3.980 Y17.345 F600.000
G1 X3.890 Y16.865 F600.000
G1 X3.895 Y16.465 F600.000
G1 X3.965 Y16.065 F600.000
G1 X4.105 Y15.685 F600.000
G1 X4.350 Y15.275 F600.000
G1 X4.605 Y14.965 F600.000
G1 X4.965 Y14.650 F600.000
G1 X5.440 Y14.365 F600.000
G1 X5.960 Y14.190 F600.000
G1 X6.185 Y14.145 F600.000
G1 X6.710 Y14.145 F600.000
G1 X7.160 Y14.230 F600.000
G1 X7.520 Y14.360 F600.000
G1 X7.920 Y14.590 F600.000
G1 X8.270 Y14.880 F600.000
G1 X8.560 Y15.230 F600.000
G1 X8.755 Y15.560 F600.000
G1 X8.950 Y16.140 F600.000
G1 X9.010 Y16.590 F600.000
G1 X8.975 Y17.190 F600.000
G1 X8.875 Y17.565 F600.000
G1 X8.690 Y17.995 F600.000
G1 X8.380 Y18.460 F600.000
G1 X7.985 Y18.850 F600.000
G1 X7.510 Y19.165 F600.000
G1 X7.215 Y19.295 F600.000
G1 X6.655 Y19.440 F600.000
G1 X6.095 Y19.480 F600.000
G1 X5.535 Y19.415 F600.000
G1 X5.060 Y19.260 F600.000
G1 X4.625 Y19.015 F600.000
G1 X4.300 Y18.750 F600.000
G1 X3.925 Y18.300 F600.000
G1 X3.710 Y17.945 F600.000
G1 X3.545 Y17.565 F600.000
G1 X3.405 Y17.005 F600.000
G1 X3.375 Y16.605 F600.000
G1 X3.405 Y16.205 F600.000
G1 X3.515 Y15.725 F600.000
G1 X3.770 Y15.210 F600.000
G1 X4.060 Y14.820 F600.000
G1 X4.465 Y14.445 F600.000
G1 X5.070 Y14.080 F600.000
G1 X5.295 Y13.995 F600.000
G1 X5.895 Y13.860 F600.000
G1 X6.270 Y13.835 F600.000
G1 X6.870 Y13.905 F600.000
G1 X7.240 Y14.025 F600.000
G1 X7.730 Y14.250 F600.000
G1 X8.335 Y14.705 F600.000
G1 X8.685 Y15.110 F600.000
G1 X8.915 Y15.505 F600.000
G1 X9.095 Y16.005 F600.000
G1 X9.205 Y16.530 F600.000
G1 X9.195 Y17.055 F600.000
G1 X9.090 Y17.580 F600.000
G1 X8.925 Y18.030 F600.000
G1 X8.645 Y18.520 F600.000
G1 X8.270 Y18.940 F600.000
G1 X7.815 Y19.290 F600.000
G1 X7.315 Y19.540 F600.000
G1 X6.845 Y19.685 F600.000
G1 X6.445 Y19.735 F600.000
G1 X5.885 Y19.715 F600.000
G1 X5.485 Y19.635 F600.000
G1 X4.925 Y19.425 F600.000
G1 X4.570 Y19.210 F600.000
G1 X4.025 Y18.720 F600.000
G1 X3.775 Y18.385 F600.000
G1 X3.475 Y17.785 F600.000
G1 X3.325 Y17.145 F600.000
G1 X3.310 Y16.985 F600.000
G1 X3.310 Y16.985 F600.000
G1 X3.320 Y16.960 F600.000
G1 X3.335 Y16.950 F600.000
G1 X3.340 Y16.945 F600.000
G1 X3.345 Y16.950 F600.000
G1 X3.340 Y16.965 F600.000
G1 X3.305 Y16.930 F600.000
G1 X3.305 Y16.930 F600.000
G1 X3.305 Y16.770 F600.000
G1 X3.305 Y16.770 F600.000
G1 X3.310 Y16.750 F600.000
(Tool Controller Rapid Values are unset)
 G0 X3.320 Y16.745
(Tool Controller Rapid Values are unset)
 G0 X3.335 Y16.755
G1 X3.340 Y16.780 F600.000
G1 X3.320 Y16.830 F600.000
G1 X3.290 Y16.850 F600.000
G1 X3.265 Y16.825 F600.000
G1 X3.265 Y16.825 F600.000
G1 X3.310 Y16.300 F600.000
G1 X3.335 Y16.145 F600.000
G1 X3.450 Y15.760 F600.000
G1 X3.675 Y15.285 F600.000
G1 X4.035 Y14.785 F600.000
G1 X4.480 Y14.390 F600.000
G1 X5.025 Y14.055 F600.000
G1 X5.215 Y13.980 F600.000
G1 X5.935 Y13.815 F600.000
G1 X6.180 Y13.800 F600.000
G1 X6.380 Y13.805 F600.000
G1 X6.725 Y13.840 F600.000
G1 X6.900 Y13.875 F600.000
G1 X7.230 Y13.970 F600.000
G1 X7.760 Y14.215 F600.000
G1 X8.310 Y14.625 F600.000
G1 X8.690 Y15.050 F600.000
G1 X8.920 Y15.430 F600.000
G1 X9.110 Y15.910 F600.000
G1 X9.235 Y16.505 F600.000
G1 X9.230 Y17.110 F600.000
G1 X9.150 Y17.525 F600.000
G1 X8.965 Y18.040 F600.000
G1 X8.705 Y18.495 F600.000
G1 X8.315 Y18.955 F600.000
G1 X7.820 Y19.330 F600.000
G1 X7.350 Y19.570 F600.000
G1 X6.950 Y19.695 F600.000
G1 X6.785 Y19.730 F600.000
G1 X6.335 Y19.770 F600.000
G1 X5.920 Y19.755 F600.000
G1 X5.520 Y19.685 F600.000
G1 X4.955 Y19.485 F600.000
G1 X4.540 Y19.240 F600.000
G1 X3.975 Y18.725 F600.000
G1 X3.725 Y18.380 F600.000
G1 X3.465 Y17.855 F600.000
G1 X3.420 Y17.720 F600.000
G1 X3.270 Y17.050 F600.000
G1 X3.265 Y16.825 F600.000
G1 X3.265 Y16.825 F600.000
(Tool Controller Rapid Values are unset)
 G0 Z12.000
(Tool Controller Rapid Values are unset)
 G0 Z12.000
(finish operation: Adaptive)
(begin operation: Profile)
(machine: mach3_4, mm/min)
(Profile)
(Compensated Tool Path. Diameter: 4.0)
G0 Z12.000
G0 X6.639 Y4.176
G0 Z10.000
G1 X6.639 Y4.176 Z5.600 F50.000
G2 X6.441 Y3.283 Z5.600 I-0.384 J-0.384 F600.000
G2 X6.070 Y4.302 Z5.600 I-0.185 J0.510 F600.000
G2 X6.639 Y4.176 Z5.600 I0.185 J-0.510 F600.000
G1 X6.639 Y4.176 Z5.200 F50.000
G2 X6.441 Y3.283 Z5.200 I-0.384 J-0.384 F600.000
G2 X6.070 Y4.302 Z5.200 I-0.185 J0.510 F600.000
G2 X6.639 Y4.176 Z5.200 I0.185 J-0.510 F600.000
G1 X6.639 Y4.176 Z4.800 F50.000
G2 X6.441 Y3.283 Z4.800 I-0.384 J-0.384 F600.000
G2 X6.070 Y4.302 Z4.800 I-0.185 J0.510 F600.000
G2 X6.639 Y4.176 Z4.800 I0.185 J-0.510 F600.000
G1 X6.639 Y4.176 Z4.400 F50.000
G2 X6.441 Y3.283 Z4.400 I-0.384 J-0.384 F600.000
G2 X6.070 Y4.302 Z4.400 I-0.185 J0.510 F600.000
G2 X6.639 Y4.176 Z4.400 I0.185 J-0.510 F600.000
G1 X6.639 Y4.176 Z4.000 F50.000
G2 X6.441 Y3.283 Z4.000 I-0.384 J-0.384 F600.000
G2 X6.070 Y4.302 Z4.000 I-0.185 J0.510 F600.000
G2 X6.639 Y4.176 Z4.000 I0.185 J-0.510 F600.000
G1 X6.639 Y4.176 Z3.600 F50.000
G2 X6.441 Y3.283 Z3.600 I-0.384 J-0.384 F600.000
G2 X6.070 Y4.302 Z3.600 I-0.185 J0.510 F600.000
G2 X6.639 Y4.176 Z3.600 I0.185 J-0.510 F600.000
G1 X6.639 Y4.176 Z3.200 F50.000
G2 X6.441 Y3.283 Z3.200 I-0.384 J-0.384 F600.000
G2 X6.070 Y4.302 Z3.200 I-0.185 J0.510 F600.000
G2 X6.639 Y4.176 Z3.200 I0.185 J-0.510 F600.000
G1 X6.639 Y4.176 Z2.800 F50.000
G2 X6.441 Y3.283 Z2.800 I-0.384 J-0.384 F600.000
G2 X6.070 Y4.302 Z2.800 I-0.185 J0.510 F600.000
G2 X6.639 Y4.176 Z2.800 I0.185 J-0.510 F600.000
G1 X6.639 Y4.176 Z2.400 F50.000
G2 X6.441 Y3.283 Z2.400 I-0.384 J-0.384 F600.000
G2 X6.070 Y4.302 Z2.400 I-0.185 J0.510 F600.000
G2 X6.639 Y4.176 Z2.400 I0.185 J-0.510 F600.000
G1 X6.639 Y4.176 Z2.000 F50.000
G2 X6.441 Y3.283 Z2.000 I-0.384 J-0.384 F600.000
G2 X6.070 Y4.302 Z2.000 I-0.185 J0.510 F600.000
G2 X6.639 Y4.176 Z2.000 I0.185 J-0.510 F600.000
G1 X6.639 Y4.176 Z1.600 F50.000
G2 X6.441 Y3.283 Z1.600 I-0.384 J-0.384 F600.000
G2 X6.070 Y4.302 Z1.600 I-0.185 J0.510 F600.000
G2 X6.639 Y4.176 Z1.600 I0.185 J-0.510 F600.000
G1 X6.639 Y4.176 Z1.200 F50.000
G2 X6.441 Y3.283 Z1.200 I-0.384 J-0.384 F600.000
G2 X6.070 Y4.302 Z1.200 I-0.185 J0.510 F600.000
G2 X6.639 Y4.176 Z1.200 I0.185 J-0.510 F600.000
G1 X6.639 Y4.176 Z0.800 F50.000
G2 X6.441 Y3.283 Z0.800 I-0.384 J-0.384 F600.000
G2 X6.070 Y4.302 Z0.800 I-0.185 J0.510 F600.000
G2 X6.639 Y4.176 Z0.800 I0.185 J-0.510 F600.000
G1 X6.639 Y4.176 Z0.400 F50.000
G2 X6.441 Y3.283 Z0.400 I-0.384 J-0.384 F600.000
G2 X6.070 Y4.302 Z0.400 I-0.185 J0.510 F600.000
G2 X6.639 Y4.176 Z0.400 I0.185 J-0.510 F600.000
G1 X6.639 Y4.176 Z-0.000 F50.000
G2 X6.441 Y3.283 Z-0.000 I-0.384 J-0.384 F600.000
G2 X6.070 Y4.302 Z-0.000 I-0.185 J0.510 F600.000
G2 X6.639 Y4.176 Z-0.000 I0.185 J-0.510 F600.000
G1 X6.639 Y4.176 Z-0.400 F50.000
G2 X6.441 Y3.283 Z-0.400 I-0.384 J-0.384 F600.000
G2 X6.070 Y4.302 Z-0.400 I-0.185 J0.510 F600.000
G2 X6.639 Y4.176 Z-0.400 I0.185 J-0.510 F600.000
G1 X6.639 Y4.176 Z-0.500 F50.000
G2 X6.441 Y3.283 Z-0.500 I-0.384 J-0.384 F600.000
G2 X6.070 Y4.302 Z-0.500 I-0.185 J0.510 F600.000
G2 X6.639 Y4.176 Z-0.500 I0.185 J-0.510 F600.000
G0 Z12.000
G0 Z12.000
G0 X6.639 Y4.176
G0 X6.263 Y29.250
G0 X6.263 Y29.250 Z10.000
G1 X6.263 Y29.250 Z5.600 F50.000
G2 X6.070 Y30.302 Z5.600 I-0.008 J0.542 F600.000
G2 X6.441 Y29.283 Z5.600 I0.185 J-0.510 F600.000
G2 X6.263 Y29.250 Z5.600 I-0.185 J0.510 F600.000
G1 X6.263 Y29.250 Z5.200 F50.000
G2 X6.070 Y30.302 Z5.200 I-0.008 J0.542 F600.000
G2 X6.441 Y29.283 Z5.200 I0.185 J-0.510 F600.000
G2 X6.263 Y29.250 Z5.200 I-0.185 J0.510 F600.000
G1 X6.263 Y29.250 Z4.800 F50.000
G2 X6.070 Y30.302 Z4.800 I-0.008 J0.542 F600.000
G2 X6.441 Y29.283 Z4.800 I0.185 J-0.510 F600.000
G2 X6.263 Y29.250 Z4.800 I-0.185 J0.510 F600.000
G1 X6.263 Y29.250 Z4.400 F50.000
G2 X6.070 Y30.302 Z4.400 I-0.008 J0.542 F600.000
G2 X6.441 Y29.283 Z4.400 I0.185 J-0.510 F600.000
G2 X6.263 Y29.250 Z4.400 I-0.185 J0.510 F600.000
G1 X6.263 Y29.250 Z4.000 F50.000
G2 X6.070 Y30.302 Z4.000 I-0.008 J0.542 F600.000
G2 X6.441 Y29.283 Z4.000 I0.185 J-0.510 F600.000
G2 X6.263 Y29.250 Z4.000 I-0.185 J0.510 F600.000
G1 X6.263 Y29.250 Z3.600 F50.000
G2 X6.070 Y30.302 Z3.600 I-0.008 J0.542 F600.000
G2 X6.441 Y29.283 Z3.600 I0.185 J-0.510 F600.000
G2 X6.263 Y29.250 Z3.600 I-0.185 J0.510 F600.000
G1 X6.263 Y29.250 Z3.200 F50.000
G2 X6.070 Y30.302 Z3.200 I-0.008 J0.542 F600.000
G2 X6.441 Y29.283 Z3.200 I0.185 J-0.510 F600.000
G2 X6.263 Y29.250 Z3.200 I-0.185 J0.510 F600.000
G1 X6.263 Y29.250 Z2.800 F50.000
G2 X6.070 Y30.302 Z2.800 I-0.008 J0.542 F600.000
G2 X6.441 Y29.283 Z2.800 I0.185 J-0.510 F600.000
G2 X6.263 Y29.250 Z2.800 I-0.185 J0.510 F600.000
G1 X6.263 Y29.250 Z2.400 F50.000
G2 X6.070 Y30.302 Z2.400 I-0.008 J0.542 F600.000
G2 X6.441 Y29.283 Z2.400 I0.185 J-0.510 F600.000
G2 X6.263 Y29.250 Z2.400 I-0.185 J0.510 F600.000
G1 X6.263 Y29.250 Z2.000 F50.000
G2 X6.070 Y30.302 Z2.000 I-0.008 J0.542 F600.000
G2 X6.441 Y29.283 Z2.000 I0.185 J-0.510 F600.000
G2 X6.263 Y29.250 Z2.000 I-0.185 J0.510 F600.000
G1 X6.263 Y29.250 Z1.600 F50.000
G2 X6.070 Y30.302 Z1.600 I-0.008 J0.542 F600.000
G2 X6.441 Y29.283 Z1.600 I0.185 J-0.510 F600.000
G2 X6.263 Y29.250 Z1.600 I-0.185 J0.510 F600.000
G1 X6.263 Y29.250 Z1.200 F50.000
G2 X6.070 Y30.302 Z1.200 I-0.008 J0.542 F600.000
G2 X6.441 Y29.283 Z1.200 I0.185 J-0.510 F600.000
G2 X6.263 Y29.250 Z1.200 I-0.185 J0.510 F600.000
G1 X6.263 Y29.250 Z0.800 F50.000
G2 X6.070 Y30.302 Z0.800 I-0.008 J0.542 F600.000
G2 X6.441 Y29.283 Z0.800 I0.185 J-0.510 F600.000
G2 X6.263 Y29.250 Z0.800 I-0.185 J0.510 F600.000
G1 X6.263 Y29.250 Z0.400 F50.000
G2 X6.070 Y30.302 Z0.400 I-0.008 J0.542 F600.000
G2 X6.441 Y29.283 Z0.400 I0.185 J-0.510 F600.000
G2 X6.263 Y29.250 Z0.400 I-0.185 J0.510 F600.000
G1 X6.263 Y29.250 Z-0.000 F50.000
G2 X6.070 Y30.302 Z-0.000 I-0.008 J0.542 F600.000
G2 X6.441 Y29.283 Z-0.000 I0.185 J-0.510 F600.000
G2 X6.263 Y29.250 Z-0.000 I-0.185 J0.510 F600.000
G1 X6.263 Y29.250 Z-0.400 F50.000
G2 X6.070 Y30.302 Z-0.400 I-0.008 J0.542 F600.000
G2 X6.441 Y29.283 Z-0.400 I0.185 J-0.510 F600.000
G2 X6.263 Y29.250 Z-0.400 I-0.185 J0.510 F600.000
G1 X6.263 Y29.250 Z-0.500 F50.000
G2 X6.070 Y30.302 Z-0.500 I-0.008 J0.542 F600.000
G2 X6.441 Y29.283 Z-0.500 I0.185 J-0.510 F600.000
G2 X6.263 Y29.250 Z-0.500 I-0.185 J0.510 F600.000
G0 Z12.000
G0 Z12.000
(finish operation: Profile)
(begin operation: Adaptive001)
(machine: mach3_4, mm/min)
(Adaptive001)
(Helix to depth: 3.500000)
(Tool Controller Rapid Values are unset)
 G0 Z12.000
(Tool Controller Rapid Values are unset)
 G0 X-1.385 Y35.363 Z12.000
(Tool Controller Rapid Values are unset)
 G0 X-1.385 Y35.363 Z10.000
G1 X-1.385 Y35.363 Z6.500 F50.000
G1 X-1.385 Y35.363 Z6.500 F50.000
G1 X-1.551 Y35.603 Z6.474 F50.000
G1 X-1.760 Y35.807 Z6.448 F50.000
G1 X-2.006 Y35.966 Z6.423 F50.000
G1 X-2.277 Y36.074 Z6.397 F50.000
G1 X-2.564 Y36.126 Z6.371 F50.000
G1 X-2.856 Y36.122 Z6.345 F50.000
G1 X-3.142 Y36.061 Z6.320 F50.000
G1 X-3.410 Y35.945 Z6.294 F50.000
G1 X-3.651 Y35.779 Z6.268 F50.000
G1 X-3.854 Y35.570 Z6.242 F50.000
G1 X-4.013 Y35.325 Z6.217 F50.000
G1 X-4.121 Y35.053 Z6.191 F50.000
G1 X-4.173 Y34.766 Z6.165 F50.000
G1 X-4.169 Y34.474 Z6.139 F50.000
G1 X-4.108 Y34.188 Z6.113 F50.000
G1 X-3.992 Y33.920 Z6.088 F50.000
G1 X-3.827 Y33.680 Z6.062 F50.000
G1 X-3.617 Y33.476 Z6.036 F50.000
G1 X-3.372 Y33.317 Z6.010 F50.000
G1 X-3.100 Y33.209 Z5.985 F50.000
G1 X-2.813 Y33.157 Z5.959 F50.000
G1 X-2.521 Y33.161 Z5.933 F50.000
G1 X-2.235 Y33.222 Z5.907 F50.000
G1 X-1.967 Y33.338 Z5.882 F50.000
G1 X-1.727 Y33.504 Z5.856 F50.000
G1 X-1.523 Y33.713 Z5.830 F50.000
G1 X-1.364 Y33.958 Z5.804 F50.000
G1 X-1.257 Y34.230 Z5.779 F50.000
G1 X-1.204 Y34.517 Z5.753 F50.000
G1 X-1.208 Y34.809 Z5.727 F50.000
G1 X-1.269 Y35.095 Z5.701 F50.000
G1 X-1.385 Y35.363 Z5.675 F50.000
G1 X-1.551 Y35.603 Z5.650 F50.000
G1 X-1.760 Y35.807 Z5.624 F50.000
G1 X-2.006 Y35.966 Z5.598 F50.000
G1 X-2.277 Y36.074 Z5.572 F50.000
G1 X-2.564 Y36.126 Z5.547 F50.000
G1 X-2.856 Y36.122 Z5.521 F50.000
G1 X-3.142 Y36.061 Z5.495 F50.000
G1 X-3.410 Y35.945 Z5.469 F50.000
G1 X-3.651 Y35.779 Z5.444 F50.000
G1 X-3.854 Y35.570 Z5.418 F50.000
G1 X-4.013 Y35.325 Z5.392 F50.000
G1 X-4.121 Y35.053 Z5.366 F50.000
G1 X-4.173 Y34.766 Z5.340 F50.000
G1 X-4.169 Y34.474 Z5.315 F50.000
G1 X-4.108 Y34.188 Z5.289 F50.000
G1 X-3.992 Y33.920 Z5.263 F50.000
G1 X-3.827 Y33.680 Z5.237 F50.000
G1 X-3.617 Y33.476 Z5.212 F50.000
G1 X-3.372 Y33.317 Z5.186 F50.000
G1 X-3.100 Y33.209 Z5.160 F50.000
G1 X-2.813 Y33.157 Z5.134 F50.000
G1 X-2.521 Y33.161 Z5.109 F50.000
G1 X-2.235 Y33.222 Z5.083 F50.000
G1 X-1.967 Y33.338 Z5.057 F50.000
G1 X-1.727 Y33.504 Z5.031 F50.000
G1 X-1.523 Y33.713 Z5.005 F50.000
G1 X-1.364 Y33.958 Z4.980 F50.000
G1 X-1.257 Y34.230 Z4.954 F50.000
G1 X-1.204 Y34.517 Z4.928 F50.000
G1 X-1.208 Y34.809 Z4.902 F50.000
G1 X-1.269 Y35.095 Z4.877 F50.000
G1 X-1.385 Y35.363 Z4.851 F50.000
G1 X-1.551 Y35.603 Z4.825 F50.000
G1 X-1.760 Y35.807 Z4.799 F50.000
G1 X-2.006 Y35.966 Z4.774 F50.000
G1 X-2.277 Y36.074 Z4.748 F50.000
G1 X-2.564 Y36.126 Z4.722 F50.000
G1 X-2.856 Y36.122 Z4.696 F50.000
G1 X-3.142 Y36.061 Z4.671 F50.000
G1 X-3.410 Y35.945 Z4.645 F50.000
G1 X-3.651 Y35.779 Z4.619 F50.000
G1 X-3.854 Y35.570 Z4.593 F50.000
G1 X-4.013 Y35.325 Z4.567 F50.000
G1 X-4.121 Y35.053 Z4.542 F50.000
G1 X-4.173 Y34.766 Z4.516 F50.000
G1 X-4.169 Y34.474 Z4.490 F50.000
G1 X-4.108 Y34.188 Z4.464 F50.000
G1 X-3.992 Y33.920 Z4.439 F50.000
G1 X-3.827 Y33.680 Z4.413 F50.000
G1 X-3.617 Y33.476 Z4.387 F50.000
G1 X-3.372 Y33.317 Z4.361 F50.000
G1 X-3.100 Y33.209 Z4.336 F50.000
G1 X-2.813 Y33.157 Z4.310 F50.000
G1 X-2.521 Y33.161 Z4.284 F50.000
G1 X-2.235 Y33.222 Z4.258 F50.000
G1 X-1.967 Y33.338 Z4.232 F50.000
G1 X-1.727 Y33.504 Z4.207 F50.000
G1 X-1.523 Y33.713 Z4.181 F50.000
G1 X-1.364 Y33.958 Z4.155 F50.000
G1 X-1.257 Y34.230 Z4.129 F50.000
G1 X-1.204 Y34.517 Z4.104 F50.000
G1 X-1.208 Y34.809 Z4.078 F50.000
G1 X-1.269 Y35.095 Z4.052 F50.000
G1 X-1.385 Y35.363 Z4.026 F50.000
G1 X-1.551 Y35.603 Z4.001 F50.000
G1 X-1.760 Y35.807 Z3.975 F50.000
G1 X-2.006 Y35.966 Z3.949 F50.000
G1 X-2.277 Y36.074 Z3.923 F50.000
G1 X-2.564 Y36.126 Z3.897 F50.000
G1 X-2.856 Y36.122 Z3.872 F50.000
G1 X-3.142 Y36.061 Z3.846 F50.000
G1 X-3.410 Y35.945 Z3.820 F50.000
G1 X-3.651 Y35.779 Z3.794 F50.000
G1 X-3.854 Y35.570 Z3.769 F50.000
G1 X-4.013 Y35.325 Z3.743 F50.000
G1 X-4.121 Y35.053 Z3.717 F50.000
G1 X-4.173 Y34.766 Z3.691 F50.000
G1 X-4.169 Y34.474 Z3.666 F50.000
G1 X-4.108 Y34.188 Z3.640 F50.000
G1 X-3.992 Y33.920 Z3.614 F50.000
G1 X-3.827 Y33.680 Z3.588 F50.000
G1 X-3.617 Y33.476 Z3.563 F50.000
G1 X-3.372 Y33.317 Z3.537 F50.000
G1 X-3.100 Y33.209 Z3.511 F50.000
G1 X-2.813 Y33.157 Z3.500 F600.000
G1 X-2.521 Y33.161 Z3.500 F600.000
G1 X-2.235 Y33.222 Z3.500 F600.000
G1 X-1.967 Y33.338 Z3.500 F600.000
G1 X-1.727 Y33.504 Z3.500 F600.000
G1 X-1.523 Y33.713 Z3.500 F600.000
G1 X-1.364 Y33.958 Z3.500 F600.000
G1 X-1.257 Y34.230 Z3.500 F600.000
G1 X-1.204 Y34.517 Z3.500 F600.000
G1 X-1.208 Y34.809 Z3.500 F600.000
G1 X-1.269 Y35.095 Z3.500 F600.000
G1 X-1.385 Y35.363 Z3.500 F600.000
G1 X-1.551 Y35.603 Z3.500 F600.000
G1 X-1.760 Y35.807 Z3.500 F600.000
G1 X-2.006 Y35.966 Z3.500 F600.000
G1 X-2.277 Y36.074 Z3.500 F600.000
G1 X-2.564 Y36.126 Z3.500 F600.000
G1 X-2.856 Y36.122 Z3.500 F600.000
G1 X-3.142 Y36.061 Z3.500 F600.000
G1 X-3.410 Y35.945 Z3.500 F600.000
G1 X-3.651 Y35.779 Z3.500 F600.000
G1 X-3.854 Y35.570 Z3.500 F600.000
G1 X-4.013 Y35.325 Z3.500 F600.000
G1 X-4.121 Y35.053 Z3.500 F600.000
G1 X-4.173 Y34.766 Z3.500 F600.000
G1 X-4.169 Y34.474 Z3.500 F600.000
G1 X-4.108 Y34.188 Z3.500 F600.000
G1 X-3.992 Y33.920 Z3.500 F600.000
G1 X-3.827 Y33.680 Z3.500 F600.000
G1 X-3.617 Y33.476 Z3.500 F600.000
G1 X-3.372 Y33.317 Z3.500 F600.000
G1 X-3.100 Y33.209 Z3.500 F600.000
(Adaptive - depth: 3.500000)
G1 X-2.689 Y33.142 F600.000
G1 X-2.453 Y32.934 F600.000
G1 X-2.311 Y32.868 F600.000
G1 X-2.009 Y32.811 F600.000
G1 X-1.858 Y32.811 F600.000
G1 X-1.792 Y32.943 F600.000
G1 X-1.792 Y32.943 F600.000
G1 X-1.708 Y33.349 F600.000
G1 X-1.689 Y33.434 F600.000
G1 X-1.575 Y33.736 F600.000
G1 X-1.160 Y34.113 F600.000
G1 X-1.160 Y34.113 F600.000
G1 X-0.764 Y34.575 F600.000
G1 X-0.623 Y34.840 F600.000
G1 X-0.585 Y34.981 F600.000
G1 X-0.632 Y35.406 F600.000
G1 X-0.774 Y35.821 F600.000
G1 X-0.925 Y36.066 F600.000
G1 X-1.236 Y36.453 F600.000
G1 X-1.632 Y36.745 F600.000
G1 X-2.028 Y36.906 F600.000
G1 X-2.311 Y36.972 F600.000
G1 X-2.453 Y36.972 F600.000
G1 X-2.594 Y36.925 F600.000
G1 X-3.566 Y35.991 F600.000
G1 X-4.066 Y35.443 F600.000
G1 X-4.142 Y35.311 F600.000
G1 X-4.208 Y35.009 F600.000
G1 X-4.481 Y34.302 F600.000
G1 X-4.566 Y33.849 F600.000
G1 X-4.566 Y33.698 F600.000
G1 X-4.538 Y33.547 F600.000
G1 X-4.396 Y33.264 F600.000
G1 X-4.009 Y32.774 F600.000
G1 X-3.783 Y32.557 F600.000
G1 X-3.396 Y32.236 F600.000
G1 X-2.830 Y31.962 F600.000
G1 X-2.528 Y31.877 F600.000
G1 X-2.226 Y31.849 F600.000
G1 X-2.075 Y31.868 F600.000
G1 X-2.075 Y31.868 F600.000
G1 X-2.160 Y32.406 F600.000
(Tool Controller Rapid Values are unset)
 G0 X-2.160 Y32.472
(Tool Controller Rapid Values are unset)
 G0 X-1.415 Y33.991
G1 X-1.377 Y34.057 F600.000
G1 X-1.217 Y34.330 F600.000
G1 X-0.594 Y34.679 F600.000
G1 X-0.594 Y34.679 F600.000
G1 X-0.179 Y35.123 F600.000
G1 X-0.094 Y35.245 F600.000
G1 X-0.047 Y35.387 F600.000
G1 X-0.047 Y35.811 F600.000
G1 X-0.151 Y36.236 F600.000
G1 X-0.274 Y36.500 F600.000
G1 X-0.519 Y36.934 F600.000
G1 X-1.057 Y37.415 F600.000
G1 X-1.425 Y37.632 F600.000
G1 X-1.566 Y37.651 F600.000
G1 X-1.708 Y37.613 F600.000
G1 X-2.094 Y37.387 F600.000
G1 X-2.217 Y37.292 F600.000
G1 X-2.208 Y37.292 F600.000
G1 X-2.387 Y37.009 F600.000
G1 X-2.434 Y36.849 F600.000
G1 X-2.434 Y36.774 F600.000
(Tool Controller Rapid Values are unset)
 G0 X-2.415 Y36.708
(Tool Controller Rapid Values are unset)
 G0 X-2.085 Y36.292
(Tool Controller Rapid Values are unset)
 G0 X-1.066 Y35.292
G1 X-1.000 Y35.226 F600.000
G1 X-0.792 Y35.047 F600.000
G1 X-0.557 Y34.962 F600.000
G1 X-0.245 Y35.000 F600.000
G1 X-0.094 Y35.066 F600.000
G1 X-0.094 Y35.066 F600.000
G1 X0.377 Y35.396 F600.000
G1 X0.481 Y35.500 F600.000
G1 X0.547 Y35.632 F600.000
G1 X0.604 Y36.057 F600.000
G1 X0.575 Y36.481 F600.000
G1 X0.415 Y37.104 F600.000
G1 X0.170 Y37.538 F600.000
G1 X-0.226 Y37.953 F600.000
G1 X-0.481 Y38.104 F600.000
G1 X-0.623 Y38.132 F600.000
G1 X-1.047 Y38.000 F600.000
G1 X-1.047 Y38.000 F600.000
G1 X-1.283 Y37.764 F600.000
G1 X-1.358 Y37.623 F600.000
G1 X-1.377 Y37.547 F600.000
(Tool Controller Rapid Values are unset)
 G0 X-1.377 Y37.472
(Tool Controller Rapid Values are unset)
 G0 X-1.151 Y37.000
(Tool Controller Rapid Values are unset)
 G0 X-0.415 Y35.783
G1 X-0.368 Y35.698 F600.000
G1 X-0.217 Y35.472 F600.000
G1 X-0.085 Y35.368 F600.000
G1 X0.132 Y35.302 F600.000
G1 X0.472 Y35.330 F600.000
G1 X0.472 Y35.330 F600.000
G1 X0.755 Y35.425 F600.000
G1 X1.009 Y35.575 F600.000
G1 X1.123 Y35.670 F600.000
G1 X1.302 Y36.057 F600.000
G1 X1.368 Y36.481 F600.000
G1 X1.358 Y36.906 F600.000
G1 X1.274 Y37.396 F600.000
G1 X1.009 Y37.925 F600.000
G1 X0.708 Y38.274 F600.000
G1 X0.594 Y38.377 F600.000
G1 X0.443 Y38.415 F600.000
G1 X0.292 Y38.377 F600.000
G1 X0.292 Y38.377 F600.000
G1 X0.000 Y38.226 F600.000
G1 X-0.113 Y38.113 F600.000
G1 X-0.151 Y38.047 F600.000
(Tool Controller Rapid Values are unset)
 G0 X-0.179 Y37.972
(Tool Controller Rapid Values are unset)
 G0 X-0.085 Y37.453
(Tool Controller Rapid Values are unset)
 G0 X0.283 Y36.019
G1 X0.311 Y35.925 F600.000
G1 X0.406 Y35.670 F600.000
G1 X0.519 Y35.557 F600.000
G1 X0.755 Y35.472 F600.000
G1 X1.094 Y35.481 F600.000
G1 X1.094 Y35.481 F600.000
G1 X1.509 Y35.613 F600.000
G1 X1.774 Y35.745 F600.000
G1 X1.887 Y35.840 F600.000
G1 X2.085 Y36.226 F600.000
G1 X2.208 Y36.783 F600.000
G1 X2.208 Y37.415 F600.000
G1 X2.085 Y37.896 F600.000
G1 X1.877 Y38.292 F600.000
G1 X1.689 Y38.528 F600.000
G1 X1.566 Y38.613 F600.000
G1 X1.415 Y38.623 F600.000
G1 X1.113 Y38.585 F600.000
G1 X1.113 Y38.585 F600.000
G1 X0.783 Y38.453 F600.000
G1 X0.651 Y38.349 F600.000
G1 X0.604 Y38.292 F600.000
(Tool Controller Rapid Values are unset)
 G0 X0.585 Y38.226
(Tool Controller Rapid Values are unset)
 G0 X0.632 Y37.840
(Tool Controller Rapid Values are unset)
 G0 X1.085 Y36.283
G1 X1.113 Y36.189 F600.000
G1 X1.217 Y35.934 F600.000
G1 X1.321 Y35.811 F600.000
G1 X1.538 Y35.689 F600.000
G1 X1.877 Y35.642 F600.000
G1 X1.877 Y35.642 F600.000
G1 X2.302 Y35.717 F600.000
G1 X2.434 Y35.764 F600.000
G1 X2.557 Y35.840 F600.000
G1 X2.811 Y36.179 F600.000
G1 X2.981 Y36.566 F600.000
G1 X3.066 Y36.991 F600.000
G1 X3.104 Y37.481 F600.000
G1 X2.991 Y38.047 F600.000
G1 X2.726 Y38.575 F600.000
G1 X2.604 Y38.660 F600.000
G1 X2.302 Y38.660 F600.000
G1 X2.302 Y38.660 F600.000
G1 X1.962 Y38.594 F600.000
G1 X1.811 Y38.519 F600.000
G1 X1.755 Y38.462 F600.000
(Tool Controller Rapid Values are unset)
 G0 X1.717 Y38.406
(Tool Controller Rapid Values are unset)
 G0 X1.698 Y38.019
(Tool Controller Rapid Values are unset)
 G0 X1.849 Y36.358
G1 X1.858 Y36.264 F600.000
G1 X1.896 Y35.991 F600.000
G1 X1.981 Y35.858 F600.000
G1 X2.189 Y35.717 F600.000
G1 X2.519 Y35.651 F600.000
G1 X2.519 Y35.651 F600.000
G1 X2.943 Y35.689 F600.000
G1 X3.217 Y35.774 F600.000
G1 X3.349 Y35.840 F600.000
G1 X3.557 Y36.038 F600.000
G1 X3.783 Y36.406 F600.000
G1 X3.925 Y36.811 F600.000
G1 X4.019 Y37.443 F600.000
G1 X4.000 Y37.934 F600.000
G1 X3.934 Y38.217 F600.000
G1 X3.811 Y38.491 F600.000
G1 X3.726 Y38.613 F600.000
G1 X3.585 Y38.660 F600.000
G1 X3.434 Y38.660 F600.000
G1 X3.434 Y38.660 F600.000
G1 X3.094 Y38.594 F600.000
G1 X2.943 Y38.519 F600.000
G1 X2.887 Y38.462 F600.000
(Tool Controller Rapid Values are unset)
 G0 X2.840 Y38.406
(Tool Controller Rapid Values are unset)
 G0 X2.764 Y37.868
(Tool Controller Rapid Values are unset)
 G0 X2.708 Y36.358
G1 X2.708 Y36.264 F600.000
G1 X2.717 Y35.991 F600.000
G1 X2.792 Y35.858 F600.000
G1 X2.991 Y35.717 F600.000
G1 X3.321 Y35.651 F600.000
G1 X3.321 Y35.651 F600.000
G1 X3.745 Y35.670 F600.000
G1 X4.028 Y35.736 F600.000
G1 X4.283 Y35.868 F600.000
G1 X4.557 Y36.208 F600.000
G1 X4.811 Y36.717 F600.000
G1 X4.896 Y36.991 F600.000
G1 X4.991 Y37.623 F600.000
G1 X4.962 Y38.047 F600.000
G1 X4.821 Y38.462 F600.000
G1 X4.745 Y38.594 F600.000
G1 X4.613 Y38.660 F600.000
G1 X4.462 Y38.660 F600.000
G1 X4.453 Y38.660 F600.000
G1 X4.113 Y38.594 F600.000
G1 X3.906 Y38.462 F600.000
(Tool Controller Rapid Values are unset)
 G0 X3.858 Y38.406
(Tool Controller Rapid Values are unset)
 G0 X3.736 Y37.887
(Tool Controller Rapid Values are unset)
 G0 X3.547 Y36.358
G1 X3.528 Y36.264 F600.000
G1 X3.519 Y35.991 F600.000
G1 X3.585 Y35.858 F600.000
G1 X3.783 Y35.717 F600.000
G1 X4.113 Y35.651 F600.000
G1 X4.113 Y35.651 F600.000
G1 X4.679 Y35.679 F600.000
G1 X4.962 Y35.745 F600.000
G1 X5.217 Y35.877 F600.000
G1 X5.585 Y36.330 F600.000
G1 X5.774 Y36.726 F600.000
G1 X5.934 Y37.349 F600.000
G1 X5.962 Y37.840 F600.000
G1 X5.915 Y38.123 F600.000
G1 X5.821 Y38.406 F600.000
G1 X5.755 Y38.538 F600.000
G1 X5.642 Y38.642 F600.000
G1 X5.491 Y38.660 F600.000
G1 X5.491 Y38.660 F600.000
G1 X5.151 Y38.594 F600.000
G1 X4.934 Y38.462 F600.000
(Tool Controller Rapid Values are unset)
 G0 X4.887 Y38.406
(Tool Controller Rapid Values are unset)
 G0 X4.755 Y37.877
(Tool Controller Rapid Values are unset)
 G0 X4.519 Y36.349
G1 X4.500 Y36.255 F600.000
G1 X4.491 Y35.991 F600.000
G1 X4.547 Y35.849 F600.000
G1 X4.745 Y35.717 F600.000
G1 X5.075 Y35.651 F600.000
G1 X5.075 Y35.651 F600.000
G1 X5.642 Y35.689 F600.000
G1 X5.925 Y35.764 F600.000
G1 X6.170 Y35.915 F600.000
G1 X6.368 Y36.123 F600.000
G1 X6.670 Y36.613 F600.000
G1 X6.774 Y36.887 F600.000
G1 X6.896 Y37.368 F600.000
G1 X6.925 Y37.858 F600.000
G1 X6.877 Y38.142 F600.000
G1 X6.708 Y38.557 F600.000
G1 X6.594 Y38.660 F600.000
G1 X6.443 Y38.660 F600.000
G1 X6.443 Y38.660 F600.000
G1 X6.104 Y38.594 F600.000
G1 X5.887 Y38.462 F600.000
(Tool Controller Rapid Values are unset)
 G0 X5.840 Y38.406
(Tool Controller Rapid Values are unset)
 G0 X5.717 Y37.877
(Tool Controller Rapid Values are unset)
 G0 X5.481 Y36.349
G1 X5.462 Y36.255 F600.000
G1 X5.453 Y35.991 F600.000
G1 X5.509 Y35.849 F600.000
G1 X5.708 Y35.717 F600.000
G1 X6.038 Y35.651 F600.000
G1 X6.038 Y35.651 F600.000
G1 X6.604 Y35.689 F600.000
G1 X6.887 Y35.764 F600.000
G1 X7.132 Y35.915 F600.000
G1 X7.415 Y36.245 F600.000
G1 X7.745 Y36.887 F600.000
G1 X7.858 Y37.368 F600.000
G1 X7.896 Y37.858 F600.000
G1 X7.849 Y38.142 F600.000
G1 X7.745 Y38.425 F600.000
G1 X7.670 Y38.557 F600.000
G1 X7.557 Y38.651 F600.000
G1 X7.406 Y38.660 F600.000
G1 X7.406 Y38.660 F600.000
G1 X7.066 Y38.594 F600.000
G1 X6.849 Y38.462 F600.000
(Tool Controller Rapid Values are unset)
 G0 X6.802 Y38.406
(Tool Controller Rapid Values are unset)
 G0 X6.679 Y37.877
(Tool Controller Rapid Values are unset)
 G0 X6.443 Y36.349
G1 X6.425 Y36.255 F600.000
G1 X6.415 Y35.991 F600.000
G1 X6.472 Y35.849 F600.000
G1 X6.670 Y35.717 F600.000
G1 X7.000 Y35.651 F600.000
G1 X7.000 Y35.651 F600.000
G1 X7.566 Y35.689 F600.000
G1 X7.849 Y35.755 F600.000
G1 X8.104 Y35.887 F600.000
G1 X8.387 Y36.208 F600.000
G1 X8.604 Y36.575 F600.000
G1 X8.764 Y36.972 F600.000
G1 X8.858 Y37.453 F600.000
G1 X8.858 Y37.943 F600.000
G1 X8.792 Y38.226 F600.000
G1 X8.679 Y38.500 F600.000
G1 X8.585 Y38.613 F600.000
G1 X8.443 Y38.660 F600.000
G1 X8.443 Y38.660 F600.000
G1 X8.104 Y38.594 F600.000
G1 X7.887 Y38.462 F600.000
(Tool Controller Rapid Values are unset)
 G0 X7.840 Y38.406
(Tool Controller Rapid Values are unset)
 G0 X7.698 Y37.877
(Tool Controller Rapid Values are unset)
 G0 X7.406 Y36.349
G1 X7.387 Y36.255 F600.000
G1 X7.368 Y35.991 F600.000
G1 X7.425 Y35.849 F600.000
G1 X7.623 Y35.717 F600.000
G1 X7.953 Y35.651 F600.000
G1 X7.953 Y35.651 F600.000
G1 X8.519 Y35.679 F600.000
G1 X8.802 Y35.745 F600.000
G1 X9.057 Y35.877 F600.000
G1 X9.349 Y36.198 F600.000
G1 X9.575 Y36.575 F600.000
G1 X9.726 Y36.981 F600.000
G1 X9.830 Y37.462 F600.000
G1 X9.830 Y37.887 F600.000
G1 X9.717 Y38.311 F600.000
G1 X9.594 Y38.575 F600.000
G1 X9.472 Y38.660 F600.000
G1 X9.019 Y38.660 F600.000
G1 X9.009 Y38.660 F600.000
G1 X8.670 Y38.594 F600.000
G1 X8.519 Y38.519 F600.000
G1 X8.462 Y38.462 F600.000
(Tool Controller Rapid Values are unset)
 G0 X8.415 Y38.406
(Tool Controller Rapid Values are unset)
 G0 X8.349 Y37.868
(Tool Controller Rapid Values are unset)
 G0 X8.302 Y36.358
G1 X8.302 Y36.264 F600.000
G1 X8.311 Y35.991 F600.000
G1 X8.387 Y35.858 F600.000
G1 X8.585 Y35.717 F600.000
G1 X8.915 Y35.651 F600.000
G1 X8.915 Y35.651 F600.000
G1 X9.481 Y35.679 F600.000
G1 X9.896 Y35.792 F600.000
G1 X10.019 Y35.868 F600.000
G1 X10.311 Y36.189 F600.000
G1 X10.538 Y36.566 F600.000
G1 X10.679 Y36.972 F600.000
G1 X10.792 Y37.453 F600.000
G1 X10.792 Y37.877 F600.000
G1 X10.708 Y38.302 F600.000
G1 X10.585 Y38.575 F600.000
G1 X10.462 Y38.660 F600.000
G1 X10.160 Y38.660 F600.000
G1 X10.160 Y38.660 F600.000
G1 X9.821 Y38.594 F600.000
G1 X9.613 Y38.462 F600.000
(Tool Controller Rapid Values are unset)
 G0 X9.566 Y38.406
(Tool Controller Rapid Values are unset)
 G0 X9.453 Y37.887
(Tool Controller Rapid Values are unset)
 G0 X9.292 Y36.358
G1 X9.283 Y36.264 F600.000
G1 X9.283 Y35.991 F600.000
G1 X9.349 Y35.858 F600.000
G1 X9.547 Y35.717 F600.000
G1 X9.877 Y35.651 F600.000
G1 X9.877 Y35.651 F600.000
G1 X10.443 Y35.679 F600.000
G1 X10.858 Y35.792 F600.000
G1 X11.085 Y35.981 F600.000
G1 X11.358 Y36.321 F600.000
G1 X11.613 Y36.830 F600.000
G1 X11.736 Y37.311 F600.000
G1 X11.774 Y37.802 F600.000
G1 X11.698 Y38.226 F600.000
G1 X11.594 Y38.500 F600.000
G1 X11.491 Y38.604 F600.000
G1 X11.189 Y38.623 F600.000
G1 X11.189 Y38.623 F600.000
G1 X10.849 Y38.557 F600.000
G1 X10.642 Y38.434 F600.000
(Tool Controller Rapid Values are unset)
 G0 X10.594 Y38.377
(Tool Controller Rapid Values are unset)
 G0 X10.481 Y37.858
(Tool Controller Rapid Values are unset)
 G0 X10.302 Y36.396
G1 X10.283 Y36.302 F600.000
G1 X10.274 Y36.028 F600.000
G1 X10.340 Y35.887 F600.000
G1 X10.519 Y35.726 F600.000
G1 X10.840 Y35.623 F600.000
G1 X10.840 Y35.623 F600.000
G1 X11.547 Y35.632 F600.000
G1 X11.689 Y35.670 F600.000
G1 X12.028 Y35.943 F600.000
G1 X12.368 Y36.396 F600.000
G1 X12.642 Y36.962 F600.000
G1 X12.736 Y37.453 F600.000
G1 X12.736 Y37.877 F600.000
G1 X12.679 Y38.160 F600.000
G1 X12.594 Y38.283 F600.000
G1 X12.472 Y38.368 F600.000
G1 X12.179 Y38.453 F600.000
G1 X12.179 Y38.453 F600.000
G1 X11.840 Y38.453 F600.000
G1 X11.679 Y38.406 F600.000
G1 X11.613 Y38.368 F600.000
(Tool Controller Rapid Values are unset)
 G0 X11.557 Y38.321
(Tool Controller Rapid Values are unset)
 G0 X11.443 Y37.943
(Tool Controller Rapid Values are unset)
 G0 X11.198 Y36.377
G1 X11.179 Y36.283 F600.000
G1 X11.160 Y36.009 F600.000
G1 X11.198 Y35.849 F600.000
G1 X11.340 Y35.651 F600.000
G1 X11.613 Y35.462 F600.000
G1 X11.613 Y35.462 F600.000
G1 X12.038 Y35.368 F600.000
G1 X12.179 Y35.358 F600.000
G1 X12.321 Y35.377 F600.000
G1 X12.698 Y35.575 F600.000
G1 X13.019 Y35.858 F600.000
G1 X13.292 Y36.208 F600.000
G1 X13.547 Y36.632 F600.000
G1 X13.689 Y37.198 F600.000
G1 X13.689 Y37.764 F600.000
G1 X13.613 Y37.887 F600.000
G1 X13.330 Y38.009 F600.000
G1 X13.330 Y38.009 F600.000
G1 X12.991 Y38.057 F600.000
G1 X12.830 Y38.038 F600.000
G1 X12.755 Y38.009 F600.000
(Tool Controller Rapid Values are unset)
 G0 X12.698 Y37.972
(Tool Controller Rapid Values are unset)
 G0 X12.443 Y37.500
(Tool Controller Rapid Values are unset)
 G0 X11.887 Y36.104
G1 X11.849 Y36.019 F600.000
G1 X11.774 Y35.764 F600.000
G1 X11.792 Y35.604 F600.000
G1 X11.925 Y35.406 F600.000
G1 X12.198 Y35.217 F600.000
G1 X12.198 Y35.217 F600.000
G1 X12.623 Y35.066 F600.000
G1 X12.906 Y35.009 F600.000
G1 X13.047 Y35.009 F600.000
G1 X13.453 Y35.179 F600.000
G1 X13.811 Y35.425 F600.000
G1 X14.009 Y35.623 F600.000
G1 X14.302 Y36.019 F600.000
G1 X14.528 Y36.453 F600.000
G1 X14.642 Y36.868 F600.000
G1 X14.670 Y37.151 F600.000
G1 X14.632 Y37.292 F600.000
G1 X14.151 Y37.651 F600.000
G1 X14.151 Y37.651 F600.000
G1 X13.821 Y37.755 F600.000
G1 X13.660 Y37.755 F600.000
G1 X13.585 Y37.736 F600.000
(Tool Controller Rapid Values are unset)
 G0 X13.528 Y37.708
(Tool Controller Rapid Values are unset)
 G0 X13.330 Y37.377
(Tool Controller Rapid Values are unset)
 G0 X12.698 Y35.830
G1 X12.660 Y35.745 F600.000
G1 X12.575 Y35.481 F600.000
G1 X12.585 Y35.321 F600.000
G1 X12.679 Y35.094 F600.000
G1 X12.915 Y34.858 F600.000
G1 X12.915 Y34.858 F600.000
G1 X13.425 Y34.547 F600.000
G1 X13.566 Y34.519 F600.000
G1 X13.991 Y34.623 F600.000
G1 X14.500 Y34.877 F600.000
G1 X14.972 Y35.292 F600.000
G1 X15.264 Y35.689 F600.000
G1 X15.500 Y36.217 F600.000
G1 X15.538 Y36.358 F600.000
G1 X15.519 Y36.500 F600.000
G1 X15.009 Y37.057 F600.000
G1 X15.009 Y37.057 F600.000
G1 X14.698 Y37.179 F600.000
G1 X14.538 Y37.198 F600.000
G1 X14.462 Y37.189 F600.000
(Tool Controller Rapid Values are unset)
 G0 X14.396 Y37.160
(Tool Controller Rapid Values are unset)
 G0 X14.170 Y36.849
(Tool Controller Rapid Values are unset)
 G0 X13.396 Y35.434
G1 X13.349 Y35.349 F600.000
G1 X13.208 Y35.019 F600.000
G1 X13.208 Y34.774 F600.000
G1 X13.377 Y34.415 F600.000
G1 X13.377 Y34.415 F600.000
G1 X13.726 Y34.113 F600.000
G1 X13.991 Y33.981 F600.000
G1 X14.132 Y33.953 F600.000
G1 X14.415 Y33.962 F600.000
G1 X14.840 Y34.075 F600.000
G1 X15.104 Y34.198 F600.000
G1 X15.509 Y34.472 F600.000
G1 X15.877 Y34.802 F600.000
G1 X16.208 Y35.274 F600.000
G1 X16.302 Y35.547 F600.000
G1 X16.283 Y35.689 F600.000
G1 X16.075 Y35.915 F600.000
G1 X16.075 Y35.915 F600.000
G1 X15.792 Y36.104 F600.000
G1 X15.557 Y36.160 F600.000
(Tool Controller Rapid Values are unset)
 G0 X15.481 Y36.151
(Tool Controller Rapid Values are unset)
 G0 X15.057 Y35.840
(Tool Controller Rapid Values are unset)
 G0 X13.943 Y34.858
G1 X13.877 Y34.802 F600.000
G1 X13.689 Y34.604 F600.000
G1 X13.632 Y34.453 F600.000
G1 X13.651 Y34.226 F600.000
G1 X13.802 Y33.943 F600.000
G1 X13.802 Y33.943 F600.000
G1 X14.075 Y33.575 F600.000
G1 X14.292 Y33.377 F600.000
G1 X14.425 Y33.311 F600.000
G1 X14.708 Y33.264 F600.000
G1 X15.132 Y33.292 F600.000
G1 X15.415 Y33.349 F600.000
G1 X15.877 Y33.538 F600.000
G1 X16.292 Y33.802 F600.000
G1 X16.717 Y34.198 F600.000
G1 X16.877 Y34.434 F600.000
G1 X16.906 Y34.575 F600.000
G1 X16.774 Y34.849 F600.000
G1 X16.774 Y34.849 F600.000
G1 X16.547 Y35.094 F600.000
G1 X16.415 Y35.179 F600.000
G1 X16.340 Y35.198 F600.000
(Tool Controller Rapid Values are unset)
 G0 X16.264 Y35.208
(Tool Controller Rapid Values are unset)
 G0 X15.915 Y35.028
(Tool Controller Rapid Values are unset)
 G0 X14.623 Y34.142
G1 X14.547 Y34.094 F600.000
G1 X14.274 Y33.858 F600.000
G1 X14.170 Y33.642 F600.000
G1 X14.179 Y33.245 F600.000
G1 X14.179 Y33.245 F600.000
G1 X14.396 Y32.849 F600.000
G1 X14.500 Y32.736 F600.000
G1 X14.623 Y32.651 F600.000
G1 X15.047 Y32.509 F600.000
G1 X15.472 Y32.462 F600.000
G1 X15.755 Y32.491 F600.000
G1 X16.236 Y32.604 F600.000
G1 X16.689 Y32.811 F600.000
G1 X17.047 Y33.047 F600.000
G1 X17.349 Y33.340 F600.000
G1 X17.434 Y33.453 F600.000
G1 X17.528 Y33.726 F600.000
G1 X17.330 Y33.953 F600.000
G1 X17.330 Y33.953 F600.000
G1 X17.057 Y34.151 F600.000
G1 X16.821 Y34.217 F600.000
(Tool Controller Rapid Values are unset)
 G0 X16.745 Y34.217
(Tool Controller Rapid Values are unset)
 G0 X14.811 Y33.566
G1 X14.717 Y33.538 F600.000
G1 X14.472 Y33.425 F600.000
G1 X14.368 Y33.311 F600.000
G1 X14.292 Y33.094 F600.000
G1 X14.311 Y32.783 F600.000
G1 X14.311 Y32.783 F600.000
G1 X14.528 Y32.198 F600.000
G1 X14.698 Y31.943 F600.000
G1 X14.811 Y31.840 F600.000
G1 X15.075 Y31.708 F600.000
G1 X15.642 Y31.557 F600.000
G1 X15.925 Y31.528 F600.000
G1 X16.557 Y31.613 F600.000
G1 X17.104 Y31.802 F600.000
G1 X17.481 Y32.009 F600.000
G1 X17.566 Y32.123 F600.000
G1 X17.575 Y33.113 F600.000
G1 X17.575 Y33.113 F600.000
G1 X17.500 Y33.425 F600.000
G1 X17.425 Y33.566 F600.000
G1 X17.368 Y33.613 F600.000
(Tool Controller Rapid Values are unset)
 G0 X17.311 Y33.632
(Tool Controller Rapid Values are unset)
 G0 X17.038 Y33.566
(Tool Controller Rapid Values are unset)
 G0 X15.142 Y32.660
G1 X15.057 Y32.623 F600.000
G1 X14.745 Y32.434 F600.000
G1 X14.613 Y32.236 F600.000
G1 X14.557 Y31.849 F600.000
G1 X14.557 Y31.849 F600.000
G1 X14.642 Y31.396 F600.000
G1 X14.774 Y31.123 F600.000
G1 X15.264 Y30.783 F600.000
G1 X15.821 Y30.594 F600.000
G1 X16.311 Y30.538 F600.000
G1 X16.943 Y30.604 F600.000
G1 X17.358 Y30.736 F600.000
G1 X17.491 Y30.802 F600.000
G1 X17.575 Y30.915 F600.000
G1 X17.575 Y31.057 F600.000
G1 X17.575 Y31.057 F600.000
G1 X17.500 Y31.368 F600.000
G1 X17.368 Y31.566 F600.000
(Tool Controller Rapid Values are unset)
 G0 X17.311 Y31.604
(Tool Controller Rapid Values are unset)
 G0 X16.783 Y31.689
(Tool Controller Rapid Values are unset)
 G0 X15.283 Y31.774
G1 X15.189 Y31.783 F600.000
G1 X14.915 Y31.774 F600.000
G1 X14.783 Y31.708 F600.000
G1 X14.642 Y31.519 F600.000
G1 X14.575 Y31.217 F600.000
G1 X14.575 Y31.217 F600.000
G1 X14.594 Y30.764 F600.000
G1 X14.670 Y30.462 F600.000
G1 X14.726 Y30.321 F600.000
G1 X14.915 Y30.094 F600.000
G1 X15.274 Y29.830 F600.000
G1 X15.670 Y29.642 F600.000
G1 X15.811 Y29.594 F600.000
G1 X16.302 Y29.509 F600.000
G1 X16.934 Y29.509 F600.000
G1 X17.358 Y29.604 F600.000
G1 X17.491 Y29.660 F600.000
G1 X17.575 Y29.774 F600.000
G1 X17.575 Y29.915 F600.000
G1 X17.575 Y29.915 F600.000
G1 X17.500 Y30.226 F600.000
G1 X17.368 Y30.425 F600.000
(Tool Controller Rapid Values are unset)
 G0 X17.311 Y30.472
(Tool Controller Rapid Values are unset)
 G0 X15.274 Y30.906
G1 X15.179 Y30.925 F600.000
G1 X14.915 Y30.953 F600.000
G1 X14.774 Y30.906 F600.000
G1 X14.642 Y30.717 F600.000
G1 X14.575 Y30.415 F600.000
G1 X14.575 Y30.415 F600.000
G1 X14.594 Y29.811 F600.000
G1 X14.660 Y29.509 F600.000
G1 X14.792 Y29.236 F600.000
G1 X15.113 Y28.934 F600.000
G1 X15.500 Y28.708 F600.000
G1 X15.915 Y28.547 F600.000
G1 X16.538 Y28.415 F600.000
G1 X16.962 Y28.415 F600.000
G1 X17.245 Y28.462 F600.000
G1 X17.519 Y28.566 F600.000
G1 X17.575 Y28.698 F600.000
G1 X17.575 Y28.698 F600.000
G1 X17.500 Y29.009 F600.000
G1 X17.368 Y29.208 F600.000
(Tool Controller Rapid Values are unset)
 G0 X17.311 Y29.255
(Tool Controller Rapid Values are unset)
 G0 X15.274 Y29.774
G1 X15.179 Y29.792 F600.000
G1 X14.915 Y29.830 F600.000
G1 X14.774 Y29.774 F600.000
G1 X14.642 Y29.594 F600.000
G1 X14.575 Y29.292 F600.000
G1 X14.575 Y29.292 F600.000
G1 X14.613 Y28.689 F600.000
G1 X14.698 Y28.396 F600.000
G1 X14.764 Y28.255 F600.000
G1 X15.075 Y27.925 F600.000
G1 X15.453 Y27.670 F600.000
G1 X15.858 Y27.481 F600.000
G1 X16.340 Y27.368 F600.000
G1 X16.972 Y27.340 F600.000
G1 X17.396 Y27.443 F600.000
G1 X17.519 Y27.509 F600.000
G1 X17.575 Y27.642 F600.000
G1 X17.575 Y27.642 F600.000
G1 X17.500 Y27.953 F600.000
G1 X17.368 Y28.151 F600.000
(Tool Controller Rapid Values are unset)
 G0 X17.311 Y28.208
(Tool Controller Rapid Values are unset)
 G0 X15.264 Y28.783
G1 X15.179 Y28.811 F600.000
G1 X14.915 Y28.858 F600.000
G1 X14.774 Y28.811 F600.000
G1 X14.642 Y28.632 F600.000
G1 X14.575 Y28.330 F600.000
G1 X14.575 Y28.330 F600.000
G1 X14.604 Y27.726 F600.000
G1 X14.670 Y27.425 F600.000
G1 X14.792 Y27.151 F600.000
G1 X15.113 Y26.830 F600.000
G1 X15.481 Y26.575 F600.000
G1 X15.887 Y26.387 F600.000
G1 X16.368 Y26.274 F600.000
G1 X17.000 Y26.264 F600.000
G1 X17.283 Y26.321 F600.000
G1 X17.415 Y26.368 F600.000
G1 X17.528 Y26.453 F600.000
G1 X17.575 Y26.585 F600.000
G1 X17.575 Y26.585 F600.000
G1 X17.500 Y26.896 F600.000
G1 X17.368 Y27.104 F600.000
(Tool Controller Rapid Values are unset)
 G0 X17.311 Y27.151
(Tool Controller Rapid Values are unset)
 G0 X15.264 Y27.821
G1 X15.170 Y27.849 F600.000
G1 X14.915 Y27.906 F600.000
G1 X14.774 Y27.858 F600.000
G1 X14.642 Y27.679 F600.000
G1 X14.575 Y27.377 F600.000
G1 X14.575 Y27.377 F600.000
G1 X14.613 Y26.623 F600.000
G1 X14.679 Y26.321 F600.000
G1 X14.736 Y26.179 F600.000
G1 X15.028 Y25.830 F600.000
G1 X15.387 Y25.557 F600.000
G1 X15.792 Y25.358 F600.000
G1 X16.264 Y25.217 F600.000
G1 X16.896 Y25.179 F600.000
G1 X17.179 Y25.217 F600.000
G1 X17.453 Y25.311 F600.000
G1 X17.557 Y25.415 F600.000
G1 X17.575 Y25.557 F600.000
G1 X17.575 Y25.557 F600.000
G1 X17.500 Y25.868 F600.000
G1 X17.368 Y26.075 F600.000
(Tool Controller Rapid Values are unset)
 G0 X17.311 Y26.123
(Tool Controller Rapid Values are unset)
 G0 X15.264 Y26.708
G1 X15.179 Y26.736 F600.000
G1 X14.915 Y26.783 F600.000
G1 X14.774 Y26.736 F600.000
G1 X14.642 Y26.557 F600.000
G1 X14.575 Y26.255 F600.000
G1 X14.575 Y26.255 F600.000
G1 X14.613 Y25.500 F600.000
G1 X14.689 Y25.198 F600.000
G1 X14.840 Y24.934 F600.000
G1 X15.179 Y24.632 F600.000
G1 X15.689 Y24.321 F600.000
G1 X15.830 Y24.264 F600.000
G1 X16.311 Y24.142 F600.000
G1 X16.802 Y24.104 F600.000
G1 X17.226 Y24.160 F600.000
G1 X17.500 Y24.255 F600.000
G1 X17.575 Y24.377 F600.000
G1 X17.575 Y24.377 F600.000
G1 X17.500 Y24.689 F600.000
G1 X17.368 Y24.896 F600.000
(Tool Controller Rapid Values are unset)
 G0 X17.311 Y24.943
(Tool Controller Rapid Values are unset)
 G0 X15.264 Y25.585
G1 X15.170 Y25.613 F600.000
G1 X14.915 Y25.660 F600.000
G1 X14.774 Y25.613 F600.000
G1 X14.642 Y25.434 F600.000
G1 X14.575 Y25.132 F600.000
G1 X14.575 Y25.132 F600.000
G1 X14.613 Y24.377 F600.000
G1 X14.698 Y24.085 F600.000
G1 X14.764 Y23.943 F600.000
G1 X15.075 Y23.613 F600.000
G1 X15.453 Y23.358 F600.000
G1 X15.868 Y23.179 F600.000
G1 X16.349 Y23.057 F600.000
G1 X16.981 Y23.038 F600.000
G1 X17.406 Y23.142 F600.000
G1 X17.528 Y23.217 F600.000
G1 X17.575 Y23.349 F600.000
G1 X17.575 Y23.349 F600.000
G1 X17.500 Y23.660 F600.000
G1 X17.368 Y23.858 F600.000
(Tool Controller Rapid Values are unset)
 G0 X17.311 Y23.915
(Tool Controller Rapid Values are unset)
 G0 X15.274 Y24.481
G1 X15.198 Y24.500 F600.000
G1 X14.896 Y24.557 F600.000
G1 X14.774 Y24.509 F600.000
G1 X14.642 Y24.321 F600.000
G1 X14.575 Y24.019 F600.000
G1 X14.575 Y24.019 F600.000
G1 X14.604 Y23.415 F600.000
G1 X14.670 Y23.113 F600.000
G1 X14.792 Y22.840 F600.000
G1 X15.123 Y22.519 F600.000
G1 X15.491 Y22.264 F600.000
G1 X15.887 Y22.075 F600.000
G1 X16.368 Y21.972 F600.000
G1 X17.000 Y21.953 F600.000
G1 X17.425 Y22.057 F600.000
G1 X17.538 Y22.142 F600.000
G1 X17.575 Y22.283 F600.000
G1 X17.575 Y22.283 F600.000
G1 X17.500 Y22.594 F600.000
G1 X17.368 Y22.802 F600.000
(Tool Controller Rapid Values are unset)
 G0 X17.311 Y22.849
(Tool Controller Rapid Values are unset)
 G0 X15.264 Y23.500
G1 X15.170 Y23.528 F600.000
G1 X14.915 Y23.585 F600.000
G1 X14.774 Y23.538 F600.000
G1 X14.642 Y23.358 F600.000
G1 X14.575 Y23.057 F600.000
G1 X14.575 Y23.057 F600.000
G1 X14.613 Y22.302 F600.000
G1 X14.679 Y22.000 F600.000
G1 X14.736 Y21.858 F600.000
G1 X14.915 Y21.613 F600.000
G1 X15.387 Y21.245 F600.000
G1 X15.783 Y21.047 F600.000
G1 X16.255 Y20.896 F600.000
G1 X17.028 Y20.877 F600.000
G1 X17.453 Y20.991 F600.000
G1 X17.557 Y21.094 F600.000
G1 X17.575 Y21.236 F600.000
G1 X17.575 Y21.236 F600.000
G1 X17.500 Y21.547 F600.000
G1 X17.368 Y21.755 F600.000
(Tool Controller Rapid Values are unset)
 G0 X17.311 Y21.802
(Tool Controller Rapid Values are unset)
 G0 X15.264 Y22.387
G1 X15.179 Y22.415 F600.000
G1 X14.915 Y22.462 F600.000
G1 X14.774 Y22.415 F600.000
G1 X14.642 Y22.236 F600.000
G1 X14.575 Y21.934 F600.000
G1 X14.575 Y21.934 F600.000
G1 X14.613 Y21.179 F600.000
G1 X14.698 Y20.877 F600.000
G1 X14.764 Y20.736 F600.000
G1 X15.066 Y20.396 F600.000
G1 X15.434 Y20.142 F600.000
G1 X15.840 Y19.962 F600.000
G1 X16.321 Y19.840 F600.000
G1 X16.953 Y19.811 F600.000
G1 X17.377 Y19.906 F600.000
G1 X17.509 Y19.962 F600.000
G1 X17.575 Y20.085 F600.000
G1 X17.575 Y20.085 F600.000
G1 X17.500 Y20.396 F600.000
G1 X17.368 Y20.604 F600.000
(Tool Controller Rapid Values are unset)
 G0 X17.311 Y20.651
(Tool Controller Rapid Values are unset)
 G0 X15.264 Y21.264
G1 X15.179 Y21.292 F600.000
G1 X14.915 Y21.340 F600.000
G1 X14.774 Y21.292 F600.000
G1 X14.642 Y21.113 F600.000
G1 X14.575 Y20.811 F600.000
G1 X14.575 Y20.811 F600.000
G1 X14.594 Y20.208 F600.000
G1 X14.660 Y19.906 F600.000
G1 X14.783 Y19.632 F600.000
G1 X15.104 Y19.311 F600.000
G1 X15.481 Y19.057 F600.000
G1 X15.887 Y18.868 F600.000
G1 X16.368 Y18.764 F600.000
G1 X17.000 Y18.745 F600.000
G1 X17.425 Y18.849 F600.000
G1 X17.538 Y18.934 F600.000
G1 X17.575 Y19.075 F600.000
G1 X17.575 Y19.075 F600.000
G1 X17.500 Y19.387 F600.000
G1 X17.368 Y19.585 F600.000
(Tool Controller Rapid Values are unset)
 G0 X17.311 Y19.632
(Tool Controller Rapid Values are unset)
 G0 X15.274 Y20.170
G1 X15.179 Y20.198 F600.000
G1 X14.915 Y20.236 F600.000
G1 X14.774 Y20.179 F600.000
G1 X14.642 Y20.000 F600.000
G1 X14.575 Y19.698 F600.000
G1 X14.575 Y19.698 F600.000
G1 X14.613 Y19.094 F600.000
G1 X14.679 Y18.792 F600.000
G1 X14.811 Y18.519 F600.000
G1 X15.132 Y18.208 F600.000
G1 X15.774 Y17.830 F600.000
G1 X16.396 Y17.660 F600.000
G1 X16.821 Y17.632 F600.000
G1 X17.245 Y17.689 F600.000
G1 X17.519 Y17.792 F600.000
G1 X17.575 Y17.925 F600.000
G1 X17.575 Y18.066 F600.000
G1 X17.575 Y18.066 F600.000
G1 X17.500 Y18.377 F600.000
G1 X17.368 Y18.575 F600.000
(Tool Controller Rapid Values are unset)
 G0 X17.311 Y18.632
(Tool Controller Rapid Values are unset)
 G0 X15.274 Y19.198
G1 X15.198 Y19.217 F600.000
G1 X14.896 Y19.274 F600.000
G1 X14.774 Y19.226 F600.000
G1 X14.642 Y19.038 F600.000
G1 X14.575 Y18.736 F600.000
G1 X14.575 Y18.736 F600.000
G1 X14.613 Y17.981 F600.000
G1 X14.679 Y17.679 F600.000
G1 X14.736 Y17.538 F600.000
G1 X14.925 Y17.311 F600.000
G1 X15.396 Y16.934 F600.000
G1 X15.802 Y16.736 F600.000
G1 X16.283 Y16.604 F600.000
G1 X16.915 Y16.557 F600.000
G1 X17.198 Y16.594 F600.000
G1 X17.472 Y16.698 F600.000
G1 X17.575 Y16.802 F600.000
G1 X17.575 Y16.943 F600.000
G1 X17.575 Y16.934 F600.000
G1 X17.500 Y17.245 F600.000
G1 X17.368 Y17.443 F600.000
(Tool Controller Rapid Values are unset)
 G0 X17.311 Y17.500
(Tool Controller Rapid Values are unset)
 G0 X15.264 Y18.075
G1 X15.179 Y18.104 F600.000
G1 X14.915 Y18.151 F600.000
G1 X14.774 Y18.094 F600.000
G1 X14.642 Y17.915 F600.000
G1 X14.575 Y17.613 F600.000
G1 X14.575 Y17.613 F600.000
G1 X14.613 Y16.858 F600.000
G1 X14.698 Y16.566 F600.000
G1 X14.764 Y16.425 F600.000
G1 X15.075 Y16.094 F600.000
G1 X15.453 Y15.840 F600.000
G1 X15.858 Y15.651 F600.000
G1 X16.330 Y15.509 F600.000
G1 X16.821 Y15.481 F600.000
G1 X17.245 Y15.538 F600.000
G1 X17.519 Y15.632 F600.000
G1 X17.575 Y15.764 F600.000
G1 X17.575 Y15.764 F600.000
G1 X17.500 Y16.075 F600.000
G1 X17.368 Y16.283 F600.000
(Tool Controller Rapid Values are unset)
 G0 X17.311 Y16.330
(Tool Controller Rapid Values are unset)
 G0 X15.264 Y16.943
G1 X15.179 Y16.972 F600.000
G1 X14.915 Y17.019 F600.000
G1 X14.774 Y16.972 F600.000
G1 X14.642 Y16.792 F600.000
G1 X14.575 Y16.491 F600.000
G1 X14.575 Y16.491 F600.000
G1 X14.604 Y15.887 F600.000
G1 X14.670 Y15.585 F600.000
G1 X14.802 Y15.311 F600.000
G1 X15.236 Y14.896 F600.000
G1 X15.623 Y14.660 F600.000
G1 X15.906 Y14.547 F600.000
G1 X16.670 Y14.387 F600.000
G1 X17.094 Y14.387 F600.000
G1 X17.377 Y14.462 F600.000
G1 X17.509 Y14.519 F600.000
G1 X17.575 Y14.651 F600.000
G1 X17.575 Y14.651 F600.000
G1 X17.500 Y14.962 F600.000
G1 X17.368 Y15.170 F600.000
(Tool Controller Rapid Values are unset)
 G0 X17.311 Y15.217
(Tool Controller Rapid Values are unset)
 G0 X15.264 Y15.972
G1 X15.170 Y16.000 F600.000
G1 X14.915 Y16.066 F600.000
G1 X14.774 Y16.019 F600.000
G1 X14.642 Y15.840 F600.000
G1 X14.575 Y15.538 F600.000
G1 X14.575 Y15.538 F600.000
G1 X14.613 Y14.783 F600.000
G1 X14.679 Y14.481 F600.000
G1 X14.736 Y14.340 F600.000
G1 X14.915 Y14.094 F600.000
G1 X15.245 Y13.792 F600.000
G1 X15.755 Y13.491 F600.000
G1 X15.887 Y13.434 F600.000
G1 X16.368 Y13.330 F600.000
G1 X17.000 Y13.321 F600.000
G1 X17.283 Y13.368 F600.000
G1 X17.425 Y13.415 F600.000
G1 X17.538 Y13.500 F600.000
G1 X17.575 Y13.642 F600.000
G1 X17.575 Y13.642 F600.000
G1 X17.500 Y13.953 F600.000
G1 X17.368 Y14.160 F600.000
(Tool Controller Rapid Values are unset)
 G0 X17.311 Y14.208
(Tool Controller Rapid Values are unset)
 G0 X15.264 Y14.858
G1 X15.170 Y14.887 F600.000
G1 X14.915 Y14.943 F600.000
G1 X14.774 Y14.896 F600.000
G1 X14.642 Y14.717 F600.000
G1 X14.575 Y14.415 F600.000
G1 X14.575 Y14.415 F600.000
G1 X14.613 Y13.660 F600.000
G1 X14.679 Y13.358 F600.000
G1 X14.736 Y13.217 F600.000
G1 X14.915 Y12.972 F600.000
G1 X15.387 Y12.594 F600.000
G1 X15.783 Y12.396 F600.000
G1 X16.264 Y12.274 F600.000
G1 X16.896 Y12.236 F600.000
G1 X17.179 Y12.264 F600.000
G1 X17.453 Y12.358 F600.000
G1 X17.557 Y12.453 F600.000
G1 X17.575 Y12.594 F600.000
G1 X17.575 Y12.594 F600.000
G1 X17.500 Y12.906 F600.000
G1 X17.368 Y13.113 F600.000
(Tool Controller Rapid Values are unset)
 G0 X17.311 Y13.160
(Tool Controller Rapid Values are unset)
 G0 X15.264 Y13.745
G1 X15.179 Y13.774 F600.000
G1 X14.915 Y13.821 F600.000
G1 X14.774 Y13.774 F600.000
G1 X14.642 Y13.594 F600.000
G1 X14.575 Y13.292 F600.000
G1 X14.575 Y13.292 F600.000
G1 X14.613 Y12.538 F600.000
G1 X14.689 Y12.236 F600.000
G1 X14.755 Y12.094 F600.000
G1 X15.057 Y11.755 F600.000
G1 X15.425 Y11.500 F600.000
G1 X15.830 Y11.311 F600.000
G1 X16.311 Y11.189 F600.000
G1 X16.943 Y11.151 F600.000
G1 X17.368 Y11.236 F600.000
G1 X17.500 Y11.292 F600.000
G1 X17.575 Y11.415 F600.000
G1 X17.575 Y11.415 F600.000
G1 X17.500 Y11.726 F600.000
G1 X17.368 Y11.934 F600.000
(Tool Controller Rapid Values are unset)
 G0 X17.311 Y11.981
(Tool Controller Rapid Values are unset)
 G0 X15.264 Y12.623
G1 X15.170 Y12.651 F600.000
G1 X14.915 Y12.708 F600.000
G1 X14.774 Y12.660 F600.000
G1 X14.642 Y12.481 F600.000
G1 X14.575 Y12.179 F600.000
G1 X14.575 Y12.179 F600.000
G1 X14.613 Y11.425 F600.000
G1 X14.698 Y11.132 F600.000
G1 X14.764 Y10.991 F600.000
G1 X14.858 Y10.868 F600.000
G1 X15.198 Y10.566 F600.000
G1 X15.717 Y10.274 F600.000
G1 X15.858 Y10.217 F600.000
G1 X16.340 Y10.094 F600.000
G1 X16.972 Y10.066 F600.000
G1 X17.255 Y10.113 F600.000
G1 X17.396 Y10.160 F600.000
G1 X17.519 Y10.236 F600.000
G1 X17.575 Y10.368 F600.000
G1 X17.575 Y10.368 F600.000
G1 X17.500 Y10.679 F600.000
G1 X17.368 Y10.877 F600.000
(Tool Controller Rapid Values are unset)
 G0 X17.311 Y10.934
(Tool Controller Rapid Values are unset)
 G0 X15.264 Y11.509
G1 X15.179 Y11.538 F600.000
G1 X14.915 Y11.585 F600.000
G1 X14.774 Y11.538 F600.000
G1 X14.642 Y11.358 F600.000
G1 X14.575 Y11.057 F600.000
G1 X14.575 Y11.057 F600.000
G1 X14.613 Y10.453 F600.000
G1 X14.726 Y10.009 F600.000
G1 X14.802 Y9.877 F600.000
G1 X15.245 Y9.472 F600.000
G1 X15.764 Y9.179 F600.000
G1 X15.906 Y9.123 F600.000
G1 X16.670 Y8.972 F600.000
G1 X17.094 Y8.991 F600.000
G1 X17.377 Y9.066 F600.000
G1 X17.509 Y9.123 F600.000
G1 X17.575 Y9.255 F600.000
G1 X17.575 Y9.255 F600.000
G1 X17.500 Y9.566 F600.000
G1 X17.368 Y9.774 F600.000
(Tool Controller Rapid Values are unset)
 G0 X17.311 Y9.821
(Tool Controller Rapid Values are unset)
 G0 X15.264 Y10.528
G1 X15.170 Y10.557 F600.000
G1 X14.915 Y10.623 F600.000
G1 X14.774 Y10.575 F600.000
G1 X14.642 Y10.396 F600.000
G1 X14.575 Y10.094 F600.000
G1 X14.575 Y10.094 F600.000
G1 X14.613 Y9.340 F600.000
G1 X14.679 Y9.038 F600.000
G1 X14.736 Y8.896 F600.000
G1 X14.925 Y8.651 F600.000
G1 X15.396 Y8.274 F600.000
G1 X15.792 Y8.075 F600.000
G1 X16.264 Y7.925 F600.000
G1 X16.896 Y7.877 F600.000
G1 X17.321 Y7.953 F600.000
G1 X17.453 Y8.000 F600.000
G1 X17.557 Y8.094 F600.000
G1 X17.575 Y8.377 F600.000
G1 X17.575 Y8.377 F600.000
G1 X17.500 Y8.689 F600.000
G1 X17.368 Y8.887 F600.000
(Tool Controller Rapid Values are unset)
 G0 X17.311 Y8.934
(Tool Controller Rapid Values are unset)
 G0 X15.274 Y9.453
G1 X15.179 Y9.472 F600.000
G1 X14.915 Y9.509 F600.000
G1 X14.774 Y9.453 F600.000
G1 X14.642 Y9.274 F600.000
G1 X14.575 Y8.972 F600.000
G1 X14.575 Y8.972 F600.000
G1 X14.613 Y8.217 F600.000
G1 X14.698 Y7.915 F600.000
G1 X14.764 Y7.774 F600.000
G1 X14.962 Y7.538 F600.000
G1 X15.311 Y7.255 F600.000
G1 X15.708 Y7.038 F600.000
G1 X16.330 Y6.849 F600.000
G1 X16.962 Y6.811 F600.000
G1 X17.387 Y6.896 F600.000
G1 X17.519 Y6.962 F600.000
G1 X17.575 Y7.094 F600.000
G1 X17.575 Y7.094 F600.000
G1 X17.500 Y7.406 F600.000
G1 X17.368 Y7.613 F600.000
(Tool Controller Rapid Values are unset)
 G0 X17.311 Y7.660
(Tool Controller Rapid Values are unset)
 G0 X15.264 Y8.302
G1 X15.170 Y8.330 F600.000
G1 X14.915 Y8.387 F600.000
G1 X14.774 Y8.340 F600.000
G1 X14.642 Y8.160 F600.000
G1 X14.575 Y7.858 F600.000
G1 X14.575 Y7.858 F600.000
G1 X14.594 Y7.255 F600.000
G1 X14.708 Y6.811 F600.000
G1 X14.774 Y6.670 F600.000
G1 X15.075 Y6.340 F600.000
G1 X15.566 Y6.009 F600.000
G1 X15.840 Y5.887 F600.000
G1 X16.321 Y5.764 F600.000
G1 X16.953 Y5.736 F600.000
G1 X17.377 Y5.830 F600.000
G1 X17.509 Y5.896 F600.000
G1 X17.575 Y6.019 F600.000
G1 X17.575 Y6.019 F600.000
G1 X17.500 Y6.330 F600.000
G1 X17.368 Y6.538 F600.000
(Tool Controller Rapid Values are unset)
 G0 X17.311 Y6.585
(Tool Controller Rapid Values are unset)
 G0 X15.264 Y7.189
G1 X15.179 Y7.217 F600.000
G1 X14.915 Y7.264 F600.000
G1 X14.774 Y7.217 F600.000
G1 X14.642 Y7.038 F600.000
G1 X14.575 Y6.736 F600.000
G1 X14.575 Y6.736 F600.000
G1 X14.594 Y6.132 F600.000
G1 X14.660 Y5.830 F600.000
G1 X14.783 Y5.557 F600.000
G1 X15.104 Y5.236 F600.000
G1 X15.481 Y4.981 F600.000
G1 X15.896 Y4.802 F600.000
G1 X16.660 Y4.642 F600.000
G1 X16.943 Y4.632 F600.000
G1 X17.368 Y4.726 F600.000
G1 X17.500 Y4.783 F600.000
G1 X17.575 Y4.906 F600.000
G1 X17.575 Y5.047 F600.000
G1 X17.575 Y5.047 F600.000
G1 X17.500 Y5.358 F600.000
G1 X17.368 Y5.557 F600.000
(Tool Controller Rapid Values are unset)
 G0 X17.311 Y5.604
(Tool Controller Rapid Values are unset)
 G0 X15.274 Y6.094
G1 X15.179 Y6.113 F600.000
G1 X14.915 Y6.151 F600.000
G1 X14.774 Y6.094 F600.000
G1 X14.642 Y5.915 F600.000
G1 X14.575 Y5.613 F600.000
G1 X14.575 Y5.613 F600.000
G1 X14.613 Y5.009 F600.000
G1 X14.679 Y4.708 F600.000
G1 X14.736 Y4.566 F600.000
G1 X14.925 Y4.330 F600.000
G1 X15.396 Y3.953 F600.000
G1 X15.792 Y3.755 F600.000
G1 X16.264 Y3.604 F600.000
G1 X16.896 Y3.566 F600.000
G1 X17.321 Y3.642 F600.000
G1 X17.453 Y3.689 F600.000
G1 X17.557 Y3.792 F600.000
G1 X17.575 Y3.934 F600.000
G1 X17.575 Y3.934 F600.000
G1 X17.500 Y4.245 F600.000
G1 X17.368 Y4.453 F600.000
(Tool Controller Rapid Values are unset)
 G0 X17.311 Y4.500
(Tool Controller Rapid Values are unset)
 G0 X15.264 Y5.104
G1 X15.179 Y5.132 F600.000
G1 X14.915 Y5.179 F600.000
G1 X14.774 Y5.132 F600.000
G1 X14.642 Y4.953 F600.000
G1 X14.575 Y4.651 F600.000
G1 X14.575 Y4.651 F600.000
G1 X14.613 Y3.896 F600.000
G1 X14.698 Y3.594 F600.000
G1 X14.764 Y3.453 F600.000
G1 X15.066 Y3.113 F600.000
G1 X15.708 Y2.717 F600.000
G1 X15.849 Y2.660 F600.000
G1 X16.330 Y2.538 F600.000
G1 X16.962 Y2.500 F600.000
G1 X17.387 Y2.604 F600.000
G1 X17.519 Y2.670 F600.000
G1 X17.575 Y2.802 F600.000
G1 X17.575 Y2.802 F600.000
G1 X17.500 Y3.113 F600.000
G1 X17.368 Y3.321 F600.000
(Tool Controller Rapid Values are unset)
 G0 X17.311 Y3.368
(Tool Controller Rapid Values are unset)
 G0 X15.264 Y3.991
G1 X15.179 Y4.019 F600.000
G1 X14.915 Y4.066 F600.000
G1 X14.774 Y4.019 F600.000
G1 X14.642 Y3.840 F600.000
G1 X14.575 Y3.538 F600.000
G1 X14.575 Y3.538 F600.000
G1 X14.604 Y2.934 F600.000
G1 X14.670 Y2.632 F600.000
G1 X14.792 Y2.358 F600.000
G1 X15.226 Y1.934 F600.000
G1 X15.613 Y1.708 F600.000
G1 X15.896 Y1.604 F600.000
G1 X16.377 Y1.481 F600.000
G1 X16.802 Y1.462 F600.000
G1 X17.226 Y1.547 F600.000
G1 X17.491 Y1.651 F600.000
G1 X17.575 Y1.764 F600.000
G1 X17.585 Y1.906 F600.000
G1 X17.585 Y1.906 F600.000
G1 X17.509 Y2.217 F600.000
G1 X17.377 Y2.415 F600.000
(Tool Controller Rapid Values are unset)
 G0 X17.321 Y2.472
(Tool Controller Rapid Values are unset)
 G0 X15.283 Y3.038
G1 X15.198 Y3.057 F600.000
G1 X14.896 Y3.113 F600.000
G1 X14.774 Y3.066 F600.000
G1 X14.642 Y2.877 F600.000
G1 X14.575 Y2.575 F600.000
G1 X14.575 Y2.575 F600.000
G1 X14.613 Y1.821 F600.000
G1 X14.679 Y1.519 F600.000
G1 X14.755 Y1.387 F600.000
G1 X15.085 Y1.075 F600.000
G1 X15.594 Y0.764 F600.000
G1 X16.217 Y0.566 F600.000
G1 X16.783 Y0.519 F600.000
G1 X17.208 Y0.585 F600.000
G1 X17.349 Y0.632 F600.000
G1 X17.453 Y0.726 F600.000
G1 X17.509 Y1.009 F600.000
G1 X17.509 Y1.009 F600.000
G1 X17.462 Y1.321 F600.000
G1 X17.358 Y1.528 F600.000
(Tool Controller Rapid Values are unset)
 G0 X17.292 Y1.575
(Tool Controller Rapid Values are unset)
 G0 X15.330 Y2.057
G1 X15.236 Y2.075 F600.000
G1 X14.972 Y2.113 F600.000
G1 X14.821 Y2.075 F600.000
G1 X14.660 Y1.906 F600.000
G1 X14.547 Y1.613 F600.000
G1 X14.547 Y1.613 F600.000
G1 X14.509 Y1.160 F600.000
G1 X14.528 Y0.858 F600.000
G1 X14.566 Y0.708 F600.000
G1 X14.736 Y0.453 F600.000
G1 X15.057 Y0.142 F600.000
G1 X15.415 Y-0.104 F600.000
G1 X15.858 Y-0.321 F600.000
G1 X16.425 Y-0.434 F600.000
G1 X16.849 Y-0.434 F600.000
G1 X16.991 Y-0.406 F600.000
G1 X17.123 Y-0.340 F600.000
G1 X17.226 Y-0.226 F600.000
G1 X17.311 Y0.066 F600.000
G1 X17.311 Y0.066 F600.000
G1 X17.340 Y0.377 F600.000
G1 X17.302 Y0.538 F600.000
G1 X17.264 Y0.594 F600.000
(Tool Controller Rapid Values are unset)
 G0 X17.217 Y0.651
(Tool Controller Rapid Values are unset)
 G0 X16.717 Y0.830
(Tool Controller Rapid Values are unset)
 G0 X15.264 Y1.189
G1 X15.179 Y1.217 F600.000
G1 X14.868 Y1.274 F600.000
G1 X14.726 Y1.236 F600.000
G1 X14.557 Y1.094 F600.000
G1 X14.396 Y0.830 F600.000
G1 X14.396 Y0.830 F600.000
G1 X14.292 Y0.538 F600.000
G1 X14.255 Y0.236 F600.000
G1 X14.274 Y0.085 F600.000
G1 X14.387 Y-0.179 F600.000
G1 X14.623 Y-0.538 F600.000
G1 X14.934 Y-0.840 F600.000
G1 X15.340 Y-1.123 F600.000
G1 X15.792 Y-1.311 F600.000
G1 X16.217 Y-1.396 F600.000
G1 X16.500 Y-1.406 F600.000
G1 X16.642 Y-1.349 F600.000
G1 X16.736 Y-1.236 F600.000
G1 X16.802 Y-1.094 F600.000
G1 X16.802 Y-1.094 F600.000
G1 X16.877 Y-0.755 F600.000
G1 X16.868 Y-0.594 F600.000
G1 X16.849 Y-0.519 F600.000
(Tool Controller Rapid Values are unset)
 G0 X16.811 Y-0.462
(Tool Controller Rapid Values are unset)
 G0 X16.358 Y-0.189
(Tool Controller Rapid Values are unset)
 G0 X15.028 Y0.443
G1 X14.953 Y0.472 F600.000
G1 X14.660 Y0.594 F600.000
G1 X14.500 Y0.575 F600.000
G1 X14.274 Y0.443 F600.000
G1 X14.113 Y0.255 F600.000
G1 X14.113 Y0.255 F600.000
G1 X13.925 Y-0.160 F600.000
G1 X13.840 Y-0.585 F600.000
G1 X13.858 Y-0.726 F600.000
G1 X14.028 Y-1.113 F600.000
G1 X14.377 Y-1.575 F600.000
G1 X14.858 Y-1.991 F600.000
G1 X15.377 Y-2.245 F600.000
G1 X15.802 Y-2.330 F600.000
G1 X15.943 Y-2.340 F600.000
G1 X16.085 Y-2.302 F600.000
G1 X16.198 Y-2.208 F600.000
G1 X16.368 Y-1.962 F600.000
G1 X16.368 Y-1.962 F600.000
G1 X16.443 Y-1.623 F600.000
G1 X16.415 Y-1.387 F600.000
(Tool Controller Rapid Values are unset)
 G0 X16.377 Y-1.321
(Tool Controller Rapid Values are unset)
 G0 X15.943 Y-1.019
(Tool Controller Rapid Values are unset)
 G0 X14.670 Y-0.283
G1 X14.585 Y-0.236 F600.000
G1 X14.349 Y-0.113 F600.000
G1 X14.189 Y-0.104 F600.000
G1 X13.972 Y-0.198 F600.000
G1 X13.745 Y-0.443 F600.000
G1 X13.745 Y-0.443 F600.000
G1 X13.443 Y-0.962 F600.000
G1 X13.396 Y-1.104 F600.000
G1 X13.387 Y-1.245 F600.000
G1 X13.434 Y-1.528 F600.000
G1 X13.585 Y-1.934 F600.000
G1 X13.726 Y-2.179 F600.000
G1 X14.038 Y-2.557 F600.000
G1 X14.425 Y-2.868 F600.000
G1 X14.811 Y-3.066 F600.000
G1 X15.075 Y-3.160 F600.000
G1 X15.217 Y-3.170 F600.000
G1 X15.358 Y-3.132 F600.000
G1 X15.698 Y-2.849 F600.000
G1 X15.698 Y-2.849 F600.000
G1 X15.887 Y-2.472 F600.000
G1 X15.906 Y-2.321 F600.000
(Tool Controller Rapid Values are unset)
 G0 X15.887 Y-2.245
(Tool Controller Rapid Values are unset)
 G0 X15.613 Y-1.962
(Tool Controller Rapid Values are unset)
 G0 X14.302 Y-0.953
G1 X14.236 Y-0.896 F600.000
G1 X14.009 Y-0.745 F600.000
G1 X13.849 Y-0.708 F600.000
G1 X13.613 Y-0.745 F600.000
G1 X13.330 Y-0.925 F600.000
G1 X13.330 Y-0.925 F600.000
G1 X13.000 Y-1.245 F600.000
G1 X12.840 Y-1.500 F600.000
G1 X12.792 Y-1.642 F600.000
G1 X12.792 Y-2.066 F600.000
G1 X12.915 Y-2.491 F600.000
G1 X13.038 Y-2.755 F600.000
G1 X13.283 Y-3.179 F600.000
G1 X13.575 Y-3.500 F600.000
G1 X14.047 Y-3.830 F600.000
G1 X14.179 Y-3.887 F600.000
G1 X14.321 Y-3.915 F600.000
G1 X14.462 Y-3.877 F600.000
G1 X14.689 Y-3.689 F600.000
G1 X14.689 Y-3.689 F600.000
G1 X14.887 Y-3.415 F600.000
G1 X14.943 Y-3.264 F600.000
G1 X14.953 Y-3.189 F600.000
(Tool Controller Rapid Values are unset)
 G0 X14.943 Y-3.113
(Tool Controller Rapid Values are unset)
 G0 X14.726 Y-2.792
(Tool Controller Rapid Values are unset)
 G0 X13.632 Y-1.585
G1 X13.575 Y-1.519 F600.000
G1 X13.377 Y-1.330 F600.000
G1 X13.226 Y-1.264 F600.000
G1 X13.000 Y-1.283 F600.000
G1 X12.708 Y-1.425 F600.000
G1 X12.708 Y-1.425 F600.000
G1 X12.340 Y-1.708 F600.000
G1 X12.151 Y-1.934 F600.000
G1 X12.066 Y-2.358 F600.000
G1 X12.104 Y-2.925 F600.000
G1 X12.321 Y-3.528 F600.000
G1 X12.538 Y-3.896 F600.000
G1 X12.934 Y-4.321 F600.000
G1 X13.179 Y-4.472 F600.000
G1 X13.321 Y-4.491 F600.000
G1 X13.726 Y-4.302 F600.000
G1 X13.726 Y-4.302 F600.000
G1 X13.972 Y-4.085 F600.000
G1 X14.057 Y-3.943 F600.000
G1 X14.085 Y-3.877 F600.000
(Tool Controller Rapid Values are unset)
 G0 X14.085 Y-3.802
(Tool Controller Rapid Values are unset)
 G0 X13.915 Y-3.453
(Tool Controller Rapid Values are unset)
 G0 X13.028 Y-2.113
G1 X12.981 Y-2.028 F600.000
G1 X12.811 Y-1.811 F600.000
G1 X12.679 Y-1.717 F600.000
G1 X12.443 Y-1.660 F600.000
G1 X12.132 Y-1.708 F600.000
G1 X12.132 Y-1.708 F600.000
G1 X11.849 Y-1.821 F600.000
G1 X11.594 Y-1.981 F600.000
G1 X11.491 Y-2.085 F600.000
G1 X11.321 Y-2.500 F600.000
G1 X11.236 Y-3.066 F600.000
G1 X11.236 Y-3.208 F600.000
G1 X11.330 Y-3.698 F600.000
G1 X11.575 Y-4.292 F600.000
G1 X11.811 Y-4.651 F600.000
G1 X11.906 Y-4.755 F600.000
G1 X12.038 Y-4.821 F600.000
G1 X12.179 Y-4.811 F600.000
G1 X12.745 Y-4.660 F600.000
G1 X12.745 Y-4.651 F600.000
G1 X13.028 Y-4.500 F600.000
G1 X13.142 Y-4.387 F600.000
G1 X13.179 Y-4.321 F600.000
(Tool Controller Rapid Values are unset)
 G0 X13.189 Y-4.255
(Tool Controller Rapid Values are unset)
 G0 X13.075 Y-3.887
(Tool Controller Rapid Values are unset)
 G0 X12.349 Y-2.387
G1 X12.311 Y-2.302 F600.000
G1 X12.179 Y-2.066 F600.000
G1 X12.057 Y-1.953 F600.000
G1 X11.830 Y-1.868 F600.000
G1 X11.519 Y-1.868 F600.000
G1 X11.519 Y-1.868 F600.000
G1 X10.934 Y-2.085 F600.000
G1 X10.679 Y-2.255 F600.000
G1 X10.462 Y-2.642 F600.000
G1 X10.302 Y-3.349 F600.000
G1 X10.330 Y-3.840 F600.000
G1 X10.481 Y-4.462 F600.000
G1 X10.679 Y-4.849 F600.000
G1 X10.764 Y-4.972 F600.000
G1 X10.887 Y-5.047 F600.000
G1 X11.028 Y-5.057 F600.000
G1 X11.594 Y-4.981 F600.000
G1 X11.594 Y-4.981 F600.000
G1 X11.887 Y-4.830 F600.000
G1 X12.009 Y-4.717 F600.000
G1 X12.047 Y-4.660 F600.000
(Tool Controller Rapid Values are unset)
 G0 X12.075 Y-4.585
(Tool Controller Rapid Values are unset)
 G0 X12.000 Y-4.208
(Tool Controller Rapid Values are unset)
 G0 X11.491 Y-2.679
G1 X11.462 Y-2.594 F600.000
G1 X11.358 Y-2.340 F600.000
G1 X11.255 Y-2.217 F600.000
G1 X11.047 Y-2.094 F600.000
G1 X10.736 Y-2.047 F600.000
G1 X10.736 Y-2.047 F600.000
G1 X10.283 Y-2.123 F600.000
G1 X9.991 Y-2.236 F600.000
G1 X9.868 Y-2.330 F600.000
G1 X9.613 Y-2.698 F600.000
G1 X9.443 Y-3.113 F600.000
G1 X9.368 Y-3.396 F600.000
G1 X9.321 Y-4.170 F600.000
G1 X9.349 Y-4.453 F600.000
G1 X9.491 Y-4.868 F600.000
G1 X9.557 Y-5.000 F600.000
G1 X9.679 Y-5.075 F600.000
G1 X9.962 Y-5.075 F600.000
G1 X9.962 Y-5.075 F600.000
G1 X10.274 Y-5.009 F600.000
G1 X10.415 Y-4.934 F600.000
G1 X10.472 Y-4.877 F600.000
(Tool Controller Rapid Values are unset)
 G0 X10.509 Y-4.821
(Tool Controller Rapid Values are unset)
 G0 X10.585 Y-4.283
(Tool Controller Rapid Values are unset)
 G0 X10.651 Y-2.774
G1 X10.660 Y-2.679 F600.000
G1 X10.651 Y-2.406 F600.000
G1 X10.585 Y-2.274 F600.000
G1 X10.396 Y-2.132 F600.000
G1 X10.094 Y-2.066 F600.000
G1 X10.094 Y-2.066 F600.000
G1 X9.491 Y-2.104 F600.000
G1 X9.198 Y-2.189 F600.000
G1 X9.057 Y-2.255 F600.000
G1 X8.943 Y-2.349 F600.000
G1 X8.594 Y-2.821 F600.000
G1 X8.358 Y-3.368 F600.000
G1 X8.274 Y-3.858 F600.000
G1 X8.283 Y-4.491 F600.000
G1 X8.396 Y-4.906 F600.000
G1 X8.481 Y-5.028 F600.000
G1 X8.613 Y-5.075 F600.000
G1 X8.613 Y-5.075 F600.000
G1 X8.925 Y-5.009 F600.000
G1 X9.123 Y-4.877 F600.000
(Tool Controller Rapid Values are unset)
 G0 X9.170 Y-4.821
(Tool Controller Rapid Values are unset)
 G0 X9.632 Y-2.764
G1 X9.651 Y-2.670 F600.000
G1 X9.679 Y-2.406 F600.000
G1 X9.632 Y-2.264 F600.000
G1 X9.443 Y-2.132 F600.000
G1 X9.142 Y-2.066 F600.000
G1 X9.142 Y-2.066 F600.000
G1 X8.538 Y-2.104 F600.000
G1 X8.236 Y-2.179 F600.000
G1 X8.094 Y-2.245 F600.000
G1 X7.764 Y-2.557 F600.000
G1 X7.509 Y-2.934 F600.000
G1 X7.340 Y-3.349 F600.000
G1 X7.226 Y-3.830 F600.000
G1 X7.198 Y-4.321 F600.000
G1 X7.226 Y-4.604 F600.000
G1 X7.311 Y-4.887 F600.000
G1 X7.377 Y-5.019 F600.000
G1 X7.509 Y-5.075 F600.000
G1 X7.509 Y-5.075 F600.000
G1 X7.821 Y-5.009 F600.000
G1 X8.019 Y-4.877 F600.000
(Tool Controller Rapid Values are unset)
 G0 X8.075 Y-4.821
(Tool Controller Rapid Values are unset)
 G0 X8.642 Y-2.774
G1 X8.660 Y-2.689 F600.000
G1 X8.717 Y-2.387 F600.000
G1 X8.670 Y-2.264 F600.000
G1 X8.481 Y-2.132 F600.000
G1 X8.179 Y-2.066 F600.000
G1 X8.179 Y-2.066 F600.000
G1 X7.575 Y-2.085 F600.000
G1 X7.274 Y-2.151 F600.000
G1 X7.000 Y-2.274 F600.000
G1 X6.689 Y-2.594 F600.000
G1 X6.321 Y-3.226 F600.000
G1 X6.160 Y-3.849 F600.000
G1 X6.142 Y-4.481 F600.000
G1 X6.245 Y-4.906 F600.000
G1 X6.330 Y-5.028 F600.000
G1 X6.462 Y-5.075 F600.000
G1 X6.462 Y-5.075 F600.000
G1 X6.774 Y-5.009 F600.000
G1 X6.972 Y-4.877 F600.000
(Tool Controller Rapid Values are unset)
 G0 X7.019 Y-4.821
(Tool Controller Rapid Values are unset)
 G0 X7.538 Y-2.764
G1 X7.557 Y-2.670 F600.000
G1 X7.594 Y-2.406 F600.000
G1 X7.538 Y-2.264 F600.000
G1 X7.358 Y-2.132 F600.000
G1 X7.057 Y-2.066 F600.000
G1 X7.057 Y-2.066 F600.000
G1 X6.453 Y-2.104 F600.000
G1 X6.151 Y-2.179 F600.000
G1 X5.887 Y-2.330 F600.000
G1 X5.585 Y-2.660 F600.000
G1 X5.283 Y-3.179 F600.000
G1 X5.226 Y-3.321 F600.000
G1 X5.104 Y-3.802 F600.000
G1 X5.075 Y-4.434 F600.000
G1 X5.123 Y-4.717 F600.000
G1 X5.226 Y-4.991 F600.000
G1 X5.340 Y-5.075 F600.000
G1 X5.481 Y-5.075 F600.000
G1 X5.481 Y-5.075 F600.000
G1 X5.792 Y-5.009 F600.000
G1 X5.991 Y-4.877 F600.000
(Tool Controller Rapid Values are unset)
 G0 X6.038 Y-4.821
(Tool Controller Rapid Values are unset)
 G0 X6.575 Y-2.764
G1 X6.594 Y-2.670 F600.000
G1 X6.632 Y-2.406 F600.000
G1 X6.575 Y-2.264 F600.000
G1 X6.396 Y-2.132 F600.000
G1 X6.094 Y-2.066 F600.000
G1 X6.094 Y-2.066 F600.000
G1 X5.340 Y-2.104 F600.000
G1 X5.047 Y-2.189 F600.000
G1 X4.915 Y-2.255 F600.000
G1 X4.594 Y-2.557 F600.000
G1 X4.264 Y-3.057 F600.000
G1 X4.142 Y-3.321 F600.000
G1 X4.028 Y-3.802 F600.000
G1 X3.991 Y-4.434 F600.000
G1 X4.085 Y-4.858 F600.000
G1 X4.142 Y-4.991 F600.000
G1 X4.255 Y-5.075 F600.000
G1 X4.396 Y-5.075 F600.000
G1 X4.396 Y-5.075 F600.000
G1 X4.708 Y-5.009 F600.000
G1 X4.906 Y-4.877 F600.000
(Tool Controller Rapid Values are unset)
 G0 X4.953 Y-4.821
(Tool Controller Rapid Values are unset)
 G0 X5.462 Y-2.764
G1 X5.481 Y-2.670 F600.000
G1 X5.519 Y-2.406 F600.000
G1 X5.462 Y-2.264 F600.000
G1 X5.283 Y-2.132 F600.000
G1 X4.981 Y-2.066 F600.000
G1 X4.981 Y-2.066 F600.000
G1 X4.377 Y-2.094 F600.000
G1 X4.075 Y-2.160 F600.000
G1 X3.802 Y-2.292 F600.000
G1 X3.396 Y-2.736 F600.000
G1 X3.104 Y-3.245 F600.000
G1 X3.047 Y-3.387 F600.000
G1 X2.934 Y-3.868 F600.000
G1 X2.915 Y-4.500 F600.000
G1 X2.972 Y-4.783 F600.000
G1 X3.019 Y-4.915 F600.000
G1 X3.094 Y-5.038 F600.000
G1 X3.236 Y-5.075 F600.000
G1 X3.236 Y-5.075 F600.000
G1 X3.547 Y-5.009 F600.000
G1 X3.755 Y-4.877 F600.000
(Tool Controller Rapid Values are unset)
 G0 X3.802 Y-4.821
(Tool Controller Rapid Values are unset)
 G0 X4.462 Y-2.755
G1 X4.491 Y-2.660 F600.000
G1 X4.547 Y-2.406 F600.000
G1 X4.500 Y-2.264 F600.000
G1 X4.321 Y-2.132 F600.000
G1 X4.019 Y-2.066 F600.000
G1 X4.019 Y-2.066 F600.000
G1 X3.264 Y-2.104 F600.000
G1 X2.962 Y-2.170 F600.000
G1 X2.689 Y-2.302 F600.000
G1 X2.377 Y-2.623 F600.000
G1 X2.075 Y-3.142 F600.000
G1 X1.887 Y-3.764 F600.000
G1 X1.849 Y-4.255 F600.000
G1 X1.934 Y-4.821 F600.000
G1 X1.981 Y-4.953 F600.000
G1 X2.075 Y-5.066 F600.000
G1 X2.358 Y-5.075 F600.000
G1 X2.358 Y-5.075 F600.000
G1 X2.670 Y-5.009 F600.000
G1 X2.868 Y-4.877 F600.000
(Tool Controller Rapid Values are unset)
 G0 X2.915 Y-4.821
(Tool Controller Rapid Values are unset)
 G0 X3.387 Y-2.764
G1 X3.406 Y-2.670 F600.000
G1 X3.434 Y-2.406 F600.000
G1 X3.387 Y-2.264 F600.000
G1 X3.198 Y-2.132 F600.000
G1 X2.896 Y-2.066 F600.000
G1 X2.896 Y-2.066 F600.000
G1 X2.142 Y-2.104 F600.000
G1 X1.849 Y-2.189 F600.000
G1 X1.708 Y-2.255 F600.000
G1 X1.491 Y-2.472 F600.000
G1 X1.236 Y-2.849 F600.000
G1 X1.066 Y-3.264 F600.000
G1 X0.915 Y-3.736 F600.000
G1 X0.868 Y-4.160 F600.000
G1 X0.934 Y-4.726 F600.000
G1 X0.981 Y-4.868 F600.000
G1 X1.075 Y-4.981 F600.000
G1 X1.783 Y-5.075 F600.000
G1 X1.783 Y-5.075 F600.000
G1 X2.094 Y-5.009 F600.000
G1 X2.236 Y-4.934 F600.000
G1 X2.292 Y-4.877 F600.000
(Tool Controller Rapid Values are unset)
 G0 X2.330 Y-4.821
(Tool Controller Rapid Values are unset)
 G0 X2.368 Y-4.302
(Tool Controller Rapid Values are unset)
 G0 X2.340 Y-2.840
G1 X2.340 Y-2.745 F600.000
G1 X2.321 Y-2.472 F600.000
G1 X2.255 Y-2.321 F600.000
G1 X2.075 Y-2.160 F600.000
G1 X1.783 Y-2.057 F600.000
G1 X1.783 Y-2.057 F600.000
G1 X1.330 Y-2.019 F600.000
G1 X1.179 Y-2.028 F600.000
G1 X1.028 Y-2.075 F600.000
G1 X0.575 Y-2.462 F600.000
G1 X0.236 Y-2.943 F600.000
G1 X0.038 Y-3.396 F600.000
G1 X-0.075 Y-3.877 F600.000
G1 X-0.085 Y-4.302 F600.000
G1 X-0.038 Y-4.585 F600.000
G1 X0.038 Y-4.708 F600.000
G1 X1.019 Y-4.981 F600.000
G1 X1.019 Y-4.981 F600.000
G1 X1.415 Y-4.953 F600.000
G1 X1.547 Y-4.887 F600.000
(Tool Controller Rapid Values are unset)
 G0 X1.585 Y-4.830
(Tool Controller Rapid Values are unset)
 G0 X1.651 Y-4.453
(Tool Controller Rapid Values are unset)
 G0 X1.660 Y-2.764
G1 X1.670 Y-2.670 F600.000
G1 X1.660 Y-2.396 F600.000
G1 X1.604 Y-2.236 F600.000
G1 X1.443 Y-2.057 F600.000
G1 X1.160 Y-1.915 F600.000
G1 X1.160 Y-1.915 F600.000
G1 X0.708 Y-1.830 F600.000
G1 X0.406 Y-1.849 F600.000
G1 X0.255 Y-1.896 F600.000
G1 X-0.226 Y-2.226 F600.000
G1 X-0.604 Y-2.651 F600.000
G1 X-0.849 Y-3.075 F600.000
G1 X-1.009 Y-3.538 F600.000
G1 X-1.057 Y-4.104 F600.000
G1 X-1.038 Y-4.245 F600.000
G1 X-0.981 Y-4.377 F600.000
G1 X-0.868 Y-4.472 F600.000
G1 X-0.113 Y-4.679 F600.000
G1 X-0.113 Y-4.679 F600.000
G1 X0.198 Y-4.689 F600.000
G1 X0.349 Y-4.651 F600.000
G1 X0.415 Y-4.623 F600.000
(Tool Controller Rapid Values are unset)
 G0 X0.462 Y-4.566
(Tool Controller Rapid Values are unset)
 G0 X0.566 Y-4.198
(Tool Controller Rapid Values are unset)
 G0 X0.802 Y-2.547
G1 X0.821 Y-2.453 F600.000
G1 X0.840 Y-2.189 F600.000
G1 X0.792 Y-2.028 F600.000
G1 X0.689 Y-1.896 F600.000
G1 X0.387 Y-1.698 F600.000
G1 X0.387 Y-1.698 F600.000
G1 X-0.198 Y-1.566 F600.000
G1 X-0.340 Y-1.566 F600.000
G1 X-0.745 Y-1.726 F600.000
G1 X-0.991 Y-1.877 F600.000
G1 X-1.321 Y-2.170 F600.000
G1 X-1.642 Y-2.538 F600.000
G1 X-1.868 Y-2.972 F600.000
G1 X-1.991 Y-3.538 F600.000
G1 X-2.000 Y-3.821 F600.000
G1 X-1.953 Y-3.962 F600.000
G1 X-1.877 Y-4.085 F600.000
G1 X-1.774 Y-4.189 F600.000
G1 X-1.189 Y-4.349 F600.000
G1 X-1.047 Y-4.406 F600.000
G1 X-1.047 Y-4.406 F600.000
G1 X-0.708 Y-4.453 F600.000
G1 X-0.547 Y-4.434 F600.000
G1 X-0.481 Y-4.406 F600.000
(Tool Controller Rapid Values are unset)
 G0 X-0.425 Y-4.368
(Tool Controller Rapid Values are unset)
 G0 X-0.283 Y-4.000
(Tool Controller Rapid Values are unset)
 G0 X0.066 Y-2.434
G1 X0.085 Y-2.340 F600.000
G1 X0.142 Y-1.981 F600.000
G1 X0.075 Y-1.745 F600.000
G1 X-0.179 Y-1.434 F600.000
G1 X-0.179 Y-1.434 F600.000
G1 X-0.425 Y-1.264 F600.000
G1 X-0.698 Y-1.151 F600.000
G1 X-0.840 Y-1.123 F600.000
G1 X-1.264 Y-1.208 F600.000
G1 X-1.660 Y-1.377 F600.000
G1 X-1.906 Y-1.538 F600.000
G1 X-2.283 Y-1.849 F600.000
G1 X-2.660 Y-2.358 F600.000
G1 X-2.830 Y-2.755 F600.000
G1 X-2.868 Y-2.896 F600.000
G1 X-2.858 Y-3.038 F600.000
G1 X-2.792 Y-3.170 F600.000
G1 X-2.066 Y-3.896 F600.000
G1 X-2.066 Y-3.896 F600.000
G1 X-1.774 Y-4.075 F600.000
G1 X-1.623 Y-4.113 F600.000
G1 X-1.547 Y-4.113 F600.000
(Tool Controller Rapid Values are unset)
 G0 X-1.491 Y-4.085
(Tool Controller Rapid Values are unset)
 G0 X-1.283 Y-3.764
(Tool Controller Rapid Values are unset)
 G0 X-0.557 Y-2.038
G1 X-0.519 Y-1.943 F600.000
G1 X-0.415 Y-1.594 F600.000
G1 X-0.443 Y-1.349 F600.000
G1 X-0.660 Y-1.009 F600.000
G1 X-0.660 Y-1.009 F600.000
G1 X-1.038 Y-0.755 F600.000
G1 X-1.311 Y-0.642 F600.000
G1 X-1.877 Y-0.679 F600.000
G1 X-2.292 Y-0.821 F600.000
G1 X-2.547 Y-0.953 F600.000
G1 X-2.962 Y-1.226 F600.000
G1 X-3.340 Y-1.660 F600.000
G1 X-3.557 Y-2.038 F600.000
G1 X-3.604 Y-2.170 F600.000
G1 X-3.604 Y-2.311 F600.000
G1 X-2.896 Y-3.066 F600.000
G1 X-2.896 Y-3.066 F600.000
G1 X-2.604 Y-3.245 F600.000
G1 X-2.453 Y-3.283 F600.000
G1 X-2.377 Y-3.283 F600.000
(Tool Controller Rapid Values are unset)
 G0 X-2.311 Y-3.264
(Tool Controller Rapid Values are unset)
 G0 X-2.057 Y-2.972
(Tool Controller Rapid Values are unset)
 G0 X-1.142 Y-1.566
G1 X-1.094 Y-1.481 F600.000
G1 X-0.962 Y-1.245 F600.000
G1 X-0.925 Y-1.085 F600.000
G1 X-0.972 Y-0.849 F600.000
G1 X-1.142 Y-0.575 F600.000
G1 X-1.142 Y-0.575 F600.000
G1 X-1.575 Y-0.170 F600.000
G1 X-1.708 Y-0.094 F600.000
G1 X-1.849 Y-0.057 F600.000
G1 X-2.274 Y-0.047 F600.000
G1 X-2.840 Y-0.170 F600.000
G1 X-3.302 Y-0.349 F600.000
G1 X-3.708 Y-0.632 F600.000
G1 X-4.009 Y-0.953 F600.000
G1 X-4.170 Y-1.198 F600.000
G1 X-4.208 Y-1.340 F600.000
G1 X-4.189 Y-1.481 F600.000
G1 X-3.613 Y-2.340 F600.000
G1 X-3.613 Y-2.340 F600.000
G1 X-3.274 Y-2.585 F600.000
G1 X-3.123 Y-2.623 F600.000
(Tool Controller Rapid Values are unset)
 G0 X-3.057 Y-2.613
(Tool Controller Rapid Values are unset)
 G0 X-2.774 Y-2.358
(Tool Controller Rapid Values are unset)
 G0 X-1.698 Y-1.057
G1 X-1.642 Y-0.991 F600.000
G1 X-1.443 Y-0.689 F600.000
G1 X-1.406 Y-0.453 F600.000
G1 X-1.509 Y-0.066 F600.000
G1 X-1.509 Y-0.066 F600.000
G1 X-1.736 Y0.311 F600.000
G1 X-1.943 Y0.509 F600.000
G1 X-2.358 Y0.632 F600.000
G1 X-2.783 Y0.660 F600.000
G1 X-3.208 Y0.623 F600.000
G1 X-3.689 Y0.491 F600.000
G1 X-4.198 Y0.189 F600.000
G1 X-4.604 Y-0.226 F600.000
G1 X-4.623 Y-0.368 F600.000
G1 X-4.292 Y-1.217 F600.000
G1 X-4.292 Y-1.217 F600.000
G1 X-4.104 Y-1.481 F600.000
G1 X-3.972 Y-1.585 F600.000
G1 X-3.906 Y-1.613 F600.000
(Tool Controller Rapid Values are unset)
 G0 X-3.840 Y-1.623
(Tool Controller Rapid Values are unset)
 G0 X-3.500 Y-1.443
(Tool Controller Rapid Values are unset)
 G0 X-2.123 Y-0.434
G1 X-2.047 Y-0.377 F600.000
G1 X-1.840 Y-0.198 F600.000
G1 X-1.745 Y-0.057 F600.000
G1 X-1.698 Y0.179 F600.000
G1 X-1.755 Y0.519 F600.000
G1 X-1.755 Y0.519 F600.000
G1 X-1.934 Y0.906 F600.000
G1 X-2.113 Y1.142 F600.000
G1 X-2.217 Y1.236 F600.000
G1 X-2.764 Y1.415 F600.000
G1 X-3.189 Y1.462 F600.000
G1 X-3.821 Y1.396 F600.000
G1 X-4.292 Y1.236 F600.000
G1 X-4.557 Y1.085 F600.000
G1 X-4.792 Y0.896 F600.000
G1 X-4.896 Y0.783 F600.000
G1 X-4.943 Y0.642 F600.000
G1 X-4.840 Y0.189 F600.000
G1 X-4.670 Y-0.245 F600.000
G1 X-4.670 Y-0.245 F600.000
G1 X-4.481 Y-0.509 F600.000
G1 X-4.349 Y-0.613 F600.000
G1 X-4.283 Y-0.642 F600.000
(Tool Controller Rapid Values are unset)
 G0 X-4.217 Y-0.651
(Tool Controller Rapid Values are unset)
 G0 X-3.858 Y-0.491
(Tool Controller Rapid Values are unset)
 G0 X-2.557 Y0.349
G1 X-2.491 Y0.387 F600.000
G1 X-2.179 Y0.642 F600.000
G1 X-2.028 Y0.934 F600.000
G1 X-2.000 Y1.274 F600.000
G1 X-2.000 Y1.274 F600.000
G1 X-2.123 Y1.689 F600.000
G1 X-2.189 Y1.811 F600.000
G1 X-2.283 Y1.925 F600.000
G1 X-2.660 Y2.151 F600.000
G1 X-3.358 Y2.311 F600.000
G1 X-3.849 Y2.340 F600.000
G1 X-4.340 Y2.245 F600.000
G1 X-4.887 Y1.991 F600.000
G1 X-5.000 Y1.896 F600.000
G1 X-5.057 Y1.755 F600.000
G1 X-5.019 Y1.000 F600.000
G1 X-4.991 Y0.849 F600.000
G1 X-4.991 Y0.849 F600.000
G1 X-4.849 Y0.528 F600.000
G1 X-4.736 Y0.396 F600.000
G1 X-4.679 Y0.358 F600.000
(Tool Controller Rapid Values are unset)
 G0 X-4.613 Y0.340
(Tool Controller Rapid Values are unset)
 G0 X-4.236 Y0.434
(Tool Controller Rapid Values are unset)
 G0 X-2.708 Y1.075
G1 X-2.632 Y1.104 F600.000
G1 X-2.340 Y1.245 F600.000
G1 X-2.179 Y1.425 F600.000
