(Exported by FreeCAD)
(Post Processor: mach3_mach4_post)
(Output Time:2022-07-31 09:37:27.237841)
(begin preamble)
G17 G54 G40 G49 G80 G90
G21
(begin operation: Fixture)
(machine: mach3_4, mm/min)
G54
(finish operation: Fixture)
(begin operation: TC: 4mmEndmill)
(machine: mach3_4, mm/min)
(TC: 4mmEndmill)
M5
M6 T12 
G43 H12
M3 S0
(finish operation: TC: 4mmEndmill)
(begin operation: Profile)
(machine: mach3_4, mm/min)
(Profile)
(Compensated Tool Path. Diameter: 4.0)
G0 Z11.000
G0 X16.075 Y16.075
G0 Z9.000
G1 X16.075 Y16.075 Z5.900 F20.000
G2 X15.328 Y13.516 Z5.900 I-1.075 J-1.075 F400.000
G2 X13.516 Y14.672 Z5.900 I-0.328 J1.484 F400.000
G2 X14.672 Y16.484 Z5.900 I1.484 J0.328 F400.000
G2 X16.075 Y16.075 Z5.900 I0.328 J-1.484 F400.000
G1 X16.075 Y16.075 Z5.500 F20.000
G2 X15.328 Y13.516 Z5.500 I-1.075 J-1.075 F400.000
G2 X13.516 Y14.672 Z5.500 I-0.328 J1.484 F400.000
G2 X14.672 Y16.484 Z5.500 I1.484 J0.328 F400.000
G2 X16.075 Y16.075 Z5.500 I0.328 J-1.484 F400.000
G1 X16.075 Y16.075 Z5.100 F20.000
G2 X15.328 Y13.516 Z5.100 I-1.075 J-1.075 F400.000
G2 X13.516 Y14.672 Z5.100 I-0.328 J1.484 F400.000
G2 X14.672 Y16.484 Z5.100 I1.484 J0.328 F400.000
G2 X16.075 Y16.075 Z5.100 I0.328 J-1.484 F400.000
G1 X16.075 Y16.075 Z4.700 F20.000
G2 X15.328 Y13.516 Z4.700 I-1.075 J-1.075 F400.000
G2 X13.516 Y14.672 Z4.700 I-0.328 J1.484 F400.000
G2 X14.672 Y16.484 Z4.700 I1.484 J0.328 F400.000
G2 X16.075 Y16.075 Z4.700 I0.328 J-1.484 F400.000
G1 X16.075 Y16.075 Z4.300 F20.000
G2 X15.328 Y13.516 Z4.300 I-1.075 J-1.075 F400.000
G2 X13.516 Y14.672 Z4.300 I-0.328 J1.484 F400.000
G2 X14.672 Y16.484 Z4.300 I1.484 J0.328 F400.000
G2 X16.075 Y16.075 Z4.300 I0.328 J-1.484 F400.000
G1 X16.075 Y16.075 Z3.900 F20.000
G2 X15.328 Y13.516 Z3.900 I-1.075 J-1.075 F400.000
G2 X13.516 Y14.672 Z3.900 I-0.328 J1.484 F400.000
G2 X14.672 Y16.484 Z3.900 I1.484 J0.328 F400.000
G2 X16.075 Y16.075 Z3.900 I0.328 J-1.484 F400.000
G1 X16.075 Y16.075 Z3.500 F20.000
G2 X15.328 Y13.516 Z3.500 I-1.075 J-1.075 F400.000
G2 X13.516 Y14.672 Z3.500 I-0.328 J1.484 F400.000
G2 X14.672 Y16.484 Z3.500 I1.484 J0.328 F400.000
G2 X16.075 Y16.075 Z3.500 I0.328 J-1.484 F400.000
G1 X16.075 Y16.075 Z3.100 F20.000
G2 X15.328 Y13.516 Z3.100 I-1.075 J-1.075 F400.000
G2 X13.516 Y14.672 Z3.100 I-0.328 J1.484 F400.000
G2 X14.672 Y16.484 Z3.100 I1.484 J0.328 F400.000
G2 X16.075 Y16.075 Z3.100 I0.328 J-1.484 F400.000
G1 X16.075 Y16.075 Z2.700 F20.000
G2 X15.328 Y13.516 Z2.700 I-1.075 J-1.075 F400.000
G2 X13.516 Y14.672 Z2.700 I-0.328 J1.484 F400.000
G2 X14.672 Y16.484 Z2.700 I1.484 J0.328 F400.000
G2 X16.075 Y16.075 Z2.700 I0.328 J-1.484 F400.000
G1 X16.075 Y16.075 Z2.300 F20.000
G2 X15.328 Y13.516 Z2.300 I-1.075 J-1.075 F400.000
G2 X13.516 Y14.672 Z2.300 I-0.328 J1.484 F400.000
G2 X14.672 Y16.484 Z2.300 I1.484 J0.328 F400.000
G2 X16.075 Y16.075 Z2.300 I0.328 J-1.484 F400.000
G1 X16.075 Y16.075 Z1.900 F20.000
G2 X15.328 Y13.516 Z1.900 I-1.075 J-1.075 F400.000
G2 X13.516 Y14.672 Z1.900 I-0.328 J1.484 F400.000
G2 X14.672 Y16.484 Z1.900 I1.484 J0.328 F400.000
G2 X16.075 Y16.075 Z1.900 I0.328 J-1.484 F400.000
G1 X16.075 Y16.075 Z1.500 F20.000
G2 X15.328 Y13.516 Z1.500 I-1.075 J-1.075 F400.000
G2 X13.516 Y14.672 Z1.500 I-0.328 J1.484 F400.000
G2 X14.672 Y16.484 Z1.500 I1.484 J0.328 F400.000
G2 X16.075 Y16.075 Z1.500 I0.328 J-1.484 F400.000
G1 X16.075 Y16.075 Z1.100 F20.000
G2 X15.328 Y13.516 Z1.100 I-1.075 J-1.075 F400.000
G2 X13.516 Y14.672 Z1.100 I-0.328 J1.484 F400.000
G2 X14.672 Y16.484 Z1.100 I1.484 J0.328 F400.000
G2 X16.075 Y16.075 Z1.100 I0.328 J-1.484 F400.000
G1 X16.075 Y16.075 Z0.700 F20.000
G2 X15.328 Y13.516 Z0.700 I-1.075 J-1.075 F400.000
G2 X13.516 Y14.672 Z0.700 I-0.328 J1.484 F400.000
G2 X14.672 Y16.484 Z0.700 I1.484 J0.328 F400.000
G2 X16.075 Y16.075 Z0.700 I0.328 J-1.484 F400.000
G1 X16.075 Y16.075 Z0.300 F20.000
G2 X15.328 Y13.516 Z0.300 I-1.075 J-1.075 F400.000
G2 X13.516 Y14.672 Z0.300 I-0.328 J1.484 F400.000
G2 X14.672 Y16.484 Z0.300 I1.484 J0.328 F400.000
G2 X16.075 Y16.075 Z0.300 I0.328 J-1.484 F400.000
G1 X16.075 Y16.075 Z-0.100 F20.000
G2 X15.328 Y13.516 Z-0.100 I-1.075 J-1.075 F400.000
G2 X13.516 Y14.672 Z-0.100 I-0.328 J1.484 F400.000
G2 X14.672 Y16.484 Z-0.100 I1.484 J0.328 F400.000
G2 X16.075 Y16.075 Z-0.100 I0.328 J-1.484 F400.000
G1 X16.075 Y16.075 Z-0.400 F20.000
G2 X15.328 Y13.516 Z-0.400 I-1.075 J-1.075 F400.000
G2 X13.516 Y14.672 Z-0.400 I-0.328 J1.484 F400.000
G2 X14.672 Y16.484 Z-0.400 I1.484 J0.328 F400.000
G2 X16.075 Y16.075 Z-0.400 I0.328 J-1.484 F400.000
G0 Z11.000
G0 Z11.000
G0 X16.075 Y16.075
G0 X48.481 Y15.048
G0 X48.481 Y15.048 Z9.000
G1 X48.481 Y15.048 Z5.900 F20.000
G2 X49.672 Y16.484 Z5.900 I1.519 J-0.048 F400.000
G2 X51.484 Y15.328 Z5.900 I0.328 J-1.484 F400.000
G2 X50.328 Y13.516 Z5.900 I-1.484 J-0.328 F400.000
G2 X48.481 Y15.048 Z5.900 I-0.328 J1.484 F400.000
G1 X48.481 Y15.048 Z5.500 F20.000
G2 X49.672 Y16.484 Z5.500 I1.519 J-0.048 F400.000
G2 X51.484 Y15.328 Z5.500 I0.328 J-1.484 F400.000
G2 X50.328 Y13.516 Z5.500 I-1.484 J-0.328 F400.000
G2 X48.481 Y15.048 Z5.500 I-0.328 J1.484 F400.000
G1 X48.481 Y15.048 Z5.100 F20.000
G2 X49.672 Y16.484 Z5.100 I1.519 J-0.048 F400.000
G2 X51.484 Y15.328 Z5.100 I0.328 J-1.484 F400.000
G2 X50.328 Y13.516 Z5.100 I-1.484 J-0.328 F400.000
G2 X48.481 Y15.048 Z5.100 I-0.328 J1.484 F400.000
G1 X48.481 Y15.048 Z4.700 F20.000
G2 X49.672 Y16.484 Z4.700 I1.519 J-0.048 F400.000
G2 X51.484 Y15.328 Z4.700 I0.328 J-1.484 F400.000
G2 X50.328 Y13.516 Z4.700 I-1.484 J-0.328 F400.000
G2 X48.481 Y15.048 Z4.700 I-0.328 J1.484 F400.000
G1 X48.481 Y15.048 Z4.300 F20.000
G2 X49.672 Y16.484 Z4.300 I1.519 J-0.048 F400.000
G2 X51.484 Y15.328 Z4.300 I0.328 J-1.484 F400.000
G2 X50.328 Y13.516 Z4.300 I-1.484 J-0.328 F400.000
G2 X48.481 Y15.048 Z4.300 I-0.328 J1.484 F400.000
G1 X48.481 Y15.048 Z3.900 F20.000
G2 X49.672 Y16.484 Z3.900 I1.519 J-0.048 F400.000
G2 X51.484 Y15.328 Z3.900 I0.328 J-1.484 F400.000
G2 X50.328 Y13.516 Z3.900 I-1.484 J-0.328 F400.000
G2 X48.481 Y15.048 Z3.900 I-0.328 J1.484 F400.000
G1 X48.481 Y15.048 Z3.500 F20.000
G2 X49.672 Y16.484 Z3.500 I1.519 J-0.048 F400.000
G2 X51.484 Y15.328 Z3.500 I0.328 J-1.484 F400.000
G2 X50.328 Y13.516 Z3.500 I-1.484 J-0.328 F400.000
G2 X48.481 Y15.048 Z3.500 I-0.328 J1.484 F400.000
G1 X48.481 Y15.048 Z3.100 F20.000
G2 X49.672 Y16.484 Z3.100 I1.519 J-0.048 F400.000
G2 X51.484 Y15.328 Z3.100 I0.328 J-1.484 F400.000
G2 X50.328 Y13.516 Z3.100 I-1.484 J-0.328 F400.000
G2 X48.481 Y15.048 Z3.100 I-0.328 J1.484 F400.000
G1 X48.481 Y15.048 Z2.700 F20.000
G2 X49.672 Y16.484 Z2.700 I1.519 J-0.048 F400.000
G2 X51.484 Y15.328 Z2.700 I0.328 J-1.484 F400.000
G2 X50.328 Y13.516 Z2.700 I-1.484 J-0.328 F400.000
G2 X48.481 Y15.048 Z2.700 I-0.328 J1.484 F400.000
G1 X48.481 Y15.048 Z2.300 F20.000
G2 X49.672 Y16.484 Z2.300 I1.519 J-0.048 F400.000
G2 X51.484 Y15.328 Z2.300 I0.328 J-1.484 F400.000
G2 X50.328 Y13.516 Z2.300 I-1.484 J-0.328 F400.000
G2 X48.481 Y15.048 Z2.300 I-0.328 J1.484 F400.000
G1 X48.481 Y15.048 Z1.900 F20.000
G2 X49.672 Y16.484 Z1.900 I1.519 J-0.048 F400.000
G2 X51.484 Y15.328 Z1.900 I0.328 J-1.484 F400.000
G2 X50.328 Y13.516 Z1.900 I-1.484 J-0.328 F400.000
G2 X48.481 Y15.048 Z1.900 I-0.328 J1.484 F400.000
G1 X48.481 Y15.048 Z1.500 F20.000
G2 X49.672 Y16.484 Z1.500 I1.519 J-0.048 F400.000
G2 X51.484 Y15.328 Z1.500 I0.328 J-1.484 F400.000
G2 X50.328 Y13.516 Z1.500 I-1.484 J-0.328 F400.000
G2 X48.481 Y15.048 Z1.500 I-0.328 J1.484 F400.000
G1 X48.481 Y15.048 Z1.100 F20.000
G2 X49.672 Y16.484 Z1.100 I1.519 J-0.048 F400.000
G2 X51.484 Y15.328 Z1.100 I0.328 J-1.484 F400.000
G2 X50.328 Y13.516 Z1.100 I-1.484 J-0.328 F400.000
G2 X48.481 Y15.048 Z1.100 I-0.328 J1.484 F400.000
G1 X48.481 Y15.048 Z0.700 F20.000
G2 X49.672 Y16.484 Z0.700 I1.519 J-0.048 F400.000
G2 X51.484 Y15.328 Z0.700 I0.328 J-1.484 F400.000
G2 X50.328 Y13.516 Z0.700 I-1.484 J-0.328 F400.000
G2 X48.481 Y15.048 Z0.700 I-0.328 J1.484 F400.000
G1 X48.481 Y15.048 Z0.300 F20.000
G2 X49.672 Y16.484 Z0.300 I1.519 J-0.048 F400.000
G2 X51.484 Y15.328 Z0.300 I0.328 J-1.484 F400.000
G2 X50.328 Y13.516 Z0.300 I-1.484 J-0.328 F400.000
G2 X48.481 Y15.048 Z0.300 I-0.328 J1.484 F400.000
G1 X48.481 Y15.048 Z-0.100 F20.000
G2 X49.672 Y16.484 Z-0.100 I1.519 J-0.048 F400.000
G2 X51.484 Y15.328 Z-0.100 I0.328 J-1.484 F400.000
G2 X50.328 Y13.516 Z-0.100 I-1.484 J-0.328 F400.000
G2 X48.481 Y15.048 Z-0.100 I-0.328 J1.484 F400.000
G1 X48.481 Y15.048 Z-0.400 F20.000
G2 X49.672 Y16.484 Z-0.400 I1.519 J-0.048 F400.000
G2 X51.484 Y15.328 Z-0.400 I0.328 J-1.484 F400.000
G2 X50.328 Y13.516 Z-0.400 I-1.484 J-0.328 F400.000
G2 X48.481 Y15.048 Z-0.400 I-0.328 J1.484 F400.000
G0 Z11.000
G0 Z11.000
G0 X48.481 Y15.048
G0 X83.481 Y15.002
G0 X83.481 Y15.002 Z9.000
G1 X83.481 Y15.002 Z5.900 F20.000
G2 X84.662 Y16.481 Z5.900 I1.520 J-0.002 F400.000
G2 X85.536 Y13.578 Z5.900 I0.338 J-1.481 F400.000
G1 X85.328 Y13.516 Z5.900 F400.000
G2 X83.481 Y15.002 Z5.900 I-0.328 J1.484 F400.000
G1 X83.481 Y15.002 Z5.500 F20.000
G2 X84.662 Y16.481 Z5.500 I1.520 J-0.002 F400.000
G2 X85.536 Y13.578 Z5.500 I0.338 J-1.481 F400.000
G1 X85.328 Y13.516 Z5.500 F400.000
G2 X83.481 Y15.002 Z5.500 I-0.328 J1.484 F400.000
G1 X83.481 Y15.002 Z5.100 F20.000
G2 X84.662 Y16.481 Z5.100 I1.520 J-0.002 F400.000
G2 X85.536 Y13.578 Z5.100 I0.338 J-1.481 F400.000
G1 X85.328 Y13.516 Z5.100 F400.000
G2 X83.481 Y15.002 Z5.100 I-0.328 J1.484 F400.000
G1 X83.481 Y15.002 Z4.700 F20.000
G2 X84.662 Y16.481 Z4.700 I1.520 J-0.002 F400.000
G2 X85.536 Y13.578 Z4.700 I0.338 J-1.481 F400.000
G1 X85.328 Y13.516 Z4.700 F400.000
G2 X83.481 Y15.002 Z4.700 I-0.328 J1.484 F400.000
G1 X83.481 Y15.002 Z4.300 F20.000
G2 X84.662 Y16.481 Z4.300 I1.520 J-0.002 F400.000
G2 X85.536 Y13.578 Z4.300 I0.338 J-1.481 F400.000
G1 X85.328 Y13.516 Z4.300 F400.000
G2 X83.481 Y15.002 Z4.300 I-0.328 J1.484 F400.000
G1 X83.481 Y15.002 Z3.900 F20.000
G2 X84.662 Y16.481 Z3.900 I1.520 J-0.002 F400.000
G2 X85.536 Y13.578 Z3.900 I0.338 J-1.481 F400.000
G1 X85.328 Y13.516 Z3.900 F400.000
G2 X83.481 Y15.002 Z3.900 I-0.328 J1.484 F400.000
G1 X83.481 Y15.002 Z3.500 F20.000
G2 X84.662 Y16.481 Z3.500 I1.520 J-0.002 F400.000
G2 X85.536 Y13.578 Z3.500 I0.338 J-1.481 F400.000
G1 X85.328 Y13.516 Z3.500 F400.000
G2 X83.481 Y15.002 Z3.500 I-0.328 J1.484 F400.000
G1 X83.481 Y15.002 Z3.100 F20.000
G2 X84.662 Y16.481 Z3.100 I1.520 J-0.002 F400.000
G2 X85.536 Y13.578 Z3.100 I0.338 J-1.481 F400.000
G1 X85.328 Y13.516 Z3.100 F400.000
G2 X83.481 Y15.002 Z3.100 I-0.328 J1.484 F400.000
G1 X83.481 Y15.002 Z2.700 F20.000
G2 X84.662 Y16.481 Z2.700 I1.520 J-0.002 F400.000
G2 X85.536 Y13.578 Z2.700 I0.338 J-1.481 F400.000
G1 X85.328 Y13.516 Z2.700 F400.000
G2 X83.481 Y15.002 Z2.700 I-0.328 J1.484 F400.000
G1 X83.481 Y15.002 Z2.300 F20.000
G2 X84.662 Y16.481 Z2.300 I1.520 J-0.002 F400.000
G2 X85.536 Y13.578 Z2.300 I0.338 J-1.481 F400.000
G1 X85.328 Y13.516 Z2.300 F400.000
G2 X83.481 Y15.002 Z2.300 I-0.328 J1.484 F400.000
G1 X83.481 Y15.002 Z1.900 F20.000
G2 X84.662 Y16.481 Z1.900 I1.520 J-0.002 F400.000
G2 X85.536 Y13.578 Z1.900 I0.338 J-1.481 F400.000
G1 X85.328 Y13.516 Z1.900 F400.000
G2 X83.481 Y15.002 Z1.900 I-0.328 J1.484 F400.000
G1 X83.481 Y15.002 Z1.500 F20.000
G2 X84.662 Y16.481 Z1.500 I1.520 J-0.002 F400.000
G2 X85.536 Y13.578 Z1.500 I0.338 J-1.481 F400.000
G1 X85.328 Y13.516 Z1.500 F400.000
G2 X83.481 Y15.002 Z1.500 I-0.328 J1.484 F400.000
G1 X83.481 Y15.002 Z1.100 F20.000
G2 X84.662 Y16.481 Z1.100 I1.520 J-0.002 F400.000
G2 X85.536 Y13.578 Z1.100 I0.338 J-1.481 F400.000
G1 X85.328 Y13.516 Z1.100 F400.000
G2 X83.481 Y15.002 Z1.100 I-0.328 J1.484 F400.000
G1 X83.481 Y15.002 Z0.700 F20.000
G2 X84.662 Y16.481 Z0.700 I1.520 J-0.002 F400.000
G2 X85.536 Y13.578 Z0.700 I0.338 J-1.481 F400.000
G1 X85.328 Y13.516 Z0.700 F400.000
G2 X83.481 Y15.002 Z0.700 I-0.328 J1.484 F400.000
G1 X83.481 Y15.002 Z0.300 F20.000
G2 X84.662 Y16.481 Z0.300 I1.520 J-0.002 F400.000
G2 X85.536 Y13.578 Z0.300 I0.338 J-1.481 F400.000
G1 X85.328 Y13.516 Z0.300 F400.000
G2 X83.481 Y15.002 Z0.300 I-0.328 J1.484 F400.000
G1 X83.481 Y15.002 Z-0.100 F20.000
G2 X84.662 Y16.481 Z-0.100 I1.520 J-0.002 F400.000
G2 X85.536 Y13.578 Z-0.100 I0.338 J-1.481 F400.000
G1 X85.328 Y13.516 Z-0.100 F400.000
G2 X83.481 Y15.002 Z-0.100 I-0.328 J1.484 F400.000
G1 X83.481 Y15.002 Z-0.400 F20.000
G2 X84.662 Y16.481 Z-0.400 I1.520 J-0.002 F400.000
G2 X85.536 Y13.578 Z-0.400 I0.338 J-1.481 F400.000
G1 X85.328 Y13.516 Z-0.400 F400.000
G2 X83.481 Y15.002 Z-0.400 I-0.328 J1.484 F400.000
G0 Z11.000
G0 Z11.000
G0 X83.481 Y15.002
G0 X86.613 Y114.458
G0 X86.613 Y114.458 Z9.000
G1 X86.613 Y114.458 Z5.900 F20.000
G2 X86.444 Y115.510 Z5.900 I0.017 J0.542 F400.000
G2 X86.815 Y114.490 Z5.900 I0.185 J-0.510 F400.000
G2 X86.613 Y114.458 Z5.900 I-0.185 J0.510 F400.000
G1 X86.613 Y114.458 Z5.500 F20.000
G2 X86.444 Y115.510 Z5.500 I0.017 J0.542 F400.000
G2 X86.815 Y114.490 Z5.500 I0.185 J-0.510 F400.000
G2 X86.613 Y114.458 Z5.500 I-0.185 J0.510 F400.000
G1 X86.613 Y114.458 Z5.100 F20.000
G2 X86.444 Y115.510 Z5.100 I0.017 J0.542 F400.000
G2 X86.815 Y114.490 Z5.100 I0.185 J-0.510 F400.000
G2 X86.613 Y114.458 Z5.100 I-0.185 J0.510 F400.000
G1 X86.613 Y114.458 Z4.700 F20.000
G2 X86.444 Y115.510 Z4.700 I0.017 J0.542 F400.000
G2 X86.815 Y114.490 Z4.700 I0.185 J-0.510 F400.000
G2 X86.613 Y114.458 Z4.700 I-0.185 J0.510 F400.000
G1 X86.613 Y114.458 Z4.300 F20.000
G2 X86.444 Y115.510 Z4.300 I0.017 J0.542 F400.000
G2 X86.815 Y114.490 Z4.300 I0.185 J-0.510 F400.000
G2 X86.613 Y114.458 Z4.300 I-0.185 J0.510 F400.000
G1 X86.613 Y114.458 Z3.900 F20.000
G2 X86.444 Y115.510 Z3.900 I0.017 J0.542 F400.000
G2 X86.815 Y114.490 Z3.900 I0.185 J-0.510 F400.000
G2 X86.613 Y114.458 Z3.900 I-0.185 J0.510 F400.000
G1 X86.613 Y114.458 Z3.500 F20.000
G2 X86.444 Y115.510 Z3.500 I0.017 J0.542 F400.000
G2 X86.815 Y114.490 Z3.500 I0.185 J-0.510 F400.000
G2 X86.613 Y114.458 Z3.500 I-0.185 J0.510 F400.000
G1 X86.613 Y114.458 Z3.100 F20.000
G2 X86.444 Y115.510 Z3.100 I0.017 J0.542 F400.000
G2 X86.815 Y114.490 Z3.100 I0.185 J-0.510 F400.000
G2 X86.613 Y114.458 Z3.100 I-0.185 J0.510 F400.000
G1 X86.613 Y114.458 Z2.700 F20.000
G2 X86.444 Y115.510 Z2.700 I0.017 J0.542 F400.000
G2 X86.815 Y114.490 Z2.700 I0.185 J-0.510 F400.000
G2 X86.613 Y114.458 Z2.700 I-0.185 J0.510 F400.000
G1 X86.613 Y114.458 Z2.300 F20.000
G2 X86.444 Y115.510 Z2.300 I0.017 J0.542 F400.000
G2 X86.815 Y114.490 Z2.300 I0.185 J-0.510 F400.000
G2 X86.613 Y114.458 Z2.300 I-0.185 J0.510 F400.000
G1 X86.613 Y114.458 Z1.900 F20.000
G2 X86.444 Y115.510 Z1.900 I0.017 J0.542 F400.000
G2 X86.815 Y114.490 Z1.900 I0.185 J-0.510 F400.000
G2 X86.613 Y114.458 Z1.900 I-0.185 J0.510 F400.000
G1 X86.613 Y114.458 Z1.500 F20.000
G2 X86.444 Y115.510 Z1.500 I0.017 J0.542 F400.000
G2 X86.815 Y114.490 Z1.500 I0.185 J-0.510 F400.000
G2 X86.613 Y114.458 Z1.500 I-0.185 J0.510 F400.000
G1 X86.613 Y114.458 Z1.100 F20.000
G2 X86.444 Y115.510 Z1.100 I0.017 J0.542 F400.000
G2 X86.815 Y114.490 Z1.100 I0.185 J-0.510 F400.000
G2 X86.613 Y114.458 Z1.100 I-0.185 J0.510 F400.000
G1 X86.613 Y114.458 Z0.700 F20.000
G2 X86.444 Y115.510 Z0.700 I0.017 J0.542 F400.000
G2 X86.815 Y114.490 Z0.700 I0.185 J-0.510 F400.000
G2 X86.613 Y114.458 Z0.700 I-0.185 J0.510 F400.000
G1 X86.613 Y114.458 Z0.300 F20.000
G2 X86.444 Y115.510 Z0.300 I0.017 J0.542 F400.000
G2 X86.815 Y114.490 Z0.300 I0.185 J-0.510 F400.000
G2 X86.613 Y114.458 Z0.300 I-0.185 J0.510 F400.000
G1 X86.613 Y114.458 Z-0.100 F20.000
G2 X86.444 Y115.510 Z-0.100 I0.017 J0.542 F400.000
G2 X86.815 Y114.490 Z-0.100 I0.185 J-0.510 F400.000
G2 X86.613 Y114.458 Z-0.100 I-0.185 J0.510 F400.000
G1 X86.613 Y114.458 Z-0.400 F20.000
G2 X86.444 Y115.510 Z-0.400 I0.017 J0.542 F400.000
G2 X86.815 Y114.490 Z-0.400 I0.185 J-0.510 F400.000
G2 X86.613 Y114.458 Z-0.400 I-0.185 J0.510 F400.000
G0 Z11.000
G0 Z11.000
G0 X86.613 Y114.458
G0 X17.172 Y114.996
G0 X17.172 Y114.996 Z9.000
G1 X17.172 Y114.996 Z5.900 F20.000
G2 X16.815 Y114.490 Z5.900 I-0.542 J0.004 F400.000
G2 X16.444 Y115.510 Z5.900 I-0.185 J0.510 F400.000
G2 X17.172 Y114.996 Z5.900 I0.185 J-0.510 F400.000
G1 X17.172 Y114.996 Z5.500 F20.000
G2 X16.815 Y114.490 Z5.500 I-0.542 J0.004 F400.000
G2 X16.444 Y115.510 Z5.500 I-0.185 J0.510 F400.000
G2 X17.172 Y114.996 Z5.500 I0.185 J-0.510 F400.000
G1 X17.172 Y114.996 Z5.100 F20.000
G2 X16.815 Y114.490 Z5.100 I-0.542 J0.004 F400.000
G2 X16.444 Y115.510 Z5.100 I-0.185 J0.510 F400.000
G2 X17.172 Y114.996 Z5.100 I0.185 J-0.510 F400.000
G1 X17.172 Y114.996 Z4.700 F20.000
G2 X16.815 Y114.490 Z4.700 I-0.542 J0.004 F400.000
G2 X16.444 Y115.510 Z4.700 I-0.185 J0.510 F400.000
G2 X17.172 Y114.996 Z4.700 I0.185 J-0.510 F400.000
G1 X17.172 Y114.996 Z4.300 F20.000
G2 X16.815 Y114.490 Z4.300 I-0.542 J0.004 F400.000
G2 X16.444 Y115.510 Z4.300 I-0.185 J0.510 F400.000
G2 X17.172 Y114.996 Z4.300 I0.185 J-0.510 F400.000
G1 X17.172 Y114.996 Z3.900 F20.000
G2 X16.815 Y114.490 Z3.900 I-0.542 J0.004 F400.000
G2 X16.444 Y115.510 Z3.900 I-0.185 J0.510 F400.000
G2 X17.172 Y114.996 Z3.900 I0.185 J-0.510 F400.000
G1 X17.172 Y114.996 Z3.500 F20.000
G2 X16.815 Y114.490 Z3.500 I-0.542 J0.004 F400.000
G2 X16.444 Y115.510 Z3.500 I-0.185 J0.510 F400.000
G2 X17.172 Y114.996 Z3.500 I0.185 J-0.510 F400.000
G1 X17.172 Y114.996 Z3.100 F20.000
G2 X16.815 Y114.490 Z3.100 I-0.542 J0.004 F400.000
G2 X16.444 Y115.510 Z3.100 I-0.185 J0.510 F400.000
G2 X17.172 Y114.996 Z3.100 I0.185 J-0.510 F400.000
G1 X17.172 Y114.996 Z2.700 F20.000
G2 X16.815 Y114.490 Z2.700 I-0.542 J0.004 F400.000
G2 X16.444 Y115.510 Z2.700 I-0.185 J0.510 F400.000
G2 X17.172 Y114.996 Z2.700 I0.185 J-0.510 F400.000
G1 X17.172 Y114.996 Z2.300 F20.000
G2 X16.815 Y114.490 Z2.300 I-0.542 J0.004 F400.000
G2 X16.444 Y115.510 Z2.300 I-0.185 J0.510 F400.000
G2 X17.172 Y114.996 Z2.300 I0.185 J-0.510 F400.000
G1 X17.172 Y114.996 Z1.900 F20.000
G2 X16.815 Y114.490 Z1.900 I-0.542 J0.004 F400.000
G2 X16.444 Y115.510 Z1.900 I-0.185 J0.510 F400.000
G2 X17.172 Y114.996 Z1.900 I0.185 J-0.510 F400.000
G1 X17.172 Y114.996 Z1.500 F20.000
G2 X16.815 Y114.490 Z1.500 I-0.542 J0.004 F400.000
G2 X16.444 Y115.510 Z1.500 I-0.185 J0.510 F400.000
G2 X17.172 Y114.996 Z1.500 I0.185 J-0.510 F400.000
G1 X17.172 Y114.996 Z1.100 F20.000
G2 X16.815 Y114.490 Z1.100 I-0.542 J0.004 F400.000
G2 X16.444 Y115.510 Z1.100 I-0.185 J0.510 F400.000
G2 X17.172 Y114.996 Z1.100 I0.185 J-0.510 F400.000
G1 X17.172 Y114.996 Z0.700 F20.000
G2 X16.815 Y114.490 Z0.700 I-0.542 J0.004 F400.000
G2 X16.444 Y115.510 Z0.700 I-0.185 J0.510 F400.000
G2 X17.172 Y114.996 Z0.700 I0.185 J-0.510 F400.000
G1 X17.172 Y114.996 Z0.300 F20.000
G2 X16.815 Y114.490 Z0.300 I-0.542 J0.004 F400.000
G2 X16.444 Y115.510 Z0.300 I-0.185 J0.510 F400.000
G2 X17.172 Y114.996 Z0.300 I0.185 J-0.510 F400.000
G1 X17.172 Y114.996 Z-0.100 F20.000
G2 X16.815 Y114.490 Z-0.100 I-0.542 J0.004 F400.000
G2 X16.444 Y115.510 Z-0.100 I-0.185 J0.510 F400.000
G2 X17.172 Y114.996 Z-0.100 I0.185 J-0.510 F400.000
G1 X17.172 Y114.996 Z-0.400 F20.000
G2 X16.815 Y114.490 Z-0.400 I-0.542 J0.004 F400.000
G2 X16.444 Y115.510 Z-0.400 I-0.185 J0.510 F400.000
G2 X17.172 Y114.996 Z-0.400 I0.185 J-0.510 F400.000
G0 Z11.000
G0 Z11.000
(finish operation: Profile)
(begin operation: Adaptive)
(machine: mach3_4, mm/min)
(Adaptive)
(Helix to depth: 4.300000)
(Tool Controller Rapid Values are unset)
 G0 Z11.000
(Tool Controller Rapid Values are unset)
 G0 X65.538 Y114.710 Z11.000
(Tool Controller Rapid Values are unset)
 G0 X65.538 Y114.710 Z9.000
G1 X65.538 Y114.710 Z6.300 F20.000
G1 X65.538 Y114.710 Z6.300 F20.000
G1 X65.265 Y114.605 Z6.274 F20.000
G1 X65.019 Y114.448 Z6.248 F20.000
G1 X64.808 Y114.246 Z6.223 F20.000
G1 X64.640 Y114.007 Z6.197 F20.000
G1 X64.522 Y113.740 Z6.171 F20.000
G1 X64.458 Y113.455 Z6.145 F20.000
G1 X64.452 Y113.163 Z6.120 F20.000
G1 X64.502 Y112.875 Z6.094 F20.000
G1 X64.608 Y112.603 Z6.068 F20.000
G1 X64.764 Y112.356 Z6.042 F20.000
G1 X64.966 Y112.145 Z6.017 F20.000
G1 X65.205 Y111.977 Z5.991 F20.000
G1 X65.472 Y111.859 Z5.965 F20.000
G1 X65.757 Y111.796 Z5.939 F20.000
G1 X66.049 Y111.789 Z5.913 F20.000
G1 X66.337 Y111.840 Z5.888 F20.000
G1 X66.610 Y111.945 Z5.862 F20.000
G1 X66.856 Y112.102 Z5.836 F20.000
G1 X67.067 Y112.304 Z5.810 F20.000
G1 X67.235 Y112.543 Z5.785 F20.000
G1 X67.353 Y112.810 Z5.759 F20.000
G1 X67.417 Y113.095 Z5.733 F20.000
G1 X67.423 Y113.387 Z5.707 F20.000
G1 X67.373 Y113.675 Z5.682 F20.000
G1 X67.267 Y113.947 Z5.656 F20.000
G1 X67.111 Y114.194 Z5.630 F20.000
G1 X66.909 Y114.405 Z5.604 F20.000
G1 X66.670 Y114.573 Z5.579 F20.000
G1 X66.403 Y114.691 Z5.553 F20.000
G1 X66.118 Y114.754 Z5.527 F20.000
G1 X65.826 Y114.761 Z5.501 F20.000
G1 X65.538 Y114.710 Z5.475 F20.000
G1 X65.265 Y114.605 Z5.450 F20.000
G1 X65.019 Y114.448 Z5.424 F20.000
G1 X64.808 Y114.246 Z5.398 F20.000
G1 X64.640 Y114.007 Z5.372 F20.000
G1 X64.522 Y113.740 Z5.347 F20.000
G1 X64.458 Y113.455 Z5.321 F20.000
G1 X64.452 Y113.163 Z5.295 F20.000
G1 X64.502 Y112.875 Z5.269 F20.000
G1 X64.608 Y112.603 Z5.244 F20.000
G1 X64.764 Y112.356 Z5.218 F20.000
G1 X64.966 Y112.145 Z5.192 F20.000
G1 X65.205 Y111.977 Z5.166 F20.000
G1 X65.472 Y111.859 Z5.140 F20.000
G1 X65.757 Y111.796 Z5.115 F20.000
G1 X66.049 Y111.789 Z5.089 F20.000
G1 X66.337 Y111.840 Z5.063 F20.000
G1 X66.610 Y111.945 Z5.037 F20.000
G1 X66.856 Y112.102 Z5.012 F20.000
G1 X67.067 Y112.304 Z4.986 F20.000
G1 X67.235 Y112.543 Z4.960 F20.000
G1 X67.353 Y112.810 Z4.934 F20.000
G1 X67.417 Y113.095 Z4.909 F20.000
G1 X67.423 Y113.387 Z4.883 F20.000
G1 X67.373 Y113.675 Z4.857 F20.000
G1 X67.267 Y113.947 Z4.831 F20.000
G1 X67.111 Y114.194 Z4.805 F20.000
G1 X66.909 Y114.405 Z4.780 F20.000
G1 X66.670 Y114.573 Z4.754 F20.000
G1 X66.403 Y114.691 Z4.728 F20.000
G1 X66.118 Y114.754 Z4.702 F20.000
G1 X65.826 Y114.761 Z4.677 F20.000
G1 X65.538 Y114.710 Z4.651 F20.000
G1 X65.265 Y114.605 Z4.625 F20.000
G1 X65.019 Y114.448 Z4.599 F20.000
G1 X64.808 Y114.246 Z4.574 F20.000
G1 X64.640 Y114.007 Z4.548 F20.000
G1 X64.522 Y113.740 Z4.522 F20.000
G1 X64.458 Y113.455 Z4.496 F20.000
G1 X64.452 Y113.163 Z4.471 F20.000
G1 X64.502 Y112.875 Z4.445 F20.000
G1 X64.608 Y112.603 Z4.419 F20.000
G1 X64.764 Y112.356 Z4.393 F20.000
G1 X64.966 Y112.145 Z4.367 F20.000
G1 X65.205 Y111.977 Z4.342 F20.000
G1 X65.472 Y111.859 Z4.316 F20.000
G1 X65.757 Y111.796 Z4.300 F400.000
G1 X66.049 Y111.789 Z4.300 F400.000
G1 X66.337 Y111.840 Z4.300 F400.000
G1 X66.610 Y111.945 Z4.300 F400.000
G1 X66.856 Y112.102 Z4.300 F400.000
G1 X67.067 Y112.304 Z4.300 F400.000
G1 X67.235 Y112.543 Z4.300 F400.000
G1 X67.353 Y112.810 Z4.300 F400.000
G1 X67.417 Y113.095 Z4.300 F400.000
G1 X67.423 Y113.387 Z4.300 F400.000
G1 X67.373 Y113.675 Z4.300 F400.000
G1 X67.267 Y113.947 Z4.300 F400.000
G1 X67.111 Y114.194 Z4.300 F400.000
G1 X66.909 Y114.405 Z4.300 F400.000
G1 X66.670 Y114.573 Z4.300 F400.000
G1 X66.403 Y114.691 Z4.300 F400.000
G1 X66.118 Y114.754 Z4.300 F400.000
G1 X65.826 Y114.761 Z4.300 F400.000
G1 X65.538 Y114.710 Z4.300 F400.000
G1 X65.265 Y114.605 Z4.300 F400.000
G1 X65.019 Y114.448 Z4.300 F400.000
G1 X64.808 Y114.246 Z4.300 F400.000
G1 X64.640 Y114.007 Z4.300 F400.000
G1 X64.522 Y113.740 Z4.300 F400.000
G1 X64.458 Y113.455 Z4.300 F400.000
G1 X64.452 Y113.163 Z4.300 F400.000
G1 X64.502 Y112.875 Z4.300 F400.000
G1 X64.608 Y112.603 Z4.300 F400.000
G1 X64.764 Y112.356 Z4.300 F400.000
G1 X64.966 Y112.145 Z4.300 F400.000
G1 X65.205 Y111.977 Z4.300 F400.000
G1 X65.472 Y111.859 Z4.300 F400.000
(Adaptive - depth: 4.300000)
G1 X65.938 Y111.775 F400.000
G1 X66.006 Y111.700 F400.000
G1 X66.056 Y111.612 F400.000
G1 X66.081 Y111.513 F400.000
G1 X66.138 Y111.431 F400.000
G1 X66.294 Y111.306 F400.000
G1 X66.381 Y111.263 F400.000
G1 X66.475 Y111.237 F400.000
G1 X67.319 Y111.250 F400.000
G1 X67.688 Y111.344 F400.000
G1 X67.944 Y111.475 F400.000
G1 X67.981 Y111.562 F400.000
G1 X67.969 Y114.562 F400.000
G1 X67.875 Y115.031 F400.000
G1 X67.769 Y115.306 F400.000
G1 X67.644 Y115.463 F400.000
G1 X67.500 Y115.600 F400.000
G1 X67.162 Y115.825 F400.000
G1 X66.731 Y116.081 F400.000
G1 X66.256 Y116.244 F400.000
G1 X65.831 Y116.306 F400.000
G1 X65.331 Y116.281 F400.000
G1 X65.237 Y116.244 F400.000
G1 X65.156 Y116.181 F400.000
G1 X65.119 Y116.088 F400.000
G1 X65.094 Y115.888 F400.000
G1 X65.094 Y115.888 F400.000
G1 X65.100 Y115.650 F400.000
G1 X65.112 Y115.562 F400.000
G1 X65.125 Y115.506 F400.000
G1 X65.112 Y115.469 F400.000
G1 X64.831 Y115.150 F400.000
G1 X64.831 Y115.150 F400.000
G1 X64.662 Y114.888 F400.000
G1 X64.450 Y114.662 F400.000
G1 X64.031 Y114.356 F400.000
G1 X63.506 Y114.019 F400.000
G1 X63.350 Y113.875 F400.000
G1 X63.288 Y113.787 F400.000
G1 X63.244 Y113.694 F400.000
G1 X63.119 Y113.294 F400.000
G1 X63.056 Y112.794 F400.000
G1 X63.094 Y112.294 F400.000
G1 X63.231 Y111.806 F400.000
G1 X63.350 Y111.525 F400.000
G1 X63.475 Y111.362 F400.000
G1 X63.631 Y111.237 F400.000
G1 X64.475 Y111.237 F400.000
G1 X64.475 Y111.237 F400.000
G1 X64.831 Y111.281 F400.000
G1 X65.050 Y111.362 F400.000
G1 X65.150 Y111.425 F400.000
G1 X65.219 Y111.494 F400.000
(Tool Controller Rapid Values are unset)
 G0 X65.256 Y111.581
(Tool Controller Rapid Values are unset)
 G0 X65.263 Y111.681
(Tool Controller Rapid Values are unset)
 G0 X65.194 Y112.013
(Tool Controller Rapid Values are unset)
 G0 X64.700 Y113.419
G1 X64.662 Y113.537 F400.000
G1 X64.537 Y113.875 F400.000
G1 X64.481 Y113.975 F400.000
G1 X64.406 Y114.056 F400.000
G1 X64.319 Y114.119 F400.000
G1 X64.213 Y114.162 F400.000
G1 X63.994 Y114.206 F400.000
G1 X63.756 Y114.200 F400.000
G1 X63.525 Y114.162 F400.000
G1 X63.525 Y114.162 F400.000
G1 X63.225 Y114.106 F400.000
G1 X62.825 Y114.075 F400.000
G1 X62.525 Y113.981 F400.000
G1 X62.337 Y113.888 F400.000
G1 X62.106 Y113.675 F400.000
G1 X61.831 Y113.231 F400.000
G1 X61.656 Y112.763 F400.000
G1 X61.562 Y112.269 F400.000
G1 X61.562 Y111.787 F400.000
G1 X61.606 Y111.487 F400.000
G1 X61.644 Y111.394 F400.000
G1 X61.769 Y111.237 F400.000
G1 X61.769 Y111.237 F400.000
G1 X62.125 Y111.281 F400.000
G1 X62.350 Y111.362 F400.000
G1 X62.450 Y111.425 F400.000
G1 X62.538 Y111.494 F400.000
(Tool Controller Rapid Values are unset)
 G0 X62.606 Y111.581
(Tool Controller Rapid Values are unset)
 G0 X62.706 Y111.787
(Tool Controller Rapid Values are unset)
 G0 X63.044 Y113.069
G1 X63.075 Y113.188 F400.000
G1 X63.150 Y113.531 F400.000
G1 X63.150 Y113.638 F400.000
G1 X63.125 Y113.737 F400.000
G1 X63.069 Y113.825 F400.000
G1 X62.994 Y113.894 F400.000
G1 X62.794 Y114.006 F400.000
G1 X62.569 Y114.069 F400.000
G1 X62.331 Y114.100 F400.000
G1 X62.331 Y114.100 F400.000
G1 X61.731 Y114.094 F400.000
G1 X61.231 Y114.000 F400.000
G1 X61.031 Y113.931 F400.000
G1 X60.850 Y113.825 F400.000
G1 X60.694 Y113.688 F400.000
G1 X60.381 Y113.263 F400.000
G1 X60.156 Y112.812 F400.000
G1 X60.000 Y112.331 F400.000
G1 X59.944 Y111.869 F400.000
G1 X59.950 Y111.469 F400.000
G1 X59.981 Y111.375 F400.000
G1 X60.038 Y111.294 F400.000
G1 X60.119 Y111.237 F400.000
G1 X60.119 Y111.237 F400.000
G1 X60.475 Y111.281 F400.000
G1 X60.700 Y111.362 F400.000
G1 X60.894 Y111.494 F400.000
(Tool Controller Rapid Values are unset)
 G0 X60.969 Y111.575
(Tool Controller Rapid Values are unset)
 G0 X61.719 Y113.106
G1 X61.769 Y113.219 F400.000
G1 X61.906 Y113.550 F400.000
G1 X61.925 Y113.650 F400.000
G1 X61.906 Y113.744 F400.000
G1 X61.862 Y113.825 F400.000
G1 X61.788 Y113.900 F400.000
G1 X61.594 Y114.006 F400.000
G1 X61.362 Y114.069 F400.000
G1 X61.131 Y114.100 F400.000
G1 X61.131 Y114.100 F400.000
G1 X60.131 Y114.088 F400.000
G1 X59.631 Y113.975 F400.000
G1 X59.350 Y113.844 F400.000
G1 X59.044 Y113.569 F400.000
G1 X58.788 Y113.237 F400.000
G1 X58.525 Y112.806 F400.000
G1 X58.356 Y112.331 F400.000
G1 X58.288 Y111.856 F400.000
G1 X58.288 Y111.556 F400.000
G1 X58.300 Y111.456 F400.000
G1 X58.337 Y111.362 F400.000
G1 X58.400 Y111.281 F400.000
G1 X58.487 Y111.237 F400.000
G1 X58.487 Y111.237 F400.000
G1 X58.844 Y111.281 F400.000
G1 X59.069 Y111.362 F400.000
G1 X59.263 Y111.494 F400.000
(Tool Controller Rapid Values are unset)
 G0 X59.344 Y111.575
(Tool Controller Rapid Values are unset)
 G0 X60.237 Y113.138
G1 X60.300 Y113.244 F400.000
G1 X60.456 Y113.556 F400.000
G1 X60.475 Y113.656 F400.000
G1 X60.462 Y113.744 F400.000
G1 X60.419 Y113.825 F400.000
G1 X60.350 Y113.900 F400.000
G1 X60.156 Y114.006 F400.000
G1 X59.925 Y114.069 F400.000
G1 X59.694 Y114.100 F400.000
G1 X59.694 Y114.100 F400.000
G1 X58.494 Y114.088 F400.000
G1 X57.994 Y113.975 F400.000
G1 X57.712 Y113.844 F400.000
G1 X57.481 Y113.644 F400.000
G1 X57.219 Y113.319 F400.000
G1 X56.913 Y112.794 F400.000
G1 X56.737 Y112.319 F400.000
G1 X56.663 Y111.769 F400.000
G1 X56.681 Y111.469 F400.000
G1 X56.719 Y111.375 F400.000
G1 X56.775 Y111.294 F400.000
G1 X56.856 Y111.237 F400.000
G1 X56.856 Y111.237 F400.000
G1 X57.212 Y111.281 F400.000
G1 X57.438 Y111.362 F400.000
G1 X57.631 Y111.494 F400.000
(Tool Controller Rapid Values are unset)
 G0 X57.712 Y111.575
(Tool Controller Rapid Values are unset)
 G0 X58.562 Y113.119
G1 X58.619 Y113.231 F400.000
G1 X58.775 Y113.556 F400.000
G1 X58.800 Y113.656 F400.000
G1 X58.788 Y113.744 F400.000
G1 X58.737 Y113.825 F400.000
G1 X58.669 Y113.900 F400.000
G1 X58.475 Y114.006 F400.000
G1 X58.244 Y114.069 F400.000
G1 X58.013 Y114.100 F400.000
G1 X58.013 Y114.100 F400.000
G1 X56.913 Y114.088 F400.000
G1 X56.413 Y113.994 F400.000
G1 X56.125 Y113.869 F400.000
G1 X56.038 Y113.812 F400.000
G1 X55.675 Y113.438 F400.000
G1 X55.550 Y113.275 F400.000
G1 X55.269 Y112.856 F400.000
G1 X55.094 Y112.381 F400.000
G1 X55.019 Y111.825 F400.000
G1 X55.038 Y111.425 F400.000
G1 X55.081 Y111.331 F400.000
G1 X55.144 Y111.256 F400.000
G1 X55.237 Y111.237 F400.000
G1 X55.237 Y111.237 F400.000
G1 X55.594 Y111.281 F400.000
G1 X55.819 Y111.362 F400.000
G1 X56.013 Y111.494 F400.000
(Tool Controller Rapid Values are unset)
 G0 X56.094 Y111.575
(Tool Controller Rapid Values are unset)
 G0 X56.900 Y113.112
G1 X56.950 Y113.225 F400.000
G1 X57.100 Y113.550 F400.000
G1 X57.119 Y113.650 F400.000
G1 X57.106 Y113.744 F400.000
G1 X57.056 Y113.825 F400.000
G1 X56.987 Y113.900 F400.000
G1 X56.794 Y114.006 F400.000
G1 X56.562 Y114.069 F400.000
G1 X56.331 Y114.100 F400.000
G1 X56.331 Y114.100 F400.000
G1 X55.231 Y114.088 F400.000
G1 X54.731 Y113.994 F400.000
G1 X54.444 Y113.869 F400.000
G1 X54.281 Y113.744 F400.000
G1 X53.875 Y113.275 F400.000
G1 X53.619 Y112.844 F400.000
G1 X53.444 Y112.369 F400.000
G1 X53.362 Y111.800 F400.000
G1 X53.381 Y111.500 F400.000
G1 X53.400 Y111.400 F400.000
G1 X53.450 Y111.312 F400.000
G1 X53.519 Y111.237 F400.000
G1 X53.519 Y111.237 F400.000
G1 X53.875 Y111.281 F400.000
G1 X54.100 Y111.362 F400.000
G1 X54.294 Y111.494 F400.000
(Tool Controller Rapid Values are unset)
 G0 X54.375 Y111.575
(Tool Controller Rapid Values are unset)
 G0 X55.212 Y113.119
G1 X55.269 Y113.231 F400.000
G1 X55.425 Y113.556 F400.000
G1 X55.444 Y113.656 F400.000
G1 X55.431 Y113.744 F400.000
G1 X55.381 Y113.825 F400.000
G1 X55.312 Y113.900 F400.000
G1 X55.119 Y114.006 F400.000
G1 X54.888 Y114.069 F400.000
G1 X54.656 Y114.100 F400.000
G1 X54.656 Y114.100 F400.000
G1 X53.656 Y114.094 F400.000
G1 X53.056 Y113.975 F400.000
G1 X52.862 Y113.900 F400.000
G1 X52.694 Y113.787 F400.000
G1 X52.544 Y113.650 F400.000
G1 X52.281 Y113.331 F400.000
G1 X51.969 Y112.812 F400.000
G1 X51.800 Y112.338 F400.000
G1 X51.731 Y111.831 F400.000
G1 X51.731 Y111.531 F400.000
G1 X51.744 Y111.431 F400.000
G1 X51.781 Y111.338 F400.000
G1 X51.844 Y111.263 F400.000
G1 X51.938 Y111.237 F400.000
G1 X51.938 Y111.237 F400.000
G1 X52.294 Y111.281 F400.000
G1 X52.519 Y111.362 F400.000
G1 X52.712 Y111.494 F400.000
(Tool Controller Rapid Values are unset)
 G0 X52.794 Y111.575
(Tool Controller Rapid Values are unset)
 G0 X53.556 Y113.106
G1 X53.606 Y113.219 F400.000
G1 X53.750 Y113.550 F400.000
G1 X53.769 Y113.650 F400.000
G1 X53.750 Y113.744 F400.000
G1 X53.706 Y113.825 F400.000
G1 X53.631 Y113.900 F400.000
G1 X53.438 Y114.006 F400.000
G1 X53.206 Y114.069 F400.000
G1 X52.975 Y114.100 F400.000
G1 X52.975 Y114.100 F400.000
G1 X51.975 Y114.094 F400.000
G1 X51.475 Y113.994 F400.000
G1 X51.275 Y113.925 F400.000
G1 X51.094 Y113.819 F400.000
G1 X50.800 Y113.525 F400.000
G1 X50.344 Y112.850 F400.000
G1 X50.169 Y112.381 F400.000
G1 X50.087 Y111.950 F400.000
G1 X50.081 Y111.550 F400.000
G1 X50.094 Y111.450 F400.000
G1 X50.138 Y111.356 F400.000
G1 X50.200 Y111.275 F400.000
G1 X50.294 Y111.237 F400.000
G1 X50.294 Y111.237 F400.000
G1 X50.650 Y111.281 F400.000
G1 X50.875 Y111.362 F400.000
G1 X51.069 Y111.494 F400.000
(Tool Controller Rapid Values are unset)
 G0 X51.144 Y111.575
(Tool Controller Rapid Values are unset)
 G0 X51.881 Y113.106
G1 X51.931 Y113.219 F400.000
G1 X52.069 Y113.550 F400.000
G1 X52.087 Y113.650 F400.000
G1 X52.069 Y113.744 F400.000
G1 X52.025 Y113.825 F400.000
G1 X51.950 Y113.900 F400.000
G1 X51.756 Y114.006 F400.000
G1 X51.525 Y114.069 F400.000
G1 X51.294 Y114.100 F400.000
G1 X51.294 Y114.100 F400.000
G1 X50.394 Y114.094 F400.000
G1 X49.994 Y114.025 F400.000
G1 X49.694 Y113.925 F400.000
G1 X49.513 Y113.831 F400.000
G1 X49.206 Y113.550 F400.000
G1 X48.944 Y113.219 F400.000
G1 X48.688 Y112.781 F400.000
G1 X48.519 Y112.306 F400.000
G1 X48.450 Y111.731 F400.000
G1 X48.469 Y111.431 F400.000
G1 X48.513 Y111.344 F400.000
G1 X48.575 Y111.263 F400.000
G1 X48.669 Y111.237 F400.000
G1 X48.669 Y111.237 F400.000
G1 X49.025 Y111.281 F400.000
G1 X49.250 Y111.362 F400.000
G1 X49.444 Y111.494 F400.000
(Tool Controller Rapid Values are unset)
 G0 X49.525 Y111.575
(Tool Controller Rapid Values are unset)
 G0 X50.406 Y113.138
G1 X50.462 Y113.244 F400.000
G1 X50.619 Y113.556 F400.000
G1 X50.638 Y113.656 F400.000
G1 X50.625 Y113.744 F400.000
G1 X50.581 Y113.825 F400.000
G1 X50.513 Y113.900 F400.000
G1 X50.319 Y114.006 F400.000
G1 X50.087 Y114.069 F400.000
G1 X49.856 Y114.100 F400.000
G1 X49.856 Y114.100 F400.000
G1 X48.756 Y114.094 F400.000
G1 X48.456 Y114.056 F400.000
G1 X48.156 Y113.981 F400.000
G1 X47.875 Y113.850 F400.000
G1 X47.575 Y113.569 F400.000
G1 X47.325 Y113.231 F400.000
G1 X47.069 Y112.800 F400.000
G1 X46.894 Y112.325 F400.000
G1 X46.825 Y111.894 F400.000
G1 X46.825 Y111.594 F400.000
G1 X46.869 Y111.394 F400.000
G1 X46.919 Y111.306 F400.000
G1 X46.987 Y111.237 F400.000
G1 X46.987 Y111.237 F400.000
G1 X47.344 Y111.281 F400.000
G1 X47.569 Y111.362 F400.000
G1 X47.763 Y111.494 F400.000
(Tool Controller Rapid Values are unset)
 G0 X47.844 Y111.575
(Tool Controller Rapid Values are unset)
 G0 X48.725 Y113.138
G1 X48.781 Y113.244 F400.000
G1 X48.938 Y113.556 F400.000
G1 X48.956 Y113.656 F400.000
G1 X48.944 Y113.744 F400.000
G1 X48.900 Y113.825 F400.000
G1 X48.831 Y113.900 F400.000
G1 X48.638 Y114.006 F400.000
G1 X48.406 Y114.069 F400.000
G1 X48.175 Y114.100 F400.000
G1 X48.175 Y114.100 F400.000
G1 X46.975 Y114.081 F400.000
G1 X46.475 Y113.969 F400.000
G1 X46.194 Y113.838 F400.000
G1 X45.962 Y113.638 F400.000
G1 X45.656 Y113.225 F400.000
G1 X45.413 Y112.781 F400.000
G1 X45.250 Y112.306 F400.000
G1 X45.188 Y111.862 F400.000
G1 X45.188 Y111.662 F400.000
G1 X45.206 Y111.562 F400.000
G1 X45.206 Y111.463 F400.000
G1 X45.244 Y111.369 F400.000
G1 X45.306 Y111.294 F400.000
G1 X45.388 Y111.237 F400.000
G1 X45.388 Y111.237 F400.000
G1 X45.744 Y111.281 F400.000
G1 X45.969 Y111.362 F400.000
G1 X46.163 Y111.494 F400.000
(Tool Controller Rapid Values are unset)
 G0 X46.244 Y111.575
(Tool Controller Rapid Values are unset)
 G0 X47.056 Y113.112
G1 X47.112 Y113.225 F400.000
G1 X47.263 Y113.550 F400.000
G1 X47.281 Y113.650 F400.000
G1 X47.269 Y113.744 F400.000
G1 X47.219 Y113.825 F400.000
G1 X47.150 Y113.900 F400.000
G1 X46.956 Y114.006 F400.000
G1 X46.725 Y114.069 F400.000
G1 X46.494 Y114.100 F400.000
G1 X46.494 Y114.100 F400.000
G1 X45.394 Y114.088 F400.000
G1 X44.994 Y114.013 F400.000
G1 X44.700 Y113.906 F400.000
G1 X44.525 Y113.794 F400.000
G1 X44.300 Y113.588 F400.000
G1 X44.050 Y113.250 F400.000
G1 X43.812 Y112.806 F400.000
G1 X43.638 Y112.331 F400.000
G1 X43.569 Y111.844 F400.000
G1 X43.569 Y111.644 F400.000
G1 X43.594 Y111.444 F400.000
G1 X43.631 Y111.350 F400.000
G1 X43.694 Y111.269 F400.000
G1 X43.788 Y111.237 F400.000
G1 X43.788 Y111.237 F400.000
G1 X44.144 Y111.281 F400.000
G1 X44.369 Y111.362 F400.000
G1 X44.562 Y111.494 F400.000
(Tool Controller Rapid Values are unset)
 G0 X44.638 Y111.575
(Tool Controller Rapid Values are unset)
 G0 X45.394 Y113.106
G1 X45.444 Y113.219 F400.000
G1 X45.587 Y113.550 F400.000
G1 X45.606 Y113.650 F400.000
G1 X45.587 Y113.744 F400.000
G1 X45.544 Y113.825 F400.000
G1 X45.469 Y113.900 F400.000
G1 X45.275 Y114.006 F400.000
G1 X45.044 Y114.069 F400.000
G1 X44.812 Y114.100 F400.000
G1 X44.812 Y114.100 F400.000
G1 X43.812 Y114.088 F400.000
G1 X43.413 Y114.019 F400.000
G1 X43.119 Y113.919 F400.000
G1 X42.938 Y113.812 F400.000
G1 X42.644 Y113.513 F400.000
G1 X42.462 Y113.256 F400.000
G1 X42.212 Y112.819 F400.000
G1 X42.038 Y112.344 F400.000
G1 X41.962 Y111.894 F400.000
G1 X41.962 Y111.494 F400.000
G1 X41.981 Y111.394 F400.000
G1 X42.031 Y111.306 F400.000
G1 X42.100 Y111.237 F400.000
G1 X42.100 Y111.237 F400.000
G1 X42.456 Y111.281 F400.000
G1 X42.681 Y111.362 F400.000
G1 X42.875 Y111.494 F400.000
(Tool Controller Rapid Values are unset)
 G0 X42.950 Y111.575
(Tool Controller Rapid Values are unset)
 G0 X43.712 Y113.106
G1 X43.763 Y113.219 F400.000
G1 X43.906 Y113.550 F400.000
G1 X43.925 Y113.650 F400.000
G1 X43.906 Y113.744 F400.000
G1 X43.862 Y113.825 F400.000
G1 X43.788 Y113.900 F400.000
G1 X43.594 Y114.006 F400.000
G1 X43.362 Y114.069 F400.000
G1 X43.131 Y114.100 F400.000
G1 X43.131 Y114.100 F400.000
G1 X42.231 Y114.088 F400.000
G1 X41.731 Y113.994 F400.000
G1 X41.444 Y113.881 F400.000
G1 X41.275 Y113.769 F400.000
G1 X41.125 Y113.631 F400.000
G1 X40.862 Y113.306 F400.000
G1 X40.556 Y112.781 F400.000
G1 X40.388 Y112.306 F400.000
G1 X40.319 Y111.775 F400.000
G1 X40.337 Y111.475 F400.000
G1 X40.375 Y111.381 F400.000
G1 X40.431 Y111.294 F400.000
G1 X40.513 Y111.237 F400.000
G1 X40.513 Y111.237 F400.000
G1 X40.869 Y111.281 F400.000
G1 X41.094 Y111.362 F400.000
G1 X41.288 Y111.494 F400.000
(Tool Controller Rapid Values are unset)
 G0 X41.369 Y111.575
(Tool Controller Rapid Values are unset)
 G0 X42.244 Y113.138
G1 X42.300 Y113.244 F400.000
G1 X42.456 Y113.556 F400.000
G1 X42.481 Y113.656 F400.000
G1 X42.469 Y113.744 F400.000
G1 X42.419 Y113.825 F400.000
G1 X42.350 Y113.900 F400.000
G1 X42.156 Y114.006 F400.000
G1 X41.925 Y114.069 F400.000
G1 X41.694 Y114.100 F400.000
G1 X41.694 Y114.100 F400.000
G1 X40.594 Y114.088 F400.000
G1 X40.094 Y113.994 F400.000
G1 X39.806 Y113.875 F400.000
G1 X39.644 Y113.750 F400.000
G1 X39.350 Y113.450 F400.000
G1 X39.225 Y113.281 F400.000
G1 X38.950 Y112.856 F400.000
G1 X38.775 Y112.381 F400.000
G1 X38.700 Y112.000 F400.000
G1 X38.694 Y111.600 F400.000
G1 X38.725 Y111.400 F400.000
G1 X38.850 Y111.237 F400.000
G1 X38.850 Y111.237 F400.000
G1 X39.206 Y111.281 F400.000
G1 X39.431 Y111.362 F400.000
G1 X39.625 Y111.494 F400.000
(Tool Controller Rapid Values are unset)
 G0 X39.706 Y111.575
(Tool Controller Rapid Values are unset)
 G0 X40.562 Y113.119
G1 X40.619 Y113.231 F400.000
G1 X40.775 Y113.556 F400.000
G1 X40.800 Y113.656 F400.000
G1 X40.788 Y113.744 F400.000
G1 X40.737 Y113.825 F400.000
G1 X40.669 Y113.900 F400.000
G1 X40.475 Y114.006 F400.000
G1 X40.244 Y114.069 F400.000
G1 X40.013 Y114.100 F400.000
G1 X40.013 Y114.100 F400.000
G1 X38.913 Y114.088 F400.000
G1 X38.413 Y113.987 F400.000
G1 X38.125 Y113.862 F400.000
G1 X38.038 Y113.806 F400.000
G1 X37.750 Y113.500 F400.000
G1 X37.569 Y113.244 F400.000
G1 X37.306 Y112.812 F400.000
G1 X37.131 Y112.344 F400.000
G1 X37.056 Y111.825 F400.000
G1 X37.075 Y111.425 F400.000
G1 X37.119 Y111.331 F400.000
G1 X37.188 Y111.256 F400.000
G1 X37.281 Y111.237 F400.000
G1 X37.281 Y111.237 F400.000
G1 X37.638 Y111.281 F400.000
G1 X37.862 Y111.362 F400.000
G1 X38.056 Y111.494 F400.000
(Tool Controller Rapid Values are unset)
 G0 X38.138 Y111.575
(Tool Controller Rapid Values are unset)
 G0 X38.913 Y113.112
G1 X38.962 Y113.225 F400.000
G1 X39.106 Y113.550 F400.000
G1 X39.125 Y113.650 F400.000
G1 X39.106 Y113.744 F400.000
G1 X39.062 Y113.825 F400.000
G1 X38.987 Y113.900 F400.000
G1 X38.794 Y114.006 F400.000
G1 X38.562 Y114.069 F400.000
G1 X38.331 Y114.100 F400.000
G1 X38.331 Y114.100 F400.000
G1 X37.331 Y114.094 F400.000
G1 X36.731 Y113.975 F400.000
G1 X36.538 Y113.900 F400.000
G1 X36.450 Y113.850 F400.000
G1 X36.225 Y113.644 F400.000
G1 X36.025 Y113.406 F400.000
G1 X35.731 Y112.994 F400.000
G1 X35.531 Y112.531 F400.000
G1 X35.438 Y112.162 F400.000
G1 X35.406 Y111.662 F400.000
G1 X35.431 Y111.463 F400.000
G1 X35.462 Y111.362 F400.000
G1 X35.525 Y111.287 F400.000
G1 X35.606 Y111.237 F400.000
G1 X35.606 Y111.237 F400.000
G1 X35.962 Y111.281 F400.000
G1 X36.188 Y111.362 F400.000
G1 X36.381 Y111.494 F400.000
(Tool Controller Rapid Values are unset)
 G0 X36.462 Y111.575
(Tool Controller Rapid Values are unset)
 G0 X37.188 Y113.013
G1 X37.237 Y113.125 F400.000
G1 X37.381 Y113.450 F400.000
G1 X37.400 Y113.556 F400.000
G1 X37.388 Y113.656 F400.000
G1 X37.350 Y113.744 F400.000
G1 X37.281 Y113.831 F400.000
G1 X37.100 Y113.963 F400.000
G1 X36.888 Y114.056 F400.000
G1 X36.656 Y114.125 F400.000
G1 X36.656 Y114.125 F400.000
G1 X35.763 Y114.325 F400.000
G1 X35.562 Y114.325 F400.000
G1 X35.462 Y114.306 F400.000
G1 X35.181 Y114.181 F400.000
G1 X35.006 Y114.075 F400.000
G1 X34.600 Y113.775 F400.000
G1 X34.263 Y113.400 F400.000
G1 X34.075 Y113.094 F400.000
G1 X33.956 Y112.838 F400.000
G1 X33.844 Y112.531 F400.000
G1 X33.769 Y112.075 F400.000
G1 X33.750 Y111.737 F400.000
G1 X33.769 Y111.537 F400.000
G1 X33.794 Y111.438 F400.000
G1 X33.837 Y111.344 F400.000
G1 X33.900 Y111.263 F400.000
G1 X33.994 Y111.237 F400.000
G1 X33.994 Y111.237 F400.000
G1 X34.350 Y111.281 F400.000
G1 X34.575 Y111.362 F400.000
G1 X34.775 Y111.487 F400.000
(Tool Controller Rapid Values are unset)
 G0 X34.862 Y111.569
(Tool Controller Rapid Values are unset)
 G0 X35.925 Y113.100
G1 X35.994 Y113.200 F400.000
G1 X36.188 Y113.506 F400.000
G1 X36.231 Y113.606 F400.000
G1 X36.250 Y113.719 F400.000
G1 X36.244 Y113.825 F400.000
G1 X36.212 Y113.931 F400.000
G1 X36.106 Y114.138 F400.000
G1 X35.950 Y114.319 F400.000
G1 X35.775 Y114.481 F400.000
G1 X35.775 Y114.481 F400.000
G1 X35.219 Y114.912 F400.000
G1 X35.038 Y115.006 F400.000
G1 X34.844 Y115.056 F400.000
G1 X34.544 Y115.056 F400.000
G1 X34.244 Y114.987 F400.000
G1 X33.769 Y114.819 F400.000
G1 X33.331 Y114.569 F400.000
G1 X33.019 Y114.306 F400.000
G1 X32.800 Y114.075 F400.000
G1 X32.619 Y113.819 F400.000
G1 X32.288 Y113.169 F400.000
G1 X32.194 Y112.869 F400.000
G1 X32.094 Y112.269 F400.000
G1 X32.062 Y111.469 F400.000
G1 X32.075 Y111.269 F400.000
G1 X32.169 Y111.237 F400.000
G1 X32.263 Y111.237 F400.000
G1 X32.263 Y111.237 F400.000
G1 X32.619 Y111.281 F400.000
G1 X32.844 Y111.362 F400.000
G1 X33.044 Y111.487 F400.000
(Tool Controller Rapid Values are unset)
 G0 X33.144 Y111.562
(Tool Controller Rapid Values are unset)
 G0 X35.038 Y113.531
G1 X35.125 Y113.625 F400.000
G1 X35.369 Y113.894 F400.000
G1 X35.438 Y113.987 F400.000
G1 X35.481 Y114.094 F400.000
G1 X35.506 Y114.206 F400.000
G1 X35.506 Y114.438 F400.000
G1 X35.438 Y114.669 F400.000
G1 X35.275 Y114.994 F400.000
G1 X35.275 Y114.994 F400.000
G1 X35.163 Y115.156 F400.000
G1 X34.931 Y115.588 F400.000
G1 X34.744 Y115.819 F400.000
G1 X34.587 Y115.944 F400.000
G1 X34.194 Y116.062 F400.000
G1 X33.494 Y116.112 F400.000
G1 X32.994 Y116.044 F400.000
G1 X32.575 Y115.900 F400.000
G1 X32.225 Y115.688 F400.000
G1 X32.150 Y115.612 F400.000
G1 X32.038 Y115.438 F400.000
G1 X32.025 Y113.838 F400.000
G1 X32.025 Y113.838 F400.000
G1 X32.069 Y113.469 F400.000
G1 X32.150 Y113.237 F400.000
G1 X32.206 Y113.144 F400.000
G1 X32.275 Y113.081 F400.000
(Tool Controller Rapid Values are unset)
 G0 X32.350 Y113.056
(Tool Controller Rapid Values are unset)
 G0 X32.431 Y113.069
(Tool Controller Rapid Values are unset)
 G0 X32.606 Y113.162
(Tool Controller Rapid Values are unset)
 G0 X34.175 Y114.444
G1 X34.269 Y114.519 F400.000
G1 X34.638 Y114.844 F400.000
G1 X34.775 Y115.037 F400.000
G1 X34.869 Y115.263 F400.000
G1 X34.913 Y115.500 F400.000
G1 X34.913 Y115.869 F400.000
G1 X34.913 Y115.869 F400.000
G1 X34.844 Y116.338 F400.000
G1 X34.750 Y116.619 F400.000
G1 X34.656 Y116.794 F400.000
G1 X34.594 Y116.875 F400.000
G1 X34.356 Y117.056 F400.000
G1 X33.994 Y117.237 F400.000
G1 X33.525 Y117.419 F400.000
G1 X33.031 Y117.506 F400.000
G1 X32.638 Y117.506 F400.000
G1 X32.237 Y117.394 F400.000
G1 X32.150 Y117.338 F400.000
G1 X32.075 Y117.263 F400.000
G1 X32.025 Y117.175 F400.000
G1 X32.025 Y116.875 F400.000
G1 X32.025 Y116.875 F400.000
G1 X32.069 Y116.506 F400.000
G1 X32.150 Y116.275 F400.000
G1 X32.212 Y116.175 F400.000
G1 X32.281 Y116.088 F400.000
(Tool Controller Rapid Values are unset)
 G0 X32.375 Y116.019
(Tool Controller Rapid Values are unset)
 G0 X32.587 Y115.938
(Tool Controller Rapid Values are unset)
 G0 X33.825 Y115.756
G1 X33.950 Y115.744 F400.000
G1 X34.306 Y115.706 F400.000
G1 X34.419 Y115.719 F400.000
G1 X34.519 Y115.756 F400.000
G1 X34.606 Y115.819 F400.000
G1 X34.675 Y115.900 F400.000
G1 X34.788 Y116.106 F400.000
G1 X34.850 Y116.338 F400.000
G1 X34.881 Y116.588 F400.000
G1 X34.881 Y116.588 F400.000
G1 X34.869 Y117.431 F400.000
G1 X34.756 Y117.900 F400.000
G1 X34.625 Y118.162 F400.000
G1 X34.425 Y118.375 F400.000
G1 X34.100 Y118.600 F400.000
G1 X33.562 Y118.881 F400.000
G1 X33.081 Y119.025 F400.000
G1 X32.625 Y119.062 F400.000
G1 X32.225 Y118.981 F400.000
G1 X32.138 Y118.925 F400.000
G1 X32.062 Y118.850 F400.000
G1 X32.025 Y118.756 F400.000
G1 X32.025 Y118.556 F400.000
G1 X32.025 Y118.556 F400.000
G1 X32.069 Y118.188 F400.000
G1 X32.150 Y117.956 F400.000
G1 X32.206 Y117.850 F400.000
G1 X32.281 Y117.763 F400.000
(Tool Controller Rapid Values are unset)
 G0 X32.369 Y117.694
(Tool Controller Rapid Values are unset)
 G0 X32.575 Y117.594
(Tool Controller Rapid Values are unset)
 G0 X33.850 Y117.269
G1 X33.969 Y117.244 F400.000
G1 X34.312 Y117.169 F400.000
G1 X34.419 Y117.175 F400.000
G1 X34.519 Y117.200 F400.000
G1 X34.606 Y117.263 F400.000
G1 X34.675 Y117.338 F400.000
G1 X34.788 Y117.544 F400.000
G1 X34.850 Y117.775 F400.000
G1 X34.881 Y118.025 F400.000
G1 X34.881 Y118.025 F400.000
G1 X34.869 Y118.869 F400.000
G1 X34.775 Y119.338 F400.000
G1 X34.656 Y119.606 F400.000
G1 X34.394 Y119.900 F400.000
G1 X33.638 Y120.394 F400.000
G1 X33.163 Y120.562 F400.000
G1 X32.719 Y120.625 F400.000
G1 X32.319 Y120.562 F400.000
G1 X32.219 Y120.531 F400.000
G1 X32.131 Y120.475 F400.000
G1 X32.056 Y120.400 F400.000
G1 X32.025 Y120.300 F400.000
G1 X32.025 Y120.100 F400.000
G1 X32.025 Y120.100 F400.000
G1 X32.069 Y119.731 F400.000
G1 X32.150 Y119.500 F400.000
G1 X32.212 Y119.394 F400.000
G1 X32.281 Y119.306 F400.000
(Tool Controller Rapid Values are unset)
 G0 X32.369 Y119.231
(Tool Controller Rapid Values are unset)
 G0 X32.575 Y119.125
(Tool Controller Rapid Values are unset)
 G0 X33.856 Y118.744
G1 X33.969 Y118.713 F400.000
G1 X34.319 Y118.625 F400.000
G1 X34.425 Y118.625 F400.000
G1 X34.519 Y118.650 F400.000
G1 X34.606 Y118.706 F400.000
G1 X34.675 Y118.787 F400.000
G1 X34.788 Y118.987 F400.000
G1 X34.850 Y119.219 F400.000
G1 X34.881 Y119.469 F400.000
G1 X34.881 Y119.469 F400.000
G1 X34.869 Y120.406 F400.000
G1 X34.775 Y120.875 F400.000
G1 X34.656 Y121.144 F400.000
G1 X34.394 Y121.438 F400.000
G1 X34.156 Y121.619 F400.000
G1 X33.631 Y121.919 F400.000
G1 X33.163 Y122.088 F400.000
G1 X32.725 Y122.150 F400.000
G1 X32.325 Y122.106 F400.000
G1 X32.225 Y122.081 F400.000
G1 X32.062 Y121.956 F400.000
G1 X32.025 Y121.862 F400.000
G1 X32.025 Y121.662 F400.000
G1 X32.025 Y121.662 F400.000
G1 X32.069 Y121.294 F400.000
G1 X32.150 Y121.062 F400.000
G1 X32.212 Y120.956 F400.000
G1 X32.281 Y120.869 F400.000
(Tool Controller Rapid Values are unset)
 G0 X32.369 Y120.787
(Tool Controller Rapid Values are unset)
 G0 X32.575 Y120.675
(Tool Controller Rapid Values are unset)
 G0 X33.875 Y120.213
G1 X34.000 Y120.169 F400.000
G1 X34.269 Y120.088 F400.000
G1 X34.394 Y120.075 F400.000
G1 X34.500 Y120.100 F400.000
G1 X34.594 Y120.150 F400.000
G1 X34.675 Y120.225 F400.000
G1 X34.737 Y120.319 F400.000
G1 X34.825 Y120.537 F400.000
G1 X34.881 Y120.906 F400.000
G1 X34.881 Y120.906 F400.000
G1 X34.869 Y121.938 F400.000
G1 X34.769 Y122.406 F400.000
G1 X34.656 Y122.681 F400.000
G1 X34.394 Y122.975 F400.000
G1 X34.062 Y123.200 F400.000
G1 X33.619 Y123.438 F400.000
G1 X33.150 Y123.612 F400.000
G1 X32.650 Y123.688 F400.000
G1 X32.250 Y123.625 F400.000
G1 X32.156 Y123.575 F400.000
G1 X32.075 Y123.506 F400.000
G1 X32.025 Y123.412 F400.000
G1 X32.025 Y123.213 F400.000
G1 X32.025 Y123.213 F400.000
G1 X32.069 Y122.844 F400.000
G1 X32.150 Y122.612 F400.000
G1 X32.212 Y122.506 F400.000
G1 X32.281 Y122.419 F400.000
(Tool Controller Rapid Values are unset)
 G0 X32.369 Y122.344
(Tool Controller Rapid Values are unset)
 G0 X32.575 Y122.237
(Tool Controller Rapid Values are unset)
 G0 X33.856 Y121.856
G1 X33.969 Y121.825 F400.000
G1 X34.319 Y121.737 F400.000
G1 X34.425 Y121.737 F400.000
G1 X34.519 Y121.769 F400.000
G1 X34.606 Y121.825 F400.000
G1 X34.675 Y121.906 F400.000
G1 X34.788 Y122.106 F400.000
G1 X34.850 Y122.338 F400.000
G1 X34.881 Y122.588 F400.000
G1 X34.881 Y122.588 F400.000
G1 X34.869 Y123.431 F400.000
G1 X34.775 Y123.900 F400.000
G1 X34.663 Y124.169 F400.000
G1 X34.538 Y124.325 F400.000
G1 X34.156 Y124.656 F400.000
G1 X33.656 Y124.987 F400.000
G1 X33.188 Y125.169 F400.000
G1 X32.819 Y125.231 F400.000
G1 X32.544 Y125.231 F400.000
G1 X32.244 Y125.175 F400.000
G1 X32.150 Y125.125 F400.000
G1 X32.069 Y125.056 F400.000
G1 X32.025 Y124.963 F400.000
G1 X32.025 Y124.763 F400.000
G1 X32.025 Y124.763 F400.000
G1 X32.069 Y124.394 F400.000
G1 X32.150 Y124.162 F400.000
G1 X32.212 Y124.056 F400.000
G1 X32.281 Y123.969 F400.000
(Tool Controller Rapid Values are unset)
 G0 X32.369 Y123.888
(Tool Controller Rapid Values are unset)
 G0 X32.575 Y123.775
(Tool Controller Rapid Values are unset)
 G0 X33.856 Y123.331
G1 X33.969 Y123.294 F400.000
G1 X34.312 Y123.194 F400.000
G1 X34.419 Y123.188 F400.000
G1 X34.513 Y123.213 F400.000
G1 X34.600 Y123.263 F400.000
G1 X34.669 Y123.344 F400.000
G1 X34.781 Y123.544 F400.000
G1 X34.844 Y123.775 F400.000
G1 X34.875 Y124.025 F400.000
G1 X34.875 Y124.025 F400.000
G1 X34.862 Y125.056 F400.000
G1 X34.769 Y125.525 F400.000
G1 X34.594 Y125.875 F400.000
G1 X34.375 Y126.088 F400.000
G1 X33.612 Y126.575 F400.000
G1 X33.138 Y126.737 F400.000
G1 X32.725 Y126.794 F400.000
G1 X32.425 Y126.756 F400.000
G1 X32.225 Y126.700 F400.000
G1 X32.062 Y126.569 F400.000
G1 X32.025 Y126.475 F400.000
G1 X32.025 Y126.375 F400.000
G1 X32.025 Y126.375 F400.000
G1 X32.069 Y126.006 F400.000
G1 X32.150 Y125.775 F400.000
G1 X32.212 Y125.669 F400.000
G1 X32.281 Y125.581 F400.000
(Tool Controller Rapid Values are unset)
 G0 X32.369 Y125.506
(Tool Controller Rapid Values are unset)
 G0 X32.575 Y125.394
(Tool Controller Rapid Values are unset)
 G0 X33.862 Y124.987
G1 X33.994 Y124.950 F400.000
G1 X34.256 Y124.881 F400.000
G1 X34.381 Y124.875 F400.000
G1 X34.494 Y124.894 F400.000
G1 X34.587 Y124.950 F400.000
G1 X34.669 Y125.025 F400.000
G1 X34.731 Y125.119 F400.000
G1 X34.819 Y125.338 F400.000
G1 X34.875 Y125.706 F400.000
G1 X34.875 Y125.706 F400.000
G1 X34.869 Y126.550 F400.000
G1 X34.775 Y127.019 F400.000
G1 X34.663 Y127.287 F400.000
G1 X34.556 Y127.456 F400.000
G1 X34.256 Y127.713 F400.000
G1 X33.556 Y128.119 F400.000
G1 X33.081 Y128.281 F400.000
G1 X32.675 Y128.331 F400.000
G1 X32.275 Y128.281 F400.000
G1 X32.181 Y128.238 F400.000
G1 X32.100 Y128.175 F400.000
G1 X32.031 Y128.094 F400.000
G1 X32.025 Y127.894 F400.000
G1 X32.025 Y127.894 F400.000
G1 X32.069 Y127.525 F400.000
G1 X32.150 Y127.294 F400.000
G1 X32.212 Y127.188 F400.000
G1 X32.281 Y127.100 F400.000
(Tool Controller Rapid Values are unset)
 G0 X32.369 Y127.019
(Tool Controller Rapid Values are unset)
 G0 X32.575 Y126.906
(Tool Controller Rapid Values are unset)
 G0 X33.856 Y126.456
G1 X33.969 Y126.419 F400.000
G1 X34.312 Y126.319 F400.000
G1 X34.419 Y126.312 F400.000
G1 X34.513 Y126.338 F400.000
G1 X34.600 Y126.388 F400.000
G1 X34.669 Y126.469 F400.000
G1 X34.781 Y126.669 F400.000
G1 X34.844 Y126.900 F400.000
G1 X34.875 Y127.150 F400.000
G1 X34.875 Y127.150 F400.000
G1 X34.856 Y128.181 F400.000
G1 X34.744 Y128.650 F400.000
G1 X34.669 Y128.831 F400.000
G1 X34.556 Y128.994 F400.000
G1 X34.337 Y129.200 F400.000
G1 X33.581 Y129.694 F400.000
G1 X33.106 Y129.856 F400.000
G1 X32.750 Y129.900 F400.000
G1 X32.350 Y129.850 F400.000
G1 X32.250 Y129.819 F400.000
G1 X32.081 Y129.694 F400.000
G1 X32.025 Y129.606 F400.000
G1 X32.025 Y129.406 F400.000
G1 X32.025 Y129.406 F400.000
G1 X32.069 Y129.037 F400.000
G1 X32.150 Y128.806 F400.000
G1 X32.212 Y128.700 F400.000
G1 X32.281 Y128.606 F400.000
(Tool Controller Rapid Values are unset)
 G0 X32.369 Y128.531
(Tool Controller Rapid Values are unset)
 G0 X32.575 Y128.406
(Tool Controller Rapid Values are unset)
 G0 X33.856 Y127.919
G1 X33.975 Y127.875 F400.000
G1 X34.312 Y127.763 F400.000
G1 X34.419 Y127.750 F400.000
G1 X34.513 Y127.775 F400.000
G1 X34.600 Y127.825 F400.000
G1 X34.675 Y127.906 F400.000
G1 X34.781 Y128.106 F400.000
G1 X34.844 Y128.338 F400.000
G1 X34.875 Y128.588 F400.000
G1 X34.875 Y128.588 F400.000
G1 X34.862 Y129.713 F400.000
G1 X34.788 Y130.088 F400.000
G1 X34.675 Y130.363 F400.000
G1 X34.562 Y130.531 F400.000
G1 X34.188 Y130.863 F400.000
G1 X33.925 Y131.019 F400.000
G1 X33.475 Y131.238 F400.000
G1 X32.994 Y131.387 F400.000
G1 X32.550 Y131.419 F400.000
G1 X32.150 Y131.338 F400.000
G1 X32.056 Y131.294 F400.000
G1 X31.981 Y131.225 F400.000
G1 X31.925 Y131.137 F400.000
G1 X31.950 Y130.938 F400.000
G1 X31.950 Y130.938 F400.000
G1 X32.031 Y130.575 F400.000
G1 X32.131 Y130.356 F400.000
G1 X32.281 Y130.169 F400.000
(Tool Controller Rapid Values are unset)
 G0 X32.375 Y130.100
(Tool Controller Rapid Values are unset)
 G0 X32.700 Y129.944
(Tool Controller Rapid Values are unset)
 G0 X33.888 Y129.550
G1 X34.006 Y129.512 F400.000
G1 X34.350 Y129.412 F400.000
G1 X34.456 Y129.412 F400.000
G1 X34.550 Y129.438 F400.000
G1 X34.625 Y129.494 F400.000
G1 X34.694 Y129.581 F400.000
G1 X34.794 Y129.787 F400.000
G1 X34.844 Y130.019 F400.000
G1 X34.869 Y130.269 F400.000
G1 X34.869 Y130.269 F400.000
G1 X34.775 Y131.300 F400.000
G1 X34.675 Y131.675 F400.000
G1 X34.500 Y132.031 F400.000
G1 X34.312 Y132.269 F400.000
G1 X33.894 Y132.544 F400.000
G1 X33.144 Y132.838 F400.000
G1 X32.650 Y132.931 F400.000
G1 X32.175 Y132.912 F400.000
G1 X31.694 Y132.725 F400.000
G1 X31.619 Y132.650 F400.000
G1 X31.575 Y132.556 F400.000
G1 X31.569 Y132.456 F400.000
G1 X31.569 Y132.456 F400.000
G1 X31.650 Y132.225 F400.000
G1 X31.769 Y132.012 F400.000
G1 X31.931 Y131.831 F400.000
G1 X32.025 Y131.756 F400.000
(Tool Controller Rapid Values are unset)
 G0 X32.125 Y131.694
(Tool Controller Rapid Values are unset)
 G0 X33.819 Y131.175
G1 X33.938 Y131.144 F400.000
G1 X34.281 Y131.056 F400.000
G1 X34.388 Y131.056 F400.000
G1 X34.475 Y131.088 F400.000
G1 X34.544 Y131.150 F400.000
G1 X34.600 Y131.238 F400.000
G1 X34.675 Y131.456 F400.000
G1 X34.694 Y131.694 F400.000
G1 X34.681 Y131.938 F400.000
G1 X34.681 Y131.938 F400.000
G1 X34.369 Y133.062 F400.000
G1 X34.163 Y133.506 F400.000
G1 X33.987 Y133.750 F400.000
G1 X33.850 Y133.900 F400.000
G1 X33.694 Y134.019 F400.000
G1 X33.425 Y134.150 F400.000
G1 X32.931 Y134.294 F400.000
G1 X32.438 Y134.400 F400.000
G1 X31.938 Y134.406 F400.000
G1 X31.531 Y134.319 F400.000
G1 X31.294 Y134.213 F400.000
G1 X31.038 Y134.037 F400.000
G1 X30.969 Y133.956 F400.000
G1 X30.925 Y133.863 F400.000
G1 X30.913 Y133.762 F400.000
G1 X30.913 Y133.762 F400.000
G1 X31.131 Y133.475 F400.000
G1 X31.319 Y133.319 F400.000
G1 X31.525 Y133.206 F400.000
(Tool Controller Rapid Values are unset)
 G0 X31.637 Y133.162
(Tool Controller Rapid Values are unset)
 G0 X33.456 Y132.894
G1 X33.575 Y132.881 F400.000
G1 X33.931 Y132.844 F400.000
G1 X34.031 Y132.863 F400.000
G1 X34.106 Y132.906 F400.000
G1 X34.163 Y132.981 F400.000
G1 X34.200 Y133.075 F400.000
G1 X34.231 Y133.300 F400.000
G1 X34.200 Y133.537 F400.000
G1 X34.138 Y133.775 F400.000
G1 X34.138 Y133.775 F400.000
G1 X33.538 Y134.912 F400.000
G1 X33.306 Y135.231 F400.000
G1 X33.100 Y135.450 F400.000
G1 X32.862 Y135.631 F400.000
G1 X32.681 Y135.719 F400.000
G1 X32.081 Y135.831 F400.000
G1 X31.381 Y135.844 F400.000
G1 X30.887 Y135.738 F400.000
G1 X30.525 Y135.581 F400.000
G1 X30.294 Y135.425 F400.000
G1 X30.144 Y135.287 F400.000
G1 X30.019 Y135.119 F400.000
G1 X29.994 Y135.019 F400.000
G1 X30.025 Y134.925 F400.000
G1 X30.025 Y134.925 F400.000
G1 X30.325 Y134.719 F400.000
G1 X30.550 Y134.631 F400.000
G1 X30.788 Y134.581 F400.000
(Tool Controller Rapid Values are unset)
 G0 X30.906 Y134.569
(Tool Controller Rapid Values are unset)
 G0 X32.644 Y134.512
G1 X32.769 Y134.512 F400.000
G1 X33.125 Y134.519 F400.000
G1 X33.219 Y134.544 F400.000
G1 X33.294 Y134.600 F400.000
G1 X33.344 Y134.681 F400.000
G1 X33.369 Y134.781 F400.000
G1 X33.375 Y135.006 F400.000
G1 X33.319 Y135.238 F400.000
G1 X33.237 Y135.469 F400.000
G1 X33.237 Y135.469 F400.000
G1 X33.025 Y135.806 F400.000
G1 X32.325 Y136.637 F400.000
G1 X32.006 Y136.881 F400.000
G1 X31.744 Y137.025 F400.000
G1 X31.556 Y137.100 F400.000
G1 X31.256 Y137.156 F400.000
G1 X30.756 Y137.156 F400.000
G1 X30.156 Y137.075 F400.000
G1 X29.681 Y136.900 F400.000
G1 X29.363 Y136.700 F400.000
G1 X29.156 Y136.519 F400.000
G1 X28.962 Y136.275 F400.000
G1 X28.863 Y136.088 F400.000
G1 X28.837 Y135.988 F400.000
G1 X28.844 Y135.887 F400.000
G1 X28.844 Y135.887 F400.000
G1 X29.175 Y135.750 F400.000
G1 X29.413 Y135.706 F400.000
G1 X29.650 Y135.706 F400.000
(Tool Controller Rapid Values are unset)
 G0 X29.769 Y135.719
(Tool Controller Rapid Values are unset)
 G0 X31.581 Y136.106
G1 X31.700 Y136.131 F400.000
G1 X32.044 Y136.219 F400.000
G1 X32.131 Y136.269 F400.000
G1 X32.181 Y136.338 F400.000
G1 X32.206 Y136.425 F400.000
G1 X32.206 Y136.525 F400.000
G1 X32.138 Y136.738 F400.000
G1 X32.013 Y136.938 F400.000
G1 X31.863 Y137.125 F400.000
G1 X31.863 Y137.125 F400.000
G1 X31.044 Y137.869 F400.000
G1 X30.619 Y138.125 F400.000
G1 X30.144 Y138.306 F400.000
G1 X29.844 Y138.363 F400.000
G1 X29.644 Y138.363 F400.000
G1 X29.144 Y138.244 F400.000
G1 X28.494 Y137.944 F400.000
G1 X28.081 Y137.650 F400.000
G1 X27.775 Y137.325 F400.000
G1 X27.519 Y136.875 F400.000
G1 X27.481 Y136.775 F400.000
G1 X27.488 Y136.675 F400.000
G1 X27.544 Y136.588 F400.000
G1 X27.544 Y136.588 F400.000
G1 X27.788 Y136.531 F400.000
G1 X28.069 Y136.531 F400.000
G1 X28.344 Y136.575 F400.000
(Tool Controller Rapid Values are unset)
 G0 X28.469 Y136.619
(Tool Controller Rapid Values are unset)
 G0 X30.087 Y137.369
G1 X30.200 Y137.419 F400.000
G1 X30.512 Y137.588 F400.000
G1 X30.587 Y137.650 F400.000
G1 X30.625 Y137.731 F400.000
G1 X30.631 Y137.825 F400.000
G1 X30.606 Y137.919 F400.000
G1 X30.500 Y138.113 F400.000
G1 X30.337 Y138.281 F400.000
G1 X30.156 Y138.438 F400.000
G1 X30.156 Y138.438 F400.000
G1 X29.288 Y138.956 F400.000
G1 X28.812 Y139.131 F400.000
G1 X28.312 Y139.200 F400.000
G1 X28.012 Y139.188 F400.000
G1 X27.712 Y139.100 F400.000
G1 X27.256 Y138.856 F400.000
G1 X26.837 Y138.581 F400.000
G1 X26.475 Y138.231 F400.000
G1 X26.206 Y137.825 F400.000
G1 X26.062 Y137.456 F400.000
G1 X26.056 Y137.356 F400.000
G1 X26.031 Y137.256 F400.000
G1 X26.025 Y137.156 F400.000
G1 X26.050 Y137.056 F400.000
G1 X26.119 Y136.981 F400.000
G1 X26.119 Y136.981 F400.000
G1 X26.475 Y137.012 F400.000
G1 X26.706 Y137.075 F400.000
G1 X26.919 Y137.181 F400.000
(Tool Controller Rapid Values are unset)
 G0 X27.025 Y137.238
(Tool Controller Rapid Values are unset)
 G0 X28.587 Y138.287
G1 X28.688 Y138.356 F400.000
G1 X28.975 Y138.569 F400.000
G1 X29.038 Y138.644 F400.000
G1 X29.062 Y138.725 F400.000
G1 X29.050 Y138.812 F400.000
G1 X29.006 Y138.900 F400.000
G1 X28.856 Y139.069 F400.000
G1 X28.663 Y139.194 F400.000
G1 X28.450 Y139.306 F400.000
G1 X28.450 Y139.306 F400.000
G1 X27.600 Y139.600 F400.000
G1 X27.125 Y139.787 F400.000
G1 X26.925 Y139.838 F400.000
G1 X26.525 Y139.800 F400.000
G1 X26.225 Y139.719 F400.000
G1 X25.944 Y139.588 F400.000
G1 X25.438 Y139.225 F400.000
G1 X24.994 Y138.812 F400.000
G1 X24.712 Y138.394 F400.000
G1 X24.562 Y138.031 F400.000
G1 X24.488 Y137.662 F400.000
G1 X24.494 Y137.562 F400.000
G1 X24.475 Y137.363 F400.000
G1 X24.488 Y137.262 F400.000
G1 X24.531 Y137.169 F400.000
G1 X24.613 Y137.119 F400.000
G1 X24.613 Y137.119 F400.000
G1 X24.969 Y137.162 F400.000
G1 X25.194 Y137.244 F400.000
G1 X25.400 Y137.363 F400.000
(Tool Controller Rapid Values are unset)
 G0 X25.500 Y137.438
(Tool Controller Rapid Values are unset)
 G0 X27.087 Y138.825
G1 X27.181 Y138.906 F400.000
G1 X27.438 Y139.150 F400.000
G1 X27.494 Y139.238 F400.000
G1 X27.506 Y139.325 F400.000
G1 X27.494 Y139.412 F400.000
G1 X27.444 Y139.506 F400.000
G1 X27.306 Y139.681 F400.000
G1 X26.925 Y139.975 F400.000
G1 X26.925 Y139.975 F400.000
G1 X24.925 Y139.969 F400.000
G1 X24.325 Y139.856 F400.000
G1 X24.038 Y139.738 F400.000
G1 X23.869 Y139.619 F400.000
G1 X23.519 Y139.231 F400.000
G1 X23.188 Y138.719 F400.000
G1 X22.981 Y138.256 F400.000
G1 X22.869 Y137.762 F400.000
G1 X22.869 Y137.363 F400.000
G1 X22.894 Y137.262 F400.000
G1 X22.950 Y137.175 F400.000
G1 X23.031 Y137.119 F400.000
G1 X23.031 Y137.119 F400.000
G1 X23.387 Y137.162 F400.000
G1 X23.613 Y137.244 F400.000
G1 X23.806 Y137.375 F400.000
(Tool Controller Rapid Values are unset)
 G0 X23.887 Y137.456
(Tool Controller Rapid Values are unset)
 G0 X24.812 Y139.012
G1 X24.875 Y139.119 F400.000
G1 X25.038 Y139.431 F400.000
G1 X25.062 Y139.531 F400.000
G1 X25.050 Y139.625 F400.000
G1 X25.006 Y139.700 F400.000
G1 X24.938 Y139.775 F400.000
G1 X24.744 Y139.881 F400.000
G1 X24.512 Y139.944 F400.000
G1 X24.281 Y139.975 F400.000
G1 X24.281 Y139.975 F400.000
G1 X23.181 Y139.963 F400.000
G1 X22.781 Y139.894 F400.000
G1 X22.394 Y139.750 F400.000
G1 X22.219 Y139.644 F400.000
G1 X22.000 Y139.419 F400.000
G1 X21.806 Y139.169 F400.000
G1 X21.531 Y138.744 F400.000
G1 X21.337 Y138.281 F400.000
G1 X21.244 Y137.781 F400.000
G1 X21.244 Y137.381 F400.000
G1 X21.262 Y137.281 F400.000
G1 X21.312 Y137.194 F400.000
G1 X21.381 Y137.119 F400.000
G1 X21.381 Y137.119 F400.000
G1 X21.738 Y137.162 F400.000
G1 X21.962 Y137.244 F400.000
G1 X22.156 Y137.369 F400.000
(Tool Controller Rapid Values are unset)
 G0 X22.238 Y137.456
(Tool Controller Rapid Values are unset)
 G0 X23.144 Y139.012
G1 X23.206 Y139.119 F400.000
G1 X23.363 Y139.431 F400.000
G1 X23.387 Y139.531 F400.000
G1 X23.375 Y139.619 F400.000
G1 X23.331 Y139.700 F400.000
G1 X23.262 Y139.775 F400.000
G1 X23.069 Y139.881 F400.000
G1 X22.837 Y139.944 F400.000
G1 X22.606 Y139.975 F400.000
G1 X22.606 Y139.975 F400.000
G1 X21.506 Y139.963 F400.000
G1 X21.006 Y139.863 F400.000
G1 X20.719 Y139.738 F400.000
G1 X20.631 Y139.681 F400.000
G1 X20.206 Y139.225 F400.000
G1 X19.863 Y138.725 F400.000
G1 X19.681 Y138.256 F400.000
G1 X19.600 Y137.794 F400.000
G1 X19.600 Y137.394 F400.000
G1 X19.613 Y137.294 F400.000
G1 X19.656 Y137.200 F400.000
G1 X19.725 Y137.125 F400.000
G1 X19.725 Y137.125 F400.000
G1 X20.081 Y137.169 F400.000
G1 X20.306 Y137.250 F400.000
G1 X20.500 Y137.381 F400.000
(Tool Controller Rapid Values are unset)
 G0 X20.587 Y137.463
(Tool Controller Rapid Values are unset)
 G0 X21.469 Y139.000
G1 X21.525 Y139.113 F400.000
G1 X21.688 Y139.431 F400.000
G1 X21.706 Y139.531 F400.000
G1 X21.694 Y139.619 F400.000
G1 X21.650 Y139.700 F400.000
G1 X21.581 Y139.775 F400.000
G1 X21.387 Y139.881 F400.000
G1 X21.156 Y139.944 F400.000
G1 X20.925 Y139.975 F400.000
G1 X20.925 Y139.975 F400.000
G1 X19.825 Y139.963 F400.000
G1 X19.425 Y139.887 F400.000
G1 X19.131 Y139.775 F400.000
G1 X18.950 Y139.662 F400.000
G1 X18.731 Y139.438 F400.000
G1 X18.475 Y139.100 F400.000
G1 X18.212 Y138.669 F400.000
G1 X18.038 Y138.194 F400.000
G1 X17.962 Y137.706 F400.000
G1 X17.981 Y137.306 F400.000
G1 X18.025 Y137.213 F400.000
G1 X18.087 Y137.137 F400.000
G1 X18.181 Y137.119 F400.000
G1 X18.181 Y137.119 F400.000
G1 X18.538 Y137.162 F400.000
G1 X18.762 Y137.244 F400.000
G1 X18.956 Y137.375 F400.000
(Tool Controller Rapid Values are unset)
 G0 X19.038 Y137.456
(Tool Controller Rapid Values are unset)
 G0 X19.819 Y138.988
G1 X19.869 Y139.100 F400.000
G1 X20.019 Y139.425 F400.000
G1 X20.031 Y139.525 F400.000
G1 X20.019 Y139.619 F400.000
G1 X19.969 Y139.700 F400.000
G1 X19.900 Y139.775 F400.000
G1 X19.706 Y139.881 F400.000
G1 X19.475 Y139.944 F400.000
G1 X19.244 Y139.975 F400.000
G1 X19.244 Y139.975 F400.000
G1 X18.244 Y139.963 F400.000
G1 X17.744 Y139.869 F400.000
G1 X17.450 Y139.756 F400.000
G1 X17.131 Y139.494 F400.000
G1 X16.869 Y139.169 F400.000
G1 X16.606 Y138.738 F400.000
G1 X16.425 Y138.269 F400.000
G1 X16.344 Y137.844 F400.000
G1 X16.344 Y137.344 F400.000
G1 X16.369 Y137.244 F400.000
G1 X16.425 Y137.162 F400.000
G1 X16.512 Y137.119 F400.000
G1 X16.512 Y137.119 F400.000
G1 X16.869 Y137.162 F400.000
G1 X17.094 Y137.244 F400.000
G1 X17.288 Y137.375 F400.000
(Tool Controller Rapid Values are unset)
 G0 X17.369 Y137.456
(Tool Controller Rapid Values are unset)
 G0 X18.144 Y138.988
G1 X18.194 Y139.100 F400.000
G1 X18.337 Y139.425 F400.000
G1 X18.356 Y139.525 F400.000
G1 X18.337 Y139.619 F400.000
G1 X18.294 Y139.700 F400.000
G1 X18.219 Y139.775 F400.000
G1 X18.025 Y139.881 F400.000
G1 X17.794 Y139.944 F400.000
G1 X17.562 Y139.975 F400.000
G1 X17.562 Y139.975 F400.000
G1 X16.562 Y139.963 F400.000
G1 X16.163 Y139.887 F400.000
G1 X15.875 Y139.775 F400.000
G1 X15.694 Y139.669 F400.000
G1 X15.544 Y139.531 F400.000
G1 X15.281 Y139.206 F400.000
G1 X14.969 Y138.681 F400.000
G1 X14.787 Y138.213 F400.000
G1 X14.706 Y137.662 F400.000
G1 X14.713 Y137.363 F400.000
G1 X14.738 Y137.262 F400.000
G1 X14.794 Y137.175 F400.000
G1 X14.875 Y137.119 F400.000
G1 X14.875 Y137.119 F400.000
G1 X15.231 Y137.162 F400.000
G1 X15.456 Y137.244 F400.000
G1 X15.650 Y137.375 F400.000
(Tool Controller Rapid Values are unset)
 G0 X15.725 Y137.456
(Tool Controller Rapid Values are unset)
 G0 X16.469 Y138.988
G1 X16.519 Y139.094 F400.000
G1 X16.656 Y139.425 F400.000
G1 X16.675 Y139.525 F400.000
G1 X16.656 Y139.619 F400.000
G1 X16.613 Y139.700 F400.000
G1 X16.538 Y139.775 F400.000
G1 X16.344 Y139.881 F400.000
G1 X16.113 Y139.944 F400.000
G1 X15.881 Y139.975 F400.000
G1 X15.881 Y139.975 F400.000
G1 X14.981 Y139.963 F400.000
G1 X14.481 Y139.869 F400.000
G1 X14.188 Y139.756 F400.000
G1 X14.019 Y139.637 F400.000
G1 X13.800 Y139.406 F400.000
G1 X13.613 Y139.156 F400.000
G1 X13.344 Y138.731 F400.000
G1 X13.156 Y138.262 F400.000
G1 X13.062 Y137.750 F400.000
G1 X13.069 Y137.350 F400.000
G1 X13.094 Y137.250 F400.000
G1 X13.150 Y137.169 F400.000
G1 X13.231 Y137.119 F400.000
G1 X13.231 Y137.119 F400.000
G1 X13.588 Y137.162 F400.000
G1 X13.812 Y137.244 F400.000
G1 X14.006 Y137.369 F400.000
(Tool Controller Rapid Values are unset)
 G0 X14.088 Y137.456
(Tool Controller Rapid Values are unset)
 G0 X14.988 Y139.012
G1 X15.044 Y139.119 F400.000
G1 X15.206 Y139.431 F400.000
G1 X15.225 Y139.531 F400.000
G1 X15.213 Y139.619 F400.000
G1 X15.169 Y139.700 F400.000
G1 X15.100 Y139.775 F400.000
G1 X14.906 Y139.881 F400.000
G1 X14.675 Y139.944 F400.000
G1 X14.444 Y139.975 F400.000
G1 X14.444 Y139.975 F400.000
G1 X13.344 Y139.969 F400.000
G1 X12.844 Y139.875 F400.000
G1 X12.550 Y139.762 F400.000
G1 X12.375 Y139.650 F400.000
G1 X12.156 Y139.431 F400.000
G1 X11.688 Y138.756 F400.000
G1 X11.506 Y138.287 F400.000
G1 X11.412 Y137.781 F400.000
G1 X11.431 Y137.281 F400.000
G1 X11.475 Y137.194 F400.000
G1 X11.544 Y137.125 F400.000
G1 X11.544 Y137.125 F400.000
G1 X11.900 Y137.169 F400.000
G1 X12.125 Y137.250 F400.000
G1 X12.319 Y137.375 F400.000
(Tool Controller Rapid Values are unset)
 G0 X12.400 Y137.456
(Tool Controller Rapid Values are unset)
 G0 X13.300 Y139.012
G1 X13.363 Y139.119 F400.000
G1 X13.519 Y139.431 F400.000
G1 X13.544 Y139.531 F400.000
G1 X13.531 Y139.619 F400.000
G1 X13.488 Y139.700 F400.000
G1 X13.419 Y139.775 F400.000
G1 X13.225 Y139.881 F400.000
G1 X12.994 Y139.944 F400.000
G1 X12.762 Y139.975 F400.000
G1 X12.762 Y139.975 F400.000
G1 X11.662 Y139.963 F400.000
G1 X11.162 Y139.863 F400.000
G1 X10.875 Y139.738 F400.000
G1 X10.787 Y139.681 F400.000
G1 X10.494 Y139.375 F400.000
G1 X10.312 Y139.125 F400.000
G1 X10.050 Y138.694 F400.000
G1 X9.869 Y138.225 F400.000
G1 X9.787 Y137.681 F400.000
G1 X9.787 Y137.381 F400.000
G1 X9.806 Y137.281 F400.000
G1 X9.919 Y137.119 F400.000
G1 X9.919 Y137.119 F400.000
G1 X10.275 Y137.162 F400.000
G1 X10.500 Y137.244 F400.000
G1 X10.694 Y137.375 F400.000
(Tool Controller Rapid Values are unset)
 G0 X10.775 Y137.456
(Tool Controller Rapid Values are unset)
 G0 X11.631 Y138.994
G1 X11.688 Y139.106 F400.000
G1 X11.844 Y139.431 F400.000
G1 X11.869 Y139.531 F400.000
G1 X11.856 Y139.619 F400.000
G1 X11.806 Y139.700 F400.000
G1 X11.738 Y139.775 F400.000
G1 X11.544 Y139.881 F400.000
G1 X11.312 Y139.944 F400.000
G1 X11.081 Y139.975 F400.000
G1 X11.081 Y139.975 F400.000
G1 X10.081 Y139.963 F400.000
G1 X9.581 Y139.869 F400.000
G1 X9.287 Y139.756 F400.000
G1 X8.969 Y139.500 F400.000
G1 X8.706 Y139.181 F400.000
G1 X8.387 Y138.662 F400.000
G1 X8.219 Y138.188 F400.000
G1 X8.150 Y137.688 F400.000
G1 X8.150 Y137.387 F400.000
G1 X8.169 Y137.287 F400.000
G1 X8.213 Y137.194 F400.000
G1 X8.281 Y137.119 F400.000
G1 X8.281 Y137.119 F400.000
G1 X8.637 Y137.162 F400.000
G1 X8.863 Y137.244 F400.000
G1 X9.056 Y137.375 F400.000
(Tool Controller Rapid Values are unset)
 G0 X9.137 Y137.456
(Tool Controller Rapid Values are unset)
 G0 X9.963 Y138.994
G1 X10.019 Y139.106 F400.000
G1 X10.175 Y139.431 F400.000
G1 X10.194 Y139.531 F400.000
G1 X10.181 Y139.619 F400.000
G1 X10.131 Y139.700 F400.000
G1 X10.062 Y139.775 F400.000
G1 X9.869 Y139.881 F400.000
G1 X9.637 Y139.944 F400.000
G1 X9.406 Y139.975 F400.000
G1 X9.406 Y139.975 F400.000
G1 X8.406 Y139.963 F400.000
G1 X7.906 Y139.863 F400.000
G1 X7.619 Y139.738 F400.000
G1 X7.531 Y139.681 F400.000
G1 X7.169 Y139.300 F400.000
G1 X7.050 Y139.131 F400.000
G1 X6.794 Y138.700 F400.000
G1 X6.606 Y138.231 F400.000
G1 X6.525 Y137.769 F400.000
G1 X6.525 Y137.369 F400.000
G1 X6.556 Y137.269 F400.000
G1 X6.612 Y137.181 F400.000
G1 X6.688 Y137.119 F400.000
G1 X6.688 Y137.119 F400.000
G1 X7.044 Y137.162 F400.000
G1 X7.269 Y137.244 F400.000
G1 X7.463 Y137.375 F400.000
(Tool Controller Rapid Values are unset)
 G0 X7.544 Y137.456
(Tool Controller Rapid Values are unset)
 G0 X8.306 Y138.988
G1 X8.356 Y139.094 F400.000
G1 X8.500 Y139.425 F400.000
G1 X8.519 Y139.525 F400.000
G1 X8.500 Y139.619 F400.000
G1 X8.456 Y139.700 F400.000
G1 X8.381 Y139.775 F400.000
G1 X8.188 Y139.881 F400.000
G1 X7.956 Y139.944 F400.000
G1 X7.725 Y139.975 F400.000
G1 X7.725 Y139.975 F400.000
G1 X6.825 Y139.969 F400.000
G1 X6.325 Y139.875 F400.000
G1 X6.037 Y139.769 F400.000
G1 X5.862 Y139.656 F400.000
G1 X5.569 Y139.356 F400.000
G1 X5.388 Y139.100 F400.000
G1 X5.144 Y138.662 F400.000
G1 X4.975 Y138.188 F400.000
G1 X4.894 Y137.662 F400.000
G1 X4.919 Y137.363 F400.000
G1 X4.944 Y137.262 F400.000
G1 X5.000 Y137.181 F400.000
G1 X5.075 Y137.119 F400.000
G1 X5.075 Y137.119 F400.000
G1 X5.431 Y137.162 F400.000
G1 X5.656 Y137.244 F400.000
G1 X5.850 Y137.369 F400.000
(Tool Controller Rapid Values are unset)
 G0 X5.931 Y137.456
(Tool Controller Rapid Values are unset)
 G0 X6.825 Y139.012
G1 X6.888 Y139.119 F400.000
G1 X7.044 Y139.431 F400.000
G1 X7.062 Y139.531 F400.000
G1 X7.050 Y139.619 F400.000
G1 X7.006 Y139.700 F400.000
G1 X6.938 Y139.775 F400.000
G1 X6.744 Y139.881 F400.000
G1 X6.513 Y139.944 F400.000
G1 X6.281 Y139.975 F400.000
G1 X6.281 Y139.975 F400.000
G1 X5.181 Y139.969 F400.000
G1 X4.681 Y139.875 F400.000
G1 X4.388 Y139.762 F400.000
G1 X4.213 Y139.662 F400.000
G1 X4.131 Y139.594 F400.000
G1 X3.862 Y139.269 F400.000
G1 X3.694 Y139.006 F400.000
G1 X3.456 Y138.562 F400.000
G1 X3.312 Y138.081 F400.000
G1 X3.269 Y137.581 F400.000
G1 X3.294 Y137.281 F400.000
G1 X3.344 Y137.081 F400.000
G1 X3.406 Y137.000 F400.000
G1 X3.481 Y136.938 F400.000
G1 X3.481 Y136.938 F400.000
G1 X3.769 Y137.062 F400.000
G1 X3.987 Y137.213 F400.000
G1 X4.156 Y137.387 F400.000
(Tool Controller Rapid Values are unset)
 G0 X4.225 Y137.488
(Tool Controller Rapid Values are unset)
 G0 X4.963 Y139.012
G1 X5.013 Y139.119 F400.000
G1 X5.156 Y139.444 F400.000
G1 X5.169 Y139.544 F400.000
G1 X5.150 Y139.631 F400.000
G1 X5.100 Y139.713 F400.000
G1 X5.025 Y139.775 F400.000
G1 X4.825 Y139.869 F400.000
G1 X4.600 Y139.912 F400.000
G1 X4.362 Y139.931 F400.000
G1 X4.362 Y139.931 F400.000
G1 X3.462 Y139.863 F400.000
G1 X2.969 Y139.713 F400.000
G1 X2.519 Y139.463 F400.000
G1 X2.281 Y139.256 F400.000
G1 X1.950 Y138.731 F400.000
G1 X1.869 Y138.537 F400.000
G1 X1.706 Y138.062 F400.000
G1 X1.637 Y137.562 F400.000
G1 X1.669 Y137.144 F400.000
G1 X1.744 Y136.850 F400.000
G1 X1.869 Y136.569 F400.000
G1 X2.031 Y136.456 F400.000
G1 X2.031 Y136.456 F400.000
G1 X2.256 Y136.625 F400.000
G1 X2.450 Y136.825 F400.000
G1 X2.581 Y137.044 F400.000
(Tool Controller Rapid Values are unset)
 G0 X2.638 Y137.156
(Tool Controller Rapid Values are unset)
 G0 X3.188 Y138.844
G1 X3.225 Y138.963 F400.000
G1 X3.325 Y139.306 F400.000
G1 X3.331 Y139.400 F400.000
G1 X3.300 Y139.488 F400.000
G1 X3.237 Y139.550 F400.000
G1 X3.156 Y139.600 F400.000
G1 X3.050 Y139.631 F400.000
G1 X2.931 Y139.650 F400.000
G1 X2.481 Y139.619 F400.000
G1 X2.481 Y139.619 F400.000
G1 X1.387 Y139.287 F400.000
G1 X1.025 Y139.075 F400.000
G1 X0.644 Y138.725 F400.000
G1 X0.525 Y138.556 F400.000
G1 X0.438 Y138.369 F400.000
G1 X0.237 Y137.781 F400.000
G1 X0.144 Y137.287 F400.000
G1 X0.150 Y136.787 F400.000
G1 X0.231 Y136.400 F400.000
G1 X0.338 Y136.137 F400.000
G1 X0.556 Y135.800 F400.000
G1 X0.644 Y135.750 F400.000
G1 X0.738 Y135.725 F400.000
G1 X0.825 Y135.769 F400.000
G1 X0.825 Y135.769 F400.000
G1 X0.994 Y135.931 F400.000
G1 X1.131 Y136.125 F400.000
G1 X1.231 Y136.338 F400.000
G1 X1.262 Y136.456 F400.000
(Tool Controller Rapid Values are unset)
 G0 X1.294 Y136.569
(Tool Controller Rapid Values are unset)
 G0 X1.519 Y138.381
G1 X1.538 Y138.500 F400.000
G1 X1.569 Y138.856 F400.000
G1 X1.550 Y138.950 F400.000
G1 X1.506 Y139.025 F400.000
G1 X1.438 Y139.075 F400.000
G1 X1.344 Y139.100 F400.000
G1 X1.125 Y139.106 F400.000
G1 X0.900 Y139.050 F400.000
G1 X0.681 Y138.969 F400.000
G1 X0.681 Y138.969 F400.000
G1 X-0.325 Y138.425 F400.000
G1 X-0.569 Y138.250 F400.000
G1 X-0.844 Y137.969 F400.000
G1 X-1.025 Y137.725 F400.000
G1 X-1.156 Y137.450 F400.000
G1 X-1.281 Y136.850 F400.000
G1 X-1.300 Y136.650 F400.000
G1 X-1.294 Y136.150 F400.000
G1 X-1.188 Y135.656 F400.000
G1 X-1.050 Y135.350 F400.000
G1 X-0.925 Y135.125 F400.000
G1 X-0.706 Y134.894 F400.000
G1 X-0.537 Y134.762 F400.000
G1 X-0.438 Y134.731 F400.000
G1 X-0.338 Y134.725 F400.000
G1 X-0.256 Y134.781 F400.000
G1 X-0.119 Y134.925 F400.000
G1 X-0.119 Y134.925 F400.000
G1 X0.019 Y135.131 F400.000
G1 X0.125 Y135.387 F400.000
G1 X0.188 Y135.662 F400.000
(Tool Controller Rapid Values are unset)
 G0 X0.200 Y135.794
(Tool Controller Rapid Values are unset)
 G0 X0.025 Y137.569
G1 X0.013 Y137.694 F400.000
G1 X-0.031 Y138.044 F400.000
G1 X-0.069 Y138.137 F400.000
G1 X-0.131 Y138.200 F400.000
G1 X-0.219 Y138.238 F400.000
G1 X-0.319 Y138.244 F400.000
G1 X-0.537 Y138.206 F400.000
G1 X-0.750 Y138.113 F400.000
G1 X-0.963 Y137.994 F400.000
G1 X-0.963 Y137.994 F400.000
G1 X-1.738 Y137.369 F400.000
G1 X-2.200 Y136.856 F400.000
G1 X-2.506 Y136.344 F400.000
G1 X-2.600 Y136.056 F400.000
G1 X-2.625 Y135.456 F400.000
G1 X-2.556 Y135.056 F400.000
G1 X-2.425 Y134.569 F400.000
G1 X-2.175 Y134.131 F400.000
G1 X-1.962 Y133.881 F400.000
G1 X-1.756 Y133.700 F400.000
G1 X-1.394 Y133.494 F400.000
G1 X-1.294 Y133.488 F400.000
G1 X-1.194 Y133.506 F400.000
G1 X-1.119 Y133.569 F400.000
G1 X-1.069 Y133.656 F400.000
G1 X-1.069 Y133.656 F400.000
G1 X-0.931 Y133.988 F400.000
G1 X-0.887 Y134.225 F400.000
G1 X-0.894 Y134.463 F400.000
(Tool Controller Rapid Values are unset)
 G0 X-0.912 Y134.581
(Tool Controller Rapid Values are unset)
 G0 X-1.444 Y136.256
G1 X-1.481 Y136.375 F400.000
G1 X-1.606 Y136.713 F400.000
G1 X-1.669 Y136.794 F400.000
G1 X-1.744 Y136.844 F400.000
G1 X-1.831 Y136.869 F400.000
G1 X-1.931 Y136.863 F400.000
G1 X-2.144 Y136.794 F400.000
G1 X-2.350 Y136.669 F400.000
G1 X-2.538 Y136.519 F400.000
G1 X-2.538 Y136.519 F400.000
G1 X-3.112 Y135.819 F400.000
G1 X-3.462 Y135.206 F400.000
G1 X-3.612 Y134.825 F400.000
G1 X-3.694 Y134.425 F400.000
G1 X-3.694 Y134.225 F400.000
G1 X-3.638 Y133.925 F400.000
G1 X-3.469 Y133.438 F400.000
G1 X-3.237 Y132.988 F400.000
G1 X-2.919 Y132.594 F400.000
G1 X-2.644 Y132.363 F400.000
G1 X-2.312 Y132.181 F400.000
G1 X-2.019 Y132.081 F400.000
G1 X-1.919 Y132.081 F400.000
G1 X-1.819 Y132.113 F400.000
G1 X-1.756 Y132.188 F400.000
G1 X-1.756 Y132.188 F400.000
G1 X-1.700 Y132.431 F400.000
G1 X-1.700 Y132.713 F400.000
G1 X-1.750 Y132.981 F400.000
(Tool Controller Rapid Values are unset)
 G0 X-1.788 Y133.106
(Tool Controller Rapid Values are unset)
 G0 X-2.650 Y134.706
G1 X-2.706 Y134.806 F400.000
G1 X-2.894 Y135.113 F400.000
G1 X-2.962 Y135.181 F400.000
G1 X-3.044 Y135.219 F400.000
G1 X-3.138 Y135.225 F400.000
G1 X-3.237 Y135.200 F400.000
G1 X-3.431 Y135.088 F400.000
G1 X-3.600 Y134.925 F400.000
G1 X-3.756 Y134.744 F400.000
G1 X-3.756 Y134.744 F400.000
G1 X-4.181 Y133.938 F400.000
G1 X-4.444 Y132.963 F400.000
G1 X-4.475 Y132.562 F400.000
G1 X-4.419 Y132.262 F400.000
G1 X-4.294 Y131.981 F400.000
G1 X-4.062 Y131.637 F400.000
G1 X-3.669 Y131.169 F400.000
G1 X-3.269 Y130.863 F400.000
G1 X-2.875 Y130.662 F400.000
G1 X-2.494 Y130.562 F400.000
G1 X-2.294 Y130.544 F400.000
G1 X-2.194 Y130.562 F400.000
G1 X-2.106 Y130.606 F400.000
G1 X-2.056 Y130.688 F400.000
G1 X-2.056 Y130.688 F400.000
G1 X-2.044 Y130.925 F400.000
G1 X-2.075 Y131.169 F400.000
G1 X-2.150 Y131.394 F400.000
G1 X-2.206 Y131.500 F400.000
(Tool Controller Rapid Values are unset)
 G0 X-2.269 Y131.600
(Tool Controller Rapid Values are unset)
 G0 X-3.481 Y132.963
G1 X-3.569 Y133.050 F400.000
G1 X-3.812 Y133.306 F400.000
G1 X-3.900 Y133.356 F400.000
G1 X-3.994 Y133.375 F400.000
G1 X-4.088 Y133.356 F400.000
G1 X-4.175 Y133.312 F400.000
G1 X-4.338 Y133.162 F400.000
G1 X-4.469 Y132.969 F400.000
G1 X-4.581 Y132.756 F400.000
G1 X-4.581 Y132.756 F400.000
G1 X-4.769 Y132.069 F400.000
G1 X-4.856 Y131.069 F400.000
G1 X-4.794 Y130.569 F400.000
G1 X-4.737 Y130.369 F400.000
G1 X-4.644 Y130.181 F400.000
G1 X-4.150 Y129.644 F400.000
G1 X-3.750 Y129.331 F400.000
G1 X-3.300 Y129.100 F400.000
G1 X-2.950 Y129.000 F400.000
G1 X-2.569 Y128.956 F400.000
G1 X-2.369 Y128.956 F400.000
G1 X-2.269 Y128.981 F400.000
G1 X-2.181 Y129.031 F400.000
G1 X-2.112 Y129.100 F400.000
G1 X-2.112 Y129.100 F400.000
G1 X-2.156 Y129.381 F400.000
G1 X-2.250 Y129.644 F400.000
G1 X-2.381 Y129.863 F400.000
(Tool Controller Rapid Values are unset)
 G0 X-2.456 Y129.950
(Tool Controller Rapid Values are unset)
 G0 X-3.919 Y131.050
G1 X-4.013 Y131.119 F400.000
G1 X-4.306 Y131.319 F400.000
G1 X-4.400 Y131.356 F400.000
G1 X-4.494 Y131.356 F400.000
G1 X-4.575 Y131.319 F400.000
G1 X-4.656 Y131.256 F400.000
G1 X-4.781 Y131.075 F400.000
G1 X-4.869 Y130.863 F400.000
G1 X-4.931 Y130.631 F400.000
G1 X-4.931 Y130.631 F400.000
G1 X-4.981 Y129.531 F400.000
G1 X-4.931 Y129.031 F400.000
G1 X-4.856 Y128.731 F400.000
G1 X-4.731 Y128.444 F400.000
G1 X-4.450 Y128.131 F400.000
G1 X-4.119 Y127.869 F400.000
G1 X-3.694 Y127.594 F400.000
G1 X-3.225 Y127.419 F400.000
G1 X-2.837 Y127.344 F400.000
G1 X-2.337 Y127.350 F400.000
G1 X-2.244 Y127.381 F400.000
G1 X-2.163 Y127.444 F400.000
G1 X-2.112 Y127.525 F400.000
G1 X-2.112 Y127.525 F400.000
G1 X-2.156 Y127.806 F400.000
G1 X-2.250 Y128.069 F400.000
G1 X-2.381 Y128.281 F400.000
(Tool Controller Rapid Values are unset)
 G0 X-2.469 Y128.369
(Tool Controller Rapid Values are unset)
 G0 X-4.006 Y129.256
G1 X-4.119 Y129.312 F400.000
G1 X-4.438 Y129.475 F400.000
G1 X-4.537 Y129.494 F400.000
G1 X-4.625 Y129.481 F400.000
G1 X-4.706 Y129.438 F400.000
G1 X-4.781 Y129.369 F400.000
G1 X-4.888 Y129.175 F400.000
G1 X-4.950 Y128.944 F400.000
G1 X-4.981 Y128.713 F400.000
G1 X-4.981 Y128.713 F400.000
G1 X-4.969 Y127.612 F400.000
G1 X-4.900 Y127.213 F400.000
G1 X-4.756 Y126.825 F400.000
G1 X-4.631 Y126.656 F400.000
G1 X-4.244 Y126.306 F400.000
G1 X-3.737 Y125.963 F400.000
G1 X-3.269 Y125.781 F400.000
G1 X-2.888 Y125.713 F400.000
G1 X-2.487 Y125.706 F400.000
G1 X-2.288 Y125.737 F400.000
G1 X-2.200 Y125.787 F400.000
G1 X-2.125 Y125.856 F400.000
G1 X-2.112 Y125.950 F400.000
G1 X-2.112 Y125.950 F400.000
G1 X-2.156 Y126.231 F400.000
G1 X-2.250 Y126.494 F400.000
G1 X-2.312 Y126.606 F400.000
G1 X-2.381 Y126.706 F400.000
(Tool Controller Rapid Values are unset)
 G0 X-2.469 Y126.794
(Tool Controller Rapid Values are unset)
 G0 X-3.994 Y127.606
G1 X-4.106 Y127.656 F400.000
G1 X-4.431 Y127.806 F400.000
G1 X-4.531 Y127.825 F400.000
G1 X-4.625 Y127.812 F400.000
G1 X-4.706 Y127.763 F400.000
G1 X-4.781 Y127.694 F400.000
G1 X-4.888 Y127.500 F400.000
G1 X-4.950 Y127.269 F400.000
G1 X-4.981 Y127.037 F400.000
G1 X-4.981 Y127.037 F400.000
G1 X-4.969 Y125.938 F400.000
G1 X-4.875 Y125.438 F400.000
G1 X-4.800 Y125.237 F400.000
G1 X-4.694 Y125.056 F400.000
G1 X-4.400 Y124.769 F400.000
G1 X-4.150 Y124.588 F400.000
G1 X-3.712 Y124.331 F400.000
G1 X-3.244 Y124.150 F400.000
G1 X-2.700 Y124.069 F400.000
G1 X-2.400 Y124.075 F400.000
G1 X-2.300 Y124.094 F400.000
G1 X-2.138 Y124.206 F400.000
G1 X-2.112 Y124.300 F400.000
G1 X-2.112 Y124.300 F400.000
G1 X-2.156 Y124.581 F400.000
G1 X-2.250 Y124.844 F400.000
G1 X-2.312 Y124.956 F400.000
G1 X-2.381 Y125.056 F400.000
(Tool Controller Rapid Values are unset)
 G0 X-2.469 Y125.138
(Tool Controller Rapid Values are unset)
 G0 X-3.994 Y125.931
G1 X-4.106 Y125.981 F400.000
G1 X-4.431 Y126.131 F400.000
G1 X-4.531 Y126.144 F400.000
G1 X-4.625 Y126.131 F400.000
G1 X-4.706 Y126.081 F400.000
G1 X-4.781 Y126.013 F400.000
G1 X-4.888 Y125.819 F400.000
G1 X-4.950 Y125.588 F400.000
G1 X-4.981 Y125.356 F400.000
G1 X-4.981 Y125.356 F400.000
G1 X-4.969 Y124.356 F400.000
G1 X-4.850 Y123.756 F400.000
G1 X-4.775 Y123.562 F400.000
G1 X-4.588 Y123.319 F400.000
G1 X-4.188 Y122.981 F400.000
G1 X-3.663 Y122.669 F400.000
G1 X-3.188 Y122.500 F400.000
G1 X-2.675 Y122.438 F400.000
G1 X-2.375 Y122.450 F400.000
G1 X-2.275 Y122.481 F400.000
G1 X-2.119 Y122.606 F400.000
G1 X-2.112 Y122.700 F400.000
G1 X-2.112 Y122.700 F400.000
G1 X-2.156 Y122.981 F400.000
G1 X-2.250 Y123.244 F400.000
G1 X-2.312 Y123.356 F400.000
G1 X-2.381 Y123.456 F400.000
(Tool Controller Rapid Values are unset)
 G0 X-2.469 Y123.537
(Tool Controller Rapid Values are unset)
 G0 X-2.775 Y123.719
(Tool Controller Rapid Values are unset)
 G0 X-3.994 Y124.269
G1 X-4.100 Y124.319 F400.000
G1 X-4.431 Y124.450 F400.000
G1 X-4.531 Y124.469 F400.000
G1 X-4.625 Y124.450 F400.000
G1 X-4.706 Y124.406 F400.000
G1 X-4.781 Y124.331 F400.000
G1 X-4.888 Y124.138 F400.000
G1 X-4.950 Y123.906 F400.000
G1 X-4.981 Y123.675 F400.000
G1 X-4.981 Y123.675 F400.000
G1 X-4.969 Y122.675 F400.000
G1 X-4.875 Y122.175 F400.000
G1 X-4.800 Y121.975 F400.000
G1 X-4.694 Y121.794 F400.000
G1 X-4.481 Y121.569 F400.000
G1 X-4.144 Y121.319 F400.000
G1 X-3.719 Y121.050 F400.000
G1 X-3.244 Y120.875 F400.000
G1 X-2.800 Y120.800 F400.000
G1 X-2.500 Y120.800 F400.000
G1 X-2.300 Y120.831 F400.000
G1 X-2.138 Y120.944 F400.000
G1 X-2.112 Y121.037 F400.000
G1 X-2.112 Y121.037 F400.000
G1 X-2.156 Y121.319 F400.000
G1 X-2.250 Y121.581 F400.000
G1 X-2.312 Y121.694 F400.000
G1 X-2.381 Y121.794 F400.000
(Tool Controller Rapid Values are unset)
 G0 X-2.469 Y121.875
(Tool Controller Rapid Values are unset)
 G0 X-2.775 Y122.056
(Tool Controller Rapid Values are unset)
 G0 X-3.994 Y122.594
G1 X-4.100 Y122.644 F400.000
G1 X-4.431 Y122.775 F400.000
G1 X-4.531 Y122.787 F400.000
G1 X-4.625 Y122.769 F400.000
G1 X-4.706 Y122.725 F400.000
G1 X-4.781 Y122.650 F400.000
G1 X-4.888 Y122.456 F400.000
G1 X-4.950 Y122.225 F400.000
G1 X-4.981 Y121.994 F400.000
G1 X-4.981 Y121.994 F400.000
G1 X-4.969 Y120.994 F400.000
G1 X-4.862 Y120.494 F400.000
G1 X-4.787 Y120.300 F400.000
G1 X-4.681 Y120.125 F400.000
G1 X-4.388 Y119.838 F400.000
G1 X-4.138 Y119.656 F400.000
G1 X-3.700 Y119.400 F400.000
G1 X-3.225 Y119.231 F400.000
G1 X-2.619 Y119.156 F400.000
G1 X-2.319 Y119.188 F400.000
G1 X-2.225 Y119.231 F400.000
G1 X-2.144 Y119.294 F400.000
G1 X-2.112 Y119.388 F400.000
G1 X-2.112 Y119.388 F400.000
G1 X-2.156 Y119.669 F400.000
G1 X-2.250 Y119.931 F400.000
G1 X-2.312 Y120.044 F400.000
G1 X-2.381 Y120.144 F400.000
(Tool Controller Rapid Values are unset)
 G0 X-2.469 Y120.219
(Tool Controller Rapid Values are unset)
 G0 X-2.769 Y120.400
(Tool Controller Rapid Values are unset)
 G0 X-3.987 Y120.919
G1 X-4.100 Y120.969 F400.000
G1 X-4.425 Y121.094 F400.000
G1 X-4.531 Y121.106 F400.000
G1 X-4.625 Y121.094 F400.000
G1 X-4.706 Y121.044 F400.000
G1 X-4.781 Y120.969 F400.000
G1 X-4.888 Y120.775 F400.000
G1 X-4.950 Y120.550 F400.000
G1 X-4.981 Y120.312 F400.000
G1 X-4.981 Y120.312 F400.000
G1 X-4.975 Y119.412 F400.000
G1 X-4.881 Y118.912 F400.000
G1 X-4.769 Y118.619 F400.000
G1 X-4.644 Y118.450 F400.000
G1 X-4.425 Y118.231 F400.000
G1 X-4.175 Y118.050 F400.000
G1 X-3.737 Y117.800 F400.000
G1 X-3.269 Y117.619 F400.000
G1 X-2.837 Y117.537 F400.000
G1 X-2.438 Y117.531 F400.000
G1 X-2.337 Y117.544 F400.000
G1 X-2.244 Y117.581 F400.000
G1 X-2.169 Y117.644 F400.000
G1 X-2.112 Y117.725 F400.000
G1 X-2.112 Y117.725 F400.000
G1 X-2.156 Y118.006 F400.000
G1 X-2.250 Y118.269 F400.000
G1 X-2.381 Y118.481 F400.000
(Tool Controller Rapid Values are unset)
 G0 X-2.469 Y118.569
(Tool Controller Rapid Values are unset)
 G0 X-4.000 Y119.425
G1 X-4.112 Y119.481 F400.000
G1 X-4.438 Y119.638 F400.000
G1 X-4.537 Y119.662 F400.000
G1 X-4.625 Y119.650 F400.000
G1 X-4.706 Y119.600 F400.000
G1 X-4.781 Y119.531 F400.000
G1 X-4.888 Y119.338 F400.000
G1 X-4.950 Y119.106 F400.000
G1 X-4.981 Y118.875 F400.000
G1 X-4.981 Y118.875 F400.000
G1 X-4.969 Y117.775 F400.000
G1 X-4.875 Y117.275 F400.000
G1 X-4.750 Y116.987 F400.000
G1 X-4.481 Y116.675 F400.000
G1 X-4.237 Y116.475 F400.000
G1 X-3.712 Y116.169 F400.000
G1 X-3.244 Y115.987 F400.000
G1 X-2.763 Y115.906 F400.000
G1 X-2.362 Y115.931 F400.000
G1 X-2.269 Y115.963 F400.000
G1 X-2.181 Y116.013 F400.000
G1 X-2.112 Y116.081 F400.000
G1 X-2.112 Y116.081 F400.000
G1 X-2.156 Y116.362 F400.000
G1 X-2.250 Y116.625 F400.000
G1 X-2.312 Y116.737 F400.000
G1 X-2.381 Y116.838 F400.000
(Tool Controller Rapid Values are unset)
 G0 X-2.469 Y116.925
(Tool Controller Rapid Values are unset)
 G0 X-4.000 Y117.750
G1 X-4.112 Y117.806 F400.000
G1 X-4.438 Y117.963 F400.000
G1 X-4.537 Y117.981 F400.000
G1 X-4.625 Y117.969 F400.000
G1 X-4.706 Y117.919 F400.000
G1 X-4.781 Y117.850 F400.000
G1 X-4.888 Y117.656 F400.000
G1 X-4.950 Y117.425 F400.000
G1 X-4.981 Y117.194 F400.000
G1 X-4.981 Y117.194 F400.000
G1 X-4.975 Y116.194 F400.000
G1 X-4.856 Y115.594 F400.000
G1 X-4.781 Y115.400 F400.000
G1 X-4.662 Y115.231 F400.000
G1 X-4.438 Y115.013 F400.000
G1 X-4.100 Y114.769 F400.000
G1 X-3.663 Y114.519 F400.000
G1 X-3.188 Y114.356 F400.000
G1 X-2.606 Y114.287 F400.000
G1 X-2.306 Y114.306 F400.000
G1 X-2.219 Y114.350 F400.000
G1 X-2.138 Y114.412 F400.000
G1 X-2.112 Y114.506 F400.000
G1 X-2.112 Y114.506 F400.000
G1 X-2.156 Y114.787 F400.000
G1 X-2.250 Y115.050 F400.000
G1 X-2.312 Y115.162 F400.000
G1 X-2.381 Y115.263 F400.000
(Tool Controller Rapid Values are unset)
 G0 X-2.469 Y115.344
(Tool Controller Rapid Values are unset)
 G0 X-2.775 Y115.531
(Tool Controller Rapid Values are unset)
 G0 X-3.994 Y116.094
G1 X-4.100 Y116.150 F400.000
G1 X-4.431 Y116.287 F400.000
G1 X-4.531 Y116.306 F400.000
G1 X-4.625 Y116.287 F400.000
G1 X-4.706 Y116.244 F400.000
G1 X-4.781 Y116.169 F400.000
G1 X-4.888 Y115.975 F400.000
G1 X-4.950 Y115.744 F400.000
G1 X-4.981 Y115.513 F400.000
G1 X-4.981 Y115.513 F400.000
G1 X-4.969 Y114.513 F400.000
G1 X-4.856 Y114.013 F400.000
G1 X-4.725 Y113.731 F400.000
G1 X-4.669 Y113.644 F400.000
G1 X-4.362 Y113.350 F400.000
G1 X-4.112 Y113.169 F400.000
G1 X-3.675 Y112.919 F400.000
G1 X-3.200 Y112.744 F400.000
G1 X-2.750 Y112.669 F400.000
G1 X-2.350 Y112.681 F400.000
G1 X-2.250 Y112.713 F400.000
G1 X-2.169 Y112.775 F400.000
G1 X-2.112 Y112.856 F400.000
G1 X-2.112 Y112.856 F400.000
G1 X-2.156 Y113.138 F400.000
G1 X-2.250 Y113.400 F400.000
G1 X-2.312 Y113.513 F400.000
G1 X-2.381 Y113.612 F400.000
(Tool Controller Rapid Values are unset)
 G0 X-2.469 Y113.694
(Tool Controller Rapid Values are unset)
 G0 X-2.775 Y113.875
(Tool Controller Rapid Values are unset)
 G0 X-3.994 Y114.431
G1 X-4.100 Y114.481 F400.000
G1 X-4.431 Y114.612 F400.000
G1 X-4.531 Y114.631 F400.000
G1 X-4.625 Y114.612 F400.000
G1 X-4.706 Y114.569 F400.000
G1 X-4.781 Y114.494 F400.000
G1 X-4.888 Y114.300 F400.000
G1 X-4.950 Y114.069 F400.000
G1 X-4.981 Y113.838 F400.000
G1 X-4.981 Y113.838 F400.000
G1 X-4.975 Y112.938 F400.000
G1 X-4.881 Y112.438 F400.000
G1 X-4.763 Y112.150 F400.000
G1 X-4.713 Y112.062 F400.000
G1 X-4.350 Y111.694 F400.000
G1 X-4.181 Y111.569 F400.000
G1 X-3.756 Y111.300 F400.000
G1 X-3.288 Y111.112 F400.000
G1 X-2.862 Y111.037 F400.000
G1 X-2.462 Y111.031 F400.000
G1 X-2.263 Y111.075 F400.000
G1 X-2.112 Y111.206 F400.000
G1 X-2.112 Y111.206 F400.000
G1 X-2.156 Y111.487 F400.000
G1 X-2.250 Y111.750 F400.000
G1 X-2.381 Y111.963 F400.000
(Tool Controller Rapid Values are unset)
 G0 X-2.469 Y112.050
(Tool Controller Rapid Values are unset)
 G0 X-4.006 Y112.938
G1 X-4.119 Y112.994 F400.000
G1 X-4.438 Y113.156 F400.000
G1 X-4.537 Y113.175 F400.000
G1 X-4.625 Y113.162 F400.000
G1 X-4.706 Y113.119 F400.000
G1 X-4.781 Y113.050 F400.000
G1 X-4.888 Y112.856 F400.000
G1 X-4.950 Y112.625 F400.000
G1 X-4.981 Y112.394 F400.000
G1 X-4.981 Y112.394 F400.000
G1 X-4.963 Y111.194 F400.000
G1 X-4.856 Y110.694 F400.000
G1 X-4.781 Y110.500 F400.000
G1 X-4.675 Y110.325 F400.000
G1 X-4.375 Y110.037 F400.000
G1 X-4.119 Y109.856 F400.000
G1 X-3.681 Y109.600 F400.000
G1 X-3.206 Y109.431 F400.000
G1 X-2.681 Y109.369 F400.000
G1 X-2.481 Y109.375 F400.000
G1 X-2.288 Y109.425 F400.000
G1 X-2.125 Y109.537 F400.000
G1 X-2.112 Y109.631 F400.000
G1 X-2.112 Y109.631 F400.000
G1 X-2.156 Y109.912 F400.000
G1 X-2.250 Y110.175 F400.000
G1 X-2.312 Y110.287 F400.000
G1 X-2.381 Y110.388 F400.000
(Tool Controller Rapid Values are unset)
 G0 X-2.469 Y110.469
(Tool Controller Rapid Values are unset)
 G0 X-3.994 Y111.281
G1 X-4.106 Y111.331 F400.000
G1 X-4.431 Y111.481 F400.000
G1 X-4.531 Y111.500 F400.000
G1 X-4.625 Y111.487 F400.000
G1 X-4.706 Y111.438 F400.000
G1 X-4.781 Y111.369 F400.000
G1 X-4.888 Y111.175 F400.000
G1 X-4.950 Y110.944 F400.000
G1 X-4.981 Y110.713 F400.000
G1 X-4.981 Y110.713 F400.000
G1 X-4.969 Y109.612 F400.000
G1 X-4.900 Y109.213 F400.000
G1 X-4.756 Y108.825 F400.000
G1 X-4.494 Y108.506 F400.000
G1 X-4.175 Y108.250 F400.000
G1 X-3.744 Y107.987 F400.000
G1 X-3.269 Y107.812 F400.000
G1 X-2.663 Y107.725 F400.000
G1 X-2.362 Y107.756 F400.000
G1 X-2.263 Y107.787 F400.000
G1 X-2.112 Y107.912 F400.000
G1 X-2.112 Y107.912 F400.000
G1 X-2.156 Y108.194 F400.000
G1 X-2.250 Y108.456 F400.000
G1 X-2.312 Y108.569 F400.000
G1 X-2.381 Y108.669 F400.000
(Tool Controller Rapid Values are unset)
 G0 X-2.469 Y108.756
(Tool Controller Rapid Values are unset)
 G0 X-4.000 Y109.594
G1 X-4.112 Y109.650 F400.000
G1 X-4.438 Y109.806 F400.000
G1 X-4.537 Y109.825 F400.000
G1 X-4.625 Y109.812 F400.000
G1 X-4.706 Y109.763 F400.000
G1 X-4.781 Y109.694 F400.000
G1 X-4.888 Y109.500 F400.000
G1 X-4.950 Y109.269 F400.000
G1 X-4.981 Y109.037 F400.000
G1 X-4.981 Y109.037 F400.000
G1 X-4.969 Y107.938 F400.000
G1 X-4.875 Y107.438 F400.000
G1 X-4.750 Y107.150 F400.000
G1 X-4.625 Y106.981 F400.000
G1 X-4.400 Y106.763 F400.000
G1 X-4.144 Y106.581 F400.000
G1 X-3.700 Y106.344 F400.000
G1 X-3.225 Y106.175 F400.000
G1 X-2.731 Y106.106 F400.000
G1 X-2.331 Y106.125 F400.000
G1 X-2.237 Y106.162 F400.000
G1 X-2.163 Y106.231 F400.000
G1 X-2.112 Y106.312 F400.000
G1 X-2.112 Y106.312 F400.000
G1 X-2.156 Y106.594 F400.000
G1 X-2.250 Y106.856 F400.000
G1 X-2.312 Y106.969 F400.000
G1 X-2.381 Y107.069 F400.000
(Tool Controller Rapid Values are unset)
 G0 X-2.469 Y107.150
(Tool Controller Rapid Values are unset)
 G0 X-3.994 Y107.931
G1 X-4.106 Y107.981 F400.000
G1 X-4.431 Y108.131 F400.000
G1 X-4.531 Y108.144 F400.000
G1 X-4.625 Y108.131 F400.000
G1 X-4.706 Y108.081 F400.000
G1 X-4.781 Y108.013 F400.000
G1 X-4.888 Y107.819 F400.000
G1 X-4.950 Y107.588 F400.000
G1 X-4.981 Y107.356 F400.000
G1 X-4.981 Y107.356 F400.000
G1 X-4.975 Y106.356 F400.000
G1 X-4.912 Y105.956 F400.000
G1 X-4.769 Y105.569 F400.000
G1 X-4.662 Y105.394 F400.000
G1 X-4.194 Y104.981 F400.000
G1 X-3.675 Y104.662 F400.000
G1 X-3.200 Y104.500 F400.000
G1 X-2.731 Y104.438 F400.000
G1 X-2.431 Y104.450 F400.000
G1 X-2.331 Y104.469 F400.000
G1 X-2.237 Y104.513 F400.000
G1 X-2.156 Y104.575 F400.000
G1 X-2.112 Y104.662 F400.000
G1 X-2.112 Y104.662 F400.000
G1 X-2.156 Y104.944 F400.000
G1 X-2.250 Y105.206 F400.000
G1 X-2.312 Y105.319 F400.000
G1 X-2.381 Y105.419 F400.000
(Tool Controller Rapid Values are unset)
 G0 X-2.469 Y105.500
(Tool Controller Rapid Values are unset)
 G0 X-3.994 Y106.256
G1 X-4.100 Y106.306 F400.000
G1 X-4.431 Y106.450 F400.000
G1 X-4.531 Y106.469 F400.000
G1 X-4.625 Y106.450 F400.000
G1 X-4.706 Y106.406 F400.000
G1 X-4.781 Y106.331 F400.000
G1 X-4.888 Y106.138 F400.000
G1 X-4.950 Y105.906 F400.000
G1 X-4.981 Y105.675 F400.000
G1 X-4.981 Y105.675 F400.000
G1 X-4.969 Y104.675 F400.000
G1 X-4.875 Y104.175 F400.000
G1 X-4.763 Y103.888 F400.000
G1 X-4.650 Y103.713 F400.000
G1 X-4.431 Y103.494 F400.000
G1 X-4.181 Y103.300 F400.000
G1 X-3.756 Y103.031 F400.000
G1 X-3.288 Y102.850 F400.000
G1 X-2.919 Y102.787 F400.000
G1 X-2.438 Y102.787 F400.000
G1 X-2.337 Y102.800 F400.000
G1 X-2.244 Y102.844 F400.000
G1 X-2.163 Y102.906 F400.000
G1 X-2.112 Y102.987 F400.000
G1 X-2.112 Y102.987 F400.000
G1 X-2.156 Y103.269 F400.000
G1 X-2.250 Y103.531 F400.000
G1 X-2.312 Y103.644 F400.000
G1 X-2.381 Y103.744 F400.000
(Tool Controller Rapid Values are unset)
 G0 X-2.469 Y103.825
(Tool Controller Rapid Values are unset)
 G0 X-2.775 Y104.013
(Tool Controller Rapid Values are unset)
 G0 X-3.994 Y104.575
G1 X-4.100 Y104.631 F400.000
G1 X-4.431 Y104.769 F400.000
G1 X-4.531 Y104.787 F400.000
G1 X-4.625 Y104.769 F400.000
G1 X-4.706 Y104.725 F400.000
G1 X-4.781 Y104.650 F400.000
G1 X-4.888 Y104.456 F400.000
G1 X-4.950 Y104.225 F400.000
G1 X-4.981 Y103.994 F400.000
G1 X-4.981 Y103.994 F400.000
G1 X-4.969 Y102.994 F400.000
G1 X-4.869 Y102.494 F400.000
G1 X-4.756 Y102.200 F400.000
G1 X-4.644 Y102.031 F400.000
G1 X-4.425 Y101.812 F400.000
G1 X-4.175 Y101.631 F400.000
G1 X-3.731 Y101.388 F400.000
G1 X-3.256 Y101.213 F400.000
G1 X-2.694 Y101.138 F400.000
G1 X-2.294 Y101.181 F400.000
G1 X-2.206 Y101.231 F400.000
G1 X-2.131 Y101.300 F400.000
G1 X-2.112 Y101.394 F400.000
G1 X-2.112 Y101.394 F400.000
G1 X-2.156 Y101.675 F400.000
G1 X-2.250 Y101.938 F400.000
G1 X-2.312 Y102.050 F400.000
G1 X-2.381 Y102.150 F400.000
(Tool Controller Rapid Values are unset)
 G0 X-2.469 Y102.225
(Tool Controller Rapid Values are unset)
 G0 X-2.769 Y102.406
(Tool Controller Rapid Values are unset)
 G0 X-3.987 Y102.919
G1 X-4.100 Y102.969 F400.000
G1 X-4.425 Y103.094 F400.000
G1 X-4.531 Y103.106 F400.000
G1 X-4.625 Y103.094 F400.000
G1 X-4.706 Y103.044 F400.000
G1 X-4.781 Y102.969 F400.000
G1 X-4.888 Y102.775 F400.000
G1 X-4.950 Y102.550 F400.000
G1 X-4.981 Y102.312 F400.000
G1 X-4.981 Y102.312 F400.000
G1 X-4.975 Y101.412 F400.000
G1 X-4.881 Y100.912 F400.000
G1 X-4.775 Y100.619 F400.000
G1 X-4.594 Y100.369 F400.000
G1 X-4.369 Y100.150 F400.000
G1 X-4.119 Y99.969 F400.000
G1 X-3.675 Y99.725 F400.000
G1 X-3.200 Y99.562 F400.000
G1 X-2.781 Y99.500 F400.000
G1 X-2.481 Y99.500 F400.000
G1 X-2.281 Y99.537 F400.000
G1 X-2.125 Y99.662 F400.000
G1 X-2.112 Y99.756 F400.000
G1 X-2.112 Y99.756 F400.000
G1 X-2.156 Y100.037 F400.000
G1 X-2.250 Y100.300 F400.000
G1 X-2.312 Y100.412 F400.000
G1 X-2.381 Y100.513 F400.000
(Tool Controller Rapid Values are unset)
 G0 X-2.469 Y100.600
(Tool Controller Rapid Values are unset)
 G0 X-4.000 Y101.431
G1 X-4.112 Y101.487 F400.000
G1 X-4.438 Y101.644 F400.000
G1 X-4.537 Y101.662 F400.000
G1 X-4.625 Y101.650 F400.000
G1 X-4.706 Y101.600 F400.000
G1 X-4.781 Y101.531 F400.000
G1 X-4.888 Y101.338 F400.000
G1 X-4.950 Y101.106 F400.000
G1 X-4.981 Y100.875 F400.000
G1 X-4.981 Y100.875 F400.000
G1 X-4.969 Y99.675 F400.000
G1 X-4.856 Y99.175 F400.000
G1 X-4.725 Y98.894 F400.000
G1 X-4.362 Y98.519 F400.000
G1 X-4.112 Y98.331 F400.000
G1 X-3.681 Y98.069 F400.000
G1 X-3.206 Y97.906 F400.000
G1 X-2.638 Y97.831 F400.000
G1 X-2.337 Y97.869 F400.000
G1 X-2.244 Y97.906 F400.000
G1 X-2.163 Y97.963 F400.000
G1 X-2.112 Y98.050 F400.000
G1 X-2.112 Y98.050 F400.000
G1 X-2.156 Y98.331 F400.000
G1 X-2.250 Y98.594 F400.000
G1 X-2.381 Y98.806 F400.000
(Tool Controller Rapid Values are unset)
 G0 X-2.469 Y98.894
(Tool Controller Rapid Values are unset)
 G0 X-4.000 Y99.744
G1 X-4.112 Y99.800 F400.000
G1 X-4.438 Y99.956 F400.000
G1 X-4.537 Y99.981 F400.000
G1 X-4.625 Y99.969 F400.000
G1 X-4.706 Y99.919 F400.000
G1 X-4.781 Y99.850 F400.000
G1 X-4.888 Y99.656 F400.000
G1 X-4.950 Y99.425 F400.000
G1 X-4.981 Y99.194 F400.000
G1 X-4.981 Y99.194 F400.000
G1 X-4.975 Y98.094 F400.000
G1 X-4.881 Y97.594 F400.000
G1 X-4.769 Y97.306 F400.000
G1 X-4.656 Y97.131 F400.000
G1 X-4.444 Y96.906 F400.000
G1 X-4.112 Y96.656 F400.000
G1 X-3.675 Y96.406 F400.000
G1 X-3.200 Y96.244 F400.000
G1 X-2.688 Y96.181 F400.000
G1 X-2.388 Y96.194 F400.000
G1 X-2.288 Y96.219 F400.000
G1 X-2.200 Y96.269 F400.000
G1 X-2.125 Y96.338 F400.000
G1 X-2.112 Y96.431 F400.000
G1 X-2.112 Y96.431 F400.000
G1 X-2.156 Y96.713 F400.000
G1 X-2.250 Y96.975 F400.000
G1 X-2.312 Y97.088 F400.000
G1 X-2.381 Y97.188 F400.000
(Tool Controller Rapid Values are unset)
 G0 X-2.469 Y97.269
(Tool Controller Rapid Values are unset)
 G0 X-3.994 Y98.081
G1 X-4.106 Y98.131 F400.000
G1 X-4.431 Y98.281 F400.000
G1 X-4.531 Y98.300 F400.000
G1 X-4.625 Y98.287 F400.000
G1 X-4.706 Y98.237 F400.000
G1 X-4.781 Y98.169 F400.000
G1 X-4.888 Y97.975 F400.000
G1 X-4.950 Y97.744 F400.000
G1 X-4.981 Y97.513 F400.000
G1 X-4.981 Y97.513 F400.000
G1 X-4.969 Y96.412 F400.000
G1 X-4.875 Y95.912 F400.000
G1 X-4.763 Y95.619 F400.000
G1 X-4.575 Y95.375 F400.000
G1 X-4.181 Y95.037 F400.000
G1 X-3.756 Y94.763 F400.000
G1 X-3.281 Y94.594 F400.000
G1 X-2.913 Y94.525 F400.000
G1 X-2.519 Y94.519 F400.000
G1 X-2.319 Y94.544 F400.000
G1 X-2.150 Y94.656 F400.000
G1 X-2.112 Y94.744 F400.000
G1 X-2.112 Y94.744 F400.000
G1 X-2.156 Y95.025 F400.000
G1 X-2.250 Y95.287 F400.000
G1 X-2.312 Y95.400 F400.000
G1 X-2.381 Y95.500 F400.000
(Tool Controller Rapid Values are unset)
 G0 X-2.469 Y95.588
(Tool Controller Rapid Values are unset)
 G0 X-4.000 Y96.400
G1 X-4.112 Y96.456 F400.000
G1 X-4.438 Y96.606 F400.000
G1 X-4.537 Y96.625 F400.000
G1 X-4.625 Y96.612 F400.000
G1 X-4.706 Y96.562 F400.000
G1 X-4.781 Y96.494 F400.000
G1 X-4.888 Y96.300 F400.000
G1 X-4.950 Y96.069 F400.000
G1 X-4.981 Y95.838 F400.000
G1 X-4.981 Y95.838 F400.000
G1 X-4.969 Y94.737 F400.000
G1 X-4.869 Y94.237 F400.000
G1 X-4.756 Y93.944 F400.000
G1 X-4.500 Y93.619 F400.000
G1 X-4.169 Y93.362 F400.000
G1 X-3.725 Y93.119 F400.000
G1 X-3.250 Y92.950 F400.000
G1 X-2.712 Y92.869 F400.000
G1 X-2.413 Y92.875 F400.000
G1 X-2.312 Y92.894 F400.000
G1 X-2.219 Y92.938 F400.000
G1 X-2.144 Y93.006 F400.000
G1 X-2.112 Y93.100 F400.000
G1 X-2.112 Y93.100 F400.000
G1 X-2.156 Y93.381 F400.000
G1 X-2.250 Y93.644 F400.000
G1 X-2.312 Y93.756 F400.000
G1 X-2.381 Y93.856 F400.000
(Tool Controller Rapid Values are unset)
 G0 X-2.469 Y93.938
(Tool Controller Rapid Values are unset)
 G0 X-3.994 Y94.731
G1 X-4.106 Y94.781 F400.000
G1 X-4.431 Y94.931 F400.000
G1 X-4.531 Y94.944 F400.000
G1 X-4.625 Y94.931 F400.000
G1 X-4.706 Y94.881 F400.000
G1 X-4.781 Y94.812 F400.000
G1 X-4.888 Y94.619 F400.000
G1 X-4.950 Y94.388 F400.000
G1 X-4.981 Y94.156 F400.000
G1 X-4.981 Y94.156 F400.000
G1 X-4.975 Y93.156 F400.000
G1 X-4.881 Y92.656 F400.000
G1 X-4.769 Y92.362 F400.000
G1 X-4.656 Y92.181 F400.000
G1 X-4.444 Y91.956 F400.000
G1 X-4.200 Y91.756 F400.000
G1 X-3.681 Y91.438 F400.000
G1 X-3.206 Y91.275 F400.000
G1 X-2.631 Y91.206 F400.000
G1 X-2.331 Y91.237 F400.000
G1 X-2.237 Y91.281 F400.000
G1 X-2.156 Y91.344 F400.000
G1 X-2.112 Y91.431 F400.000
G1 X-2.112 Y91.431 F400.000
G1 X-2.156 Y91.713 F400.000
G1 X-2.250 Y91.975 F400.000
G1 X-2.312 Y92.088 F400.000
G1 X-2.381 Y92.188 F400.000
(Tool Controller Rapid Values are unset)
 G0 X-2.469 Y92.269
(Tool Controller Rapid Values are unset)
 G0 X-3.994 Y93.050
G1 X-4.106 Y93.100 F400.000
G1 X-4.431 Y93.250 F400.000
G1 X-4.531 Y93.263 F400.000
G1 X-4.625 Y93.250 F400.000
G1 X-4.706 Y93.200 F400.000
